%
O12230
(Machine)
(  vendor: Autodesk)
(  model: Generic 3-axis)
(  description: This machine has X axis on the Table and YZ axis on the Head)
(T101 D=0.25 CR=0. - ZMIN=0.015 - flat end mill)
N10 G90 G94 G17
N15 G20
N20 G53 G0 Z3.4

(Holes)
N30 T101 M6
N35 S18000 M3
N40 G54
N55 G0 X-2.1642 Y-61.2917
N60 G43 Z1.0906 H101
N65 G0 Z0.5787
N70 G1 Z0.525 F108.
N75 G18 G3 X-2.1892 Z0.5 I-0.025 K0.
N80 G1 X-2.2017
N85 G17 G3 X-2.2267 Y-61.3167 I0. J-0.025
N90 X-2.2265 Y-61.3115 Z0.4873 I0.0596 J0.
N95 X-2.2258 Y-61.3063 Z0.4746 I0.0594 J-0.0052
N100 X-2.2247 Y-61.3013 Z0.4619 I0.0587 J-0.0104
N105 X-2.2231 Y-61.2963 Z0.4491 I0.0576 J-0.0154
N110 X-2.2211 Y-61.2915 Z0.4364 I0.056 J-0.0204
N115 X-2.2187 Y-61.2869 Z0.4237 I0.054 J-0.0252
N120 X-2.2159 Y-61.2825 Z0.411 I0.0516 J-0.0298
N125 X-2.2128 Y-61.2784 Z0.3983 I0.0488 J-0.0342
N130 X-2.2092 Y-61.2745 Z0.3856 I0.0457 J-0.0383
N135 X-2.2054 Y-61.271 Z0.3728 I0.0422 J-0.0422
N140 X-2.2013 Y-61.2678 Z0.3601 I0.0383 J-0.0457
N145 X-2.1969 Y-61.265 Z0.3474 I0.0342 J-0.0488
N150 X-2.1923 Y-61.2626 Z0.3347 I0.0298 J-0.0516
N155 X-2.1875 Y-61.2607 Z0.322 I0.0252 J-0.054
N160 X-2.1825 Y-61.2591 Z0.3093 I0.0204 J-0.056
N165 X-2.1774 Y-61.258 Z0.2966 I0.0154 J-0.0576
N170 X-2.1723 Y-61.2573 Z0.2838 I0.0104 J-0.0587
N175 X-2.1671 Y-61.2571 Z0.2711 I0.0052 J-0.0594
N180 X-2.1619 Y-61.2573 Z0.2584 I0. J-0.0596
N185 X-2.1567 Y-61.258 Z0.2457 I-0.0052 J-0.0594
N190 X-2.1517 Y-61.2591 Z0.233 I-0.0104 J-0.0587
N195 X-2.1467 Y-61.2607 Z0.2203 I-0.0154 J-0.0576
N200 X-2.1419 Y-61.2626 Z0.2075 I-0.0204 J-0.056
N205 X-2.1373 Y-61.265 Z0.1948 I-0.0252 J-0.054
N210 X-2.1329 Y-61.2678 Z0.1821 I-0.0298 J-0.0516
N215 X-2.1288 Y-61.271 Z0.1694 I-0.0342 J-0.0488
N220 X-2.1249 Y-61.2745 Z0.1567 I-0.0383 J-0.0457
N225 X-2.1214 Y-61.2784 Z0.144 I-0.0422 J-0.0422
N230 X-2.1182 Y-61.2825 Z0.1313 I-0.0457 J-0.0383
N235 X-2.1155 Y-61.2869 Z0.1185 I-0.0488 J-0.0342
N240 X-2.1087 Y-61.3047 Z0.1063 I-0.0516 J-0.0298
N245 X-2.2255 Y-61.3287 I-0.0584 J-0.012
N250 X-2.1087 Y-61.3047 I0.0584 J0.012
N255 X-2.1382 Y-61.2852 I-0.0245 J-0.005
N260 G1 X-2.1505 Y-61.2877
N265 X-2.1543 Y-61.2885 Z0.1066
N270 X-2.158 Y-61.2893 Z0.1075
N275 X-2.1616 Y-61.29 Z0.109
N280 X-2.1648 Y-61.2907 Z0.1111
N285 X-2.1678 Y-61.2913 Z0.1136
N290 X-2.1703 Y-61.2918 Z0.1166
N295 X-2.1723 Y-61.2922 Z0.1199
N300 X-2.1737 Y-61.2925 Z0.1236
N305 X-2.1746 Y-61.2927 Z0.1274
N310 X-2.1749 Y-61.2928 Z0.1313
N315 G0 Z0.6969
N320 G1 X-2.1642 Y-56.0948 F500.
N325 G0 Z0.5787
N330 G1 Z0.525 F108.
N335 G18 G3 X-2.1892 Z0.5 I-0.025 K0.
N340 G1 X-2.2017
N345 G17 G3 X-2.2267 Y-56.1198 I0. J-0.025
N350 X-2.2265 Y-56.1146 Z0.4873 I0.0596 J0.
N355 X-2.2258 Y-56.1095 Z0.4746 I0.0594 J-0.0052
N360 X-2.2247 Y-56.1044 Z0.4619 I0.0587 J-0.0104
N365 X-2.2231 Y-56.0994 Z0.4491 I0.0576 J-0.0154
N370 X-2.2211 Y-56.0946 Z0.4364 I0.056 J-0.0204
N375 X-2.2187 Y-56.09 Z0.4237 I0.054 J-0.0252
N380 X-2.2159 Y-56.0856 Z0.411 I0.0516 J-0.0298
N385 X-2.2128 Y-56.0815 Z0.3983 I0.0488 J-0.0342
N390 X-2.2092 Y-56.0777 Z0.3856 I0.0457 J-0.0383
N395 X-2.2054 Y-56.0742 Z0.3728 I0.0422 J-0.0422
N400 X-2.2013 Y-56.071 Z0.3601 I0.0383 J-0.0457
N405 X-2.1969 Y-56.0682 Z0.3474 I0.0342 J-0.0488
N410 X-2.1923 Y-56.0658 Z0.3347 I0.0298 J-0.0516
N415 X-2.1875 Y-56.0638 Z0.322 I0.0252 J-0.054
N420 X-2.1825 Y-56.0622 Z0.3093 I0.0204 J-0.056
N425 X-2.1774 Y-56.0611 Z0.2966 I0.0154 J-0.0576
N430 X-2.1723 Y-56.0604 Z0.2838 I0.0104 J-0.0587
N435 X-2.1671 Y-56.0602 Z0.2711 I0.0052 J-0.0594
N440 X-2.1619 Y-56.0604 Z0.2584 I0. J-0.0596
N445 X-2.1567 Y-56.0611 Z0.2457 I-0.0052 J-0.0594
N450 X-2.1517 Y-56.0622 Z0.233 I-0.0104 J-0.0587
N455 X-2.1467 Y-56.0638 Z0.2203 I-0.0154 J-0.0576
N460 X-2.1419 Y-56.0658 Z0.2075 I-0.0204 J-0.056
N465 X-2.1373 Y-56.0682 Z0.1948 I-0.0252 J-0.054
N470 X-2.1329 Y-56.071 Z0.1821 I-0.0298 J-0.0516
N475 X-2.1288 Y-56.0742 Z0.1694 I-0.0342 J-0.0488
N480 X-2.1249 Y-56.0777 Z0.1567 I-0.0383 J-0.0457
N485 X-2.1214 Y-56.0815 Z0.144 I-0.0422 J-0.0422
N490 X-2.1182 Y-56.0856 Z0.1313 I-0.0457 J-0.0383
N495 X-2.1155 Y-56.09 Z0.1185 I-0.0488 J-0.0342
N500 X-2.1087 Y-56.1078 Z0.1063 I-0.0516 J-0.0298
N505 X-2.2255 Y-56.1319 I-0.0584 J-0.012
N510 X-2.1087 Y-56.1078 I0.0584 J0.012
N515 X-2.1382 Y-56.0884 I-0.0245 J-0.005
N520 G1 X-2.1505 Y-56.0909
N525 X-2.1543 Y-56.0917 Z0.1066
N530 X-2.158 Y-56.0924 Z0.1075
N535 X-2.1616 Y-56.0932 Z0.109
N540 X-2.1648 Y-56.0939 Z0.1111
N545 X-2.1678 Y-56.0945 Z0.1136
N550 X-2.1703 Y-56.095 Z0.1166
N555 X-2.1723 Y-56.0954 Z0.1199
N560 X-2.1737 Y-56.0957 Z0.1236
N565 X-2.1746 Y-56.0959 Z0.1274
N570 X-2.1749 Z0.1313
N575 G0 Z0.6969
N580 G1 X-12.7198 Y-37.2405 F500.
N585 G0 Z0.5787
N590 G1 Z0.525 F108.
N595 G19 G2 Y-37.2655 Z0.5 J-0.025 K0.
N600 G1 Y-37.278
N605 G17 G3 X-12.6948 Y-37.303 I0.025 J0.
N610 X-12.7 Y-37.3028 Z0.4873 I0. J0.0596
N615 X-12.7052 Y-37.3021 Z0.4746 I0.0052 J0.0594
N620 X-12.7103 Y-37.301 Z0.4619 I0.0104 J0.0587
N625 X-12.7152 Y-37.2994 Z0.4491 I0.0154 J0.0576
N630 X-12.72 Y-37.2974 Z0.4364 I0.0204 J0.056
N635 X-12.7246 Y-37.295 Z0.4237 I0.0252 J0.054
N640 X-12.729 Y-37.2922 Z0.411 I0.0298 J0.0516
N645 X-12.7332 Y-37.2891 Z0.3983 I0.0342 J0.0488
N650 X-12.737 Y-37.2856 Z0.3856 I0.0383 J0.0457
N655 X-12.7405 Y-37.2817 Z0.3728 I0.0422 J0.0422
N660 X-12.7437 Y-37.2776 Z0.3601 I0.0457 J0.0383
N665 X-12.7465 Y-37.2732 Z0.3474 I0.0488 J0.0342
N670 X-12.7489 Y-37.2686 Z0.3347 I0.0516 J0.0298
N675 X-12.7509 Y-37.2638 Z0.322 I0.054 J0.0252
N680 X-12.7524 Y-37.2588 Z0.3093 I0.056 J0.0204
N685 X-12.7535 Y-37.2538 Z0.2966 I0.0576 J0.0154
N690 X-12.7542 Y-37.2486 Z0.2838 I0.0587 J0.0104
N695 X-12.7544 Y-37.2434 Z0.2711 I0.0594 J0.0052
N700 X-12.7542 Y-37.2382 Z0.2584 I0.0596 J0.
N705 X-12.7535 Y-37.233 Z0.2457 I0.0594 J-0.0052
N710 X-12.7524 Y-37.228 Z0.233 I0.0587 J-0.0104
N715 X-12.7509 Y-37.223 Z0.2203 I0.0576 J-0.0154
N720 X-12.7489 Y-37.2182 Z0.2075 I0.056 J-0.0204
N725 X-12.7465 Y-37.2136 Z0.1948 I0.054 J-0.0252
N730 X-12.7437 Y-37.2092 Z0.1821 I0.0516 J-0.0298
N735 X-12.7405 Y-37.2051 Z0.1694 I0.0488 J-0.0342
N740 X-12.737 Y-37.2012 Z0.1567 I0.0457 J-0.0383
N745 X-12.7332 Y-37.1977 Z0.144 I0.0422 J-0.0422
N750 X-12.729 Y-37.1946 Z0.1313 I0.0383 J-0.0457
N755 X-12.7246 Y-37.1918 Z0.1185 I0.0342 J-0.0488
N760 X-12.7068 Y-37.185 Z0.1063 I0.0298 J-0.0516
N765 X-12.6828 Y-37.3018 I0.012 J-0.0584
N770 X-12.7068 Y-37.185 I-0.012 J0.0584
N775 X-12.7263 Y-37.2145 I0.005 J-0.0245
N780 G1 X-12.7238 Y-37.2268
N785 X-12.723 Y-37.2306 Z0.1066
N790 X-12.7222 Y-37.2343 Z0.1075
N795 X-12.7215 Y-37.2379 Z0.109
N800 X-12.7208 Y-37.2412 Z0.1111
N805 X-12.7202 Y-37.2441 Z0.1136
N810 X-12.7197 Y-37.2466 Z0.1166
N815 X-12.7193 Y-37.2486 Z0.1199
N820 X-12.719 Y-37.2501 Z0.1236
N825 X-12.7188 Y-37.251 Z0.1274
N830 X-12.7187 Y-37.2513 Z0.1313
N835 G0 Z0.6969
N840 G1 X-12.7762 Y-42.6623 F500.
N845 G0 Z0.5787
N850 G1 Z0.525 F108.
N855 G19 G2 Y-42.6873 Z0.5 J-0.025 K0.
N860 G1 Y-42.6998
N865 G17 G3 X-12.7512 Y-42.7248 I0.025 J0.
N870 X-12.7564 Y-42.7245 Z0.4873 I0. J0.0596
N875 X-12.7616 Y-42.7239 Z0.4746 I0.0052 J0.0594
N880 X-12.7667 Y-42.7227 Z0.4619 I0.0104 J0.0587
N885 X-12.7716 Y-42.7212 Z0.4491 I0.0154 J0.0576
N890 X-12.7764 Y-42.7192 Z0.4364 I0.0204 J0.056
N895 X-12.7811 Y-42.7168 Z0.4237 I0.0252 J0.054
N900 X-12.7854 Y-42.714 Z0.411 I0.0298 J0.0516
N905 X-12.7896 Y-42.7108 Z0.3983 I0.0342 J0.0488
N910 X-12.7934 Y-42.7073 Z0.3856 I0.0383 J0.0457
N915 X-12.7969 Y-42.7035 Z0.3728 I0.0422 J0.0422
N920 X-12.8001 Y-42.6993 Z0.3601 I0.0457 J0.0383
N925 X-12.8029 Y-42.6949 Z0.3474 I0.0488 J0.0342
N930 X-12.8053 Y-42.6903 Z0.3347 I0.0516 J0.0298
N935 X-12.8073 Y-42.6855 Z0.322 I0.054 J0.0252
N940 X-12.8088 Y-42.6806 Z0.3093 I0.056 J0.0204
N945 X-12.81 Y-42.6755 Z0.2966 I0.0576 J0.0154
N950 X-12.8106 Y-42.6703 Z0.2838 I0.0587 J0.0104
N955 X-12.8109 Y-42.6651 Z0.2711 I0.0594 J0.0052
N960 X-12.8106 Y-42.6599 Z0.2584 I0.0596 J0.
N965 X-12.81 Y-42.6548 Z0.2457 I0.0594 J-0.0052
N970 X-12.8088 Y-42.6497 Z0.233 I0.0587 J-0.0104
N975 X-12.8073 Y-42.6447 Z0.2203 I0.0576 J-0.0154
N980 X-12.8053 Y-42.6399 Z0.2075 I0.056 J-0.0204
N985 X-12.8029 Y-42.6353 Z0.1948 I0.054 J-0.0252
N990 X-12.8001 Y-42.6309 Z0.1821 I0.0516 J-0.0298
N995 X-12.7969 Y-42.6268 Z0.1694 I0.0488 J-0.0342
N1000 X-12.7934 Y-42.623 Z0.1567 I0.0457 J-0.0383
N1005 X-12.7896 Y-42.6195 Z0.144 I0.0422 J-0.0422
N1010 X-12.7854 Y-42.6163 Z0.1313 I0.0383 J-0.0457
N1015 X-12.7811 Y-42.6135 Z0.1185 I0.0342 J-0.0488
N1020 X-12.7633 Y-42.6067 Z0.1063 I0.0298 J-0.0516
N1025 X-12.7392 Y-42.7235 I0.012 J-0.0584
N1030 X-12.7633 Y-42.6067 I-0.012 J0.0584
N1035 X-12.7827 Y-42.6363 I0.005 J-0.0245
N1040 G1 X-12.7802 Y-42.6485
N1045 X-12.7794 Y-42.6523 Z0.1066
N1050 X-12.7786 Y-42.6561 Z0.1075
N1055 X-12.7779 Y-42.6596 Z0.109
N1060 X-12.7772 Y-42.6629 Z0.1111
N1065 X-12.7766 Y-42.6658 Z0.1136
N1070 X-12.7761 Y-42.6683 Z0.1166
N1075 X-12.7757 Y-42.6703 Z0.1199
N1080 X-12.7754 Y-42.6718 Z0.1236
N1085 X-12.7752 Y-42.6727 Z0.1274
N1090 Y-42.673 Z0.1313
N1095 G0 Z0.6969
N1100 G1 X-12.7198 Y-48.0739 F500.
N1105 G0 Z0.5787
N1110 G1 Z0.525 F108.
N1115 G19 G2 Y-48.0989 Z0.5 J-0.025 K0.
N1120 G1 Y-48.1114
N1125 G17 G3 X-12.6948 Y-48.1364 I0.025 J0.
N1130 X-12.7 Y-48.1361 Z0.4873 I0. J0.0596
N1135 X-12.7052 Y-48.1355 Z0.4746 I0.0052 J0.0594
N1140 X-12.7103 Y-48.1343 Z0.4619 I0.0104 J0.0587
N1145 X-12.7152 Y-48.1328 Z0.4491 I0.0154 J0.0576
N1150 X-12.72 Y-48.1308 Z0.4364 I0.0204 J0.056
N1155 X-12.7246 Y-48.1284 Z0.4237 I0.0252 J0.054
N1160 X-12.729 Y-48.1256 Z0.411 I0.0298 J0.0516
N1165 X-12.7332 Y-48.1224 Z0.3983 I0.0342 J0.0488
N1170 X-12.737 Y-48.1189 Z0.3856 I0.0383 J0.0457
N1175 X-12.7405 Y-48.1151 Z0.3728 I0.0422 J0.0422
N1180 X-12.7437 Y-48.1109 Z0.3601 I0.0457 J0.0383
N1185 X-12.7465 Y-48.1065 Z0.3474 I0.0488 J0.0342
N1190 X-12.7489 Y-48.1019 Z0.3347 I0.0516 J0.0298
N1195 X-12.7509 Y-48.0971 Z0.322 I0.054 J0.0252
N1200 X-12.7524 Y-48.0922 Z0.3093 I0.056 J0.0204
N1205 X-12.7535 Y-48.0871 Z0.2966 I0.0576 J0.0154
N1210 X-12.7542 Y-48.0819 Z0.2838 I0.0587 J0.0104
N1215 X-12.7544 Y-48.0767 Z0.2711 I0.0594 J0.0052
N1220 X-12.7542 Y-48.0715 Z0.2584 I0.0596 J0.
N1225 X-12.7535 Y-48.0664 Z0.2457 I0.0594 J-0.0052
N1230 X-12.7524 Y-48.0613 Z0.233 I0.0587 J-0.0104
N1235 X-12.7509 Y-48.0563 Z0.2203 I0.0576 J-0.0154
N1240 X-12.7489 Y-48.0515 Z0.2075 I0.056 J-0.0204
N1245 X-12.7465 Y-48.0469 Z0.1948 I0.054 J-0.0252
N1250 X-12.7437 Y-48.0425 Z0.1821 I0.0516 J-0.0298
N1255 X-12.7405 Y-48.0384 Z0.1694 I0.0488 J-0.0342
N1260 X-12.737 Y-48.0346 Z0.1567 I0.0457 J-0.0383
N1265 X-12.7332 Y-48.0311 Z0.144 I0.0422 J-0.0422
N1270 X-12.729 Y-48.0279 Z0.1313 I0.0383 J-0.0457
N1275 X-12.7246 Y-48.0251 Z0.1185 I0.0342 J-0.0488
N1280 X-12.7068 Y-48.0183 Z0.1063 I0.0298 J-0.0516
N1285 X-12.6828 Y-48.1351 I0.012 J-0.0584
N1290 X-12.7068 Y-48.0183 I-0.012 J0.0584
N1295 X-12.7263 Y-48.0479 I0.005 J-0.0245
N1300 G1 X-12.7238 Y-48.0601
N1305 X-12.723 Y-48.0639 Z0.1066
N1310 X-12.7222 Y-48.0677 Z0.1075
N1315 X-12.7215 Y-48.0712 Z0.109
N1320 X-12.7208 Y-48.0745 Z0.1111
N1325 X-12.7202 Y-48.0774 Z0.1136
N1330 X-12.7197 Y-48.0799 Z0.1166
N1335 X-12.7193 Y-48.0819 Z0.1199
N1340 X-12.719 Y-48.0834 Z0.1236
N1345 X-12.7188 Y-48.0843 Z0.1274
N1350 X-12.7187 Y-48.0846 Z0.1313
N1355 G0 Z0.6969
N1360 G1 X-8.9868 Y-53.1466 F500.
N1365 G0 Z0.5787
N1370 G1 Z0.525 F108.
N1375 G19 G2 Y-53.1716 Z0.5 J-0.025 K0.
N1380 G1 Y-53.1841
N1385 G17 G3 X-8.9618 Y-53.2091 I0.025 J0.
N1390 X-8.967 Y-53.2089 Z0.4873 I0. J0.0596
N1395 X-8.9722 Y-53.2082 Z0.4746 I0.0052 J0.0594
N1400 X-8.9773 Y-53.2071 Z0.4619 I0.0104 J0.0587
N1405 X-8.9822 Y-53.2055 Z0.4491 I0.0154 J0.0576
N1410 X-8.987 Y-53.2035 Z0.4364 I0.0204 J0.056
N1415 X-8.9917 Y-53.2011 Z0.4237 I0.0252 J0.054
N1420 X-8.996 Y-53.1983 Z0.411 I0.0298 J0.0516
N1425 X-9.0002 Y-53.1951 Z0.3983 I0.0342 J0.0488
N1430 X-9.004 Y-53.1916 Z0.3856 I0.0383 J0.0457
N1435 X-9.0075 Y-53.1878 Z0.3728 I0.0422 J0.0422
N1440 X-9.0107 Y-53.1837 Z0.3601 I0.0457 J0.0383
N1445 X-9.0135 Y-53.1793 Z0.3474 I0.0488 J0.0342
N1450 X-9.0159 Y-53.1747 Z0.3347 I0.0516 J0.0298
N1455 X-9.0179 Y-53.1699 Z0.322 I0.054 J0.0252
N1460 X-9.0194 Y-53.1649 Z0.3093 I0.056 J0.0204
N1465 X-9.0206 Y-53.1598 Z0.2966 I0.0576 J0.0154
N1470 X-9.0212 Y-53.1547 Z0.2838 I0.0587 J0.0104
N1475 X-9.0215 Y-53.1495 Z0.2711 I0.0594 J0.0052
N1480 X-9.0212 Y-53.1443 Z0.2584 I0.0596 J0.
N1485 X-9.0206 Y-53.1391 Z0.2457 I0.0594 J-0.0052
N1490 X-9.0194 Y-53.134 Z0.233 I0.0587 J-0.0104
N1495 X-9.0179 Y-53.1291 Z0.2203 I0.0576 J-0.0154
N1500 X-9.0159 Y-53.1243 Z0.2075 I0.056 J-0.0204
N1505 X-9.0135 Y-53.1197 Z0.1948 I0.054 J-0.0252
N1510 X-9.0107 Y-53.1153 Z0.1821 I0.0516 J-0.0298
N1515 X-9.0075 Y-53.1111 Z0.1694 I0.0488 J-0.0342
N1520 X-9.004 Y-53.1073 Z0.1567 I0.0457 J-0.0383
N1525 X-9.0002 Y-53.1038 Z0.144 I0.0422 J-0.0422
N1530 X-8.996 Y-53.1006 Z0.1313 I0.0383 J-0.0457
N1535 X-8.9917 Y-53.0978 Z0.1185 I0.0342 J-0.0488
N1540 X-8.9739 Y-53.0911 Z0.1063 I0.0298 J-0.0516
N1545 X-8.9498 Y-53.2079 I0.012 J-0.0584
N1550 X-8.9739 Y-53.0911 I-0.012 J0.0584
N1555 X-8.9933 Y-53.1206 I0.005 J-0.0245
N1560 G1 X-8.9908 Y-53.1328
N1565 X-8.99 Y-53.1367 Z0.1066
N1570 X-8.9892 Y-53.1404 Z0.1075
N1575 X-8.9885 Y-53.144 Z0.109
N1580 X-8.9878 Y-53.1472 Z0.1111
N1585 X-8.9872 Y-53.1502 Z0.1136
N1590 X-8.9867 Y-53.1526 Z0.1166
N1595 X-8.9863 Y-53.1547 Z0.1199
N1600 X-8.986 Y-53.1561 Z0.1236
N1605 X-8.9858 Y-53.157 Z0.1274
N1610 X-8.9857 Y-53.1573 Z0.1313
N1615 G0 Z0.6969
N1620 G1 X-6.8792 Y-50.9717 F500.
N1625 G0 Z0.5787
N1630 G1 Z0.525 F108.
N1635 G19 G2 Y-50.9967 Z0.5 J-0.025 K0.
N1640 G1 Y-51.0092
N1645 G17 G3 X-6.8542 Y-51.0342 I0.025 J0.
N1650 X-6.8594 Y-51.034 Z0.4873 I0. J0.0596
N1655 X-6.8646 Y-51.0333 Z0.4746 I0.0052 J0.0594
N1660 X-6.8697 Y-51.0322 Z0.4619 I0.0104 J0.0587
N1665 X-6.8746 Y-51.0306 Z0.4491 I0.0154 J0.0576
N1670 X-6.8794 Y-51.0286 Z0.4364 I0.0204 J0.056
N1675 X-6.884 Y-51.0262 Z0.4237 I0.0252 J0.054
N1680 X-6.8884 Y-51.0234 Z0.411 I0.0298 J0.0516
N1685 X-6.8926 Y-51.0202 Z0.3983 I0.0342 J0.0488
N1690 X-6.8964 Y-51.0167 Z0.3856 I0.0383 J0.0457
N1695 X-6.8999 Y-51.0129 Z0.3728 I0.0422 J0.0422
N1700 X-6.9031 Y-51.0088 Z0.3601 I0.0457 J0.0383
N1705 X-6.9059 Y-51.0044 Z0.3474 I0.0488 J0.0342
N1710 X-6.9083 Y-50.9998 Z0.3347 I0.0516 J0.0298
N1715 X-6.9103 Y-50.995 Z0.322 I0.054 J0.0252
N1720 X-6.9118 Y-50.99 Z0.3093 I0.056 J0.0204
N1725 X-6.9129 Y-50.9849 Z0.2966 I0.0576 J0.0154
N1730 X-6.9136 Y-50.9798 Z0.2838 I0.0587 J0.0104
N1735 X-6.9139 Y-50.9746 Z0.2711 I0.0594 J0.0052
N1740 X-6.9136 Y-50.9694 Z0.2584 I0.0596 J0.
N1745 X-6.9129 Y-50.9642 Z0.2457 I0.0594 J-0.0052
N1750 X-6.9118 Y-50.9591 Z0.233 I0.0587 J-0.0104
N1755 X-6.9103 Y-50.9542 Z0.2203 I0.0576 J-0.0154
N1760 X-6.9083 Y-50.9494 Z0.2075 I0.056 J-0.0204
N1765 X-6.9059 Y-50.9447 Z0.1948 I0.054 J-0.0252
N1770 X-6.9031 Y-50.9404 Z0.1821 I0.0516 J-0.0298
N1775 X-6.8999 Y-50.9362 Z0.1694 I0.0488 J-0.0342
N1780 X-6.8964 Y-50.9324 Z0.1567 I0.0457 J-0.0383
N1785 X-6.8926 Y-50.9289 Z0.144 I0.0422 J-0.0422
N1790 X-6.8884 Y-50.9257 Z0.1313 I0.0383 J-0.0457
N1795 X-6.884 Y-50.9229 Z0.1185 I0.0342 J-0.0488
N1800 X-6.8662 Y-50.9162 Z0.1063 I0.0298 J-0.0516
N1805 X-6.8422 Y-51.033 I0.012 J-0.0584
N1810 X-6.8662 Y-50.9162 I-0.012 J0.0584
N1815 X-6.8857 Y-50.9457 I0.005 J-0.0245
N1820 G1 X-6.8832 Y-50.9579
N1825 X-6.8824 Y-50.9618 Z0.1066
N1830 X-6.8816 Y-50.9655 Z0.1075
N1835 X-6.8809 Y-50.969 Z0.109
N1840 X-6.8802 Y-50.9723 Z0.1111
N1845 X-6.8796 Y-50.9752 Z0.1136
N1850 X-6.8791 Y-50.9777 Z0.1166
N1855 X-6.8787 Y-50.9797 Z0.1199
N1860 X-6.8784 Y-50.9812 Z0.1236
N1865 X-6.8782 Y-50.9821 Z0.1274
N1870 X-6.8781 Y-50.9824 Z0.1313
N1875 G0 Z0.6969
N1880 G1 X-6.1973 Y-45.981 F500.
N1885 G0 Z0.5787
N1890 G1 Z0.525 F108.
N1895 G18 G2 X-6.1723 Z0.5 I0.025 K0.
N1900 G1 X-6.1598
N1905 G17 G3 X-6.1348 Y-45.956 I0. J0.025
N1910 X-6.1351 Y-45.9612 Z0.4873 I-0.0596 J0.
N1915 X-6.1357 Y-45.9663 Z0.4746 I-0.0594 J0.0052
N1920 X-6.1369 Y-45.9714 Z0.4619 I-0.0587 J0.0104
N1925 X-6.1384 Y-45.9764 Z0.4491 I-0.0576 J0.0154
N1930 X-6.1404 Y-45.9812 Z0.4364 I-0.056 J0.0204
N1935 X-6.1428 Y-45.9858 Z0.4237 I-0.054 J0.0252
N1940 X-6.1456 Y-45.9902 Z0.411 I-0.0516 J0.0298
N1945 X-6.1488 Y-45.9943 Z0.3983 I-0.0488 J0.0342
N1950 X-6.1523 Y-45.9981 Z0.3856 I-0.0457 J0.0383
N1955 X-6.1561 Y-46.0016 Z0.3728 I-0.0422 J0.0422
N1960 X-6.1603 Y-46.0048 Z0.3601 I-0.0383 J0.0457
N1965 X-6.1647 Y-46.0076 Z0.3474 I-0.0342 J0.0488
N1970 X-6.1693 Y-46.01 Z0.3347 I-0.0298 J0.0516
N1975 X-6.1741 Y-46.012 Z0.322 I-0.0252 J0.054
N1980 X-6.179 Y-46.0136 Z0.3093 I-0.0204 J0.056
N1985 X-6.1841 Y-46.0147 Z0.2966 I-0.0154 J0.0576
N1990 X-6.1893 Y-46.0154 Z0.2838 I-0.0104 J0.0587
N1995 X-6.1945 Y-46.0156 Z0.2711 I-0.0052 J0.0594
N2000 X-6.1997 Y-46.0154 Z0.2584 I0. J0.0596
N2005 X-6.2048 Y-46.0147 Z0.2457 I0.0052 J0.0594
N2010 X-6.2099 Y-46.0136 Z0.233 I0.0104 J0.0587
N2015 X-6.2149 Y-46.012 Z0.2203 I0.0154 J0.0576
N2020 X-6.2197 Y-46.01 Z0.2075 I0.0204 J0.056
N2025 X-6.2243 Y-46.0076 Z0.1948 I0.0252 J0.054
N2030 X-6.2287 Y-46.0048 Z0.1821 I0.0298 J0.0516
N2035 X-6.2328 Y-46.0016 Z0.1694 I0.0342 J0.0488
N2040 X-6.2366 Y-45.9981 Z0.1567 I0.0383 J0.0457
N2045 X-6.2401 Y-45.9943 Z0.144 I0.0422 J0.0422
N2050 X-6.2433 Y-45.9902 Z0.1313 I0.0457 J0.0383
N2055 X-6.2461 Y-45.9858 Z0.1185 I0.0488 J0.0342
N2060 X-6.2529 Y-45.968 Z0.1063 I0.0516 J0.0298
N2065 X-6.1361 Y-45.9439 I0.0584 J0.012
N2070 X-6.2529 Y-45.968 I-0.0584 J-0.012
N2075 X-6.2233 Y-45.9874 I0.0245 J0.005
N2080 G1 X-6.2111 Y-45.9849
N2085 X-6.2073 Y-45.9841 Z0.1066
N2090 X-6.2035 Y-45.9834 Z0.1075
N2095 X-6.2 Y-45.9826 Z0.109
N2100 X-6.1967 Y-45.9819 Z0.1111
N2105 X-6.1938 Y-45.9813 Z0.1136
N2110 X-6.1913 Y-45.9808 Z0.1166
N2115 X-6.1893 Y-45.9804 Z0.1199
N2120 X-6.1878 Y-45.9801 Z0.1236
N2125 X-6.1869 Y-45.9799 Z0.1274
N2130 X-6.1866 Z0.1313
N2135 G0 Z0.6969
N2140 G1 X-2.6495 Y-42.6623 F500.
N2145 G0 Z0.5787
N2150 G1 Z0.525 F108.
N2155 G19 G2 Y-42.6873 Z0.5 J-0.025 K0.
N2160 G1 Y-42.6998
N2165 G17 G3 X-2.6245 Y-42.7248 I0.025 J0.
N2170 X-2.6297 Y-42.7245 Z0.4873 I0. J0.0596
N2175 X-2.6349 Y-42.7239 Z0.4746 I0.0052 J0.0594
N2180 X-2.6399 Y-42.7227 Z0.4619 I0.0104 J0.0587
N2185 X-2.6449 Y-42.7212 Z0.4491 I0.0154 J0.0576
N2190 X-2.6497 Y-42.7192 Z0.4364 I0.0204 J0.056
N2195 X-2.6543 Y-42.7168 Z0.4237 I0.0252 J0.054
N2200 X-2.6587 Y-42.714 Z0.411 I0.0298 J0.0516
N2205 X-2.6628 Y-42.7108 Z0.3983 I0.0342 J0.0488
N2210 X-2.6667 Y-42.7073 Z0.3856 I0.0383 J0.0457
N2215 X-2.6702 Y-42.7035 Z0.3728 I0.0422 J0.0422
N2220 X-2.6733 Y-42.6993 Z0.3601 I0.0457 J0.0383
N2225 X-2.6761 Y-42.6949 Z0.3474 I0.0488 J0.0342
N2230 X-2.6785 Y-42.6903 Z0.3347 I0.0516 J0.0298
N2235 X-2.6805 Y-42.6855 Z0.322 I0.054 J0.0252
N2240 X-2.6821 Y-42.6806 Z0.3093 I0.056 J0.0204
N2245 X-2.6832 Y-42.6755 Z0.2966 I0.0576 J0.0154
N2250 X-2.6839 Y-42.6703 Z0.2838 I0.0587 J0.0104
N2255 X-2.6841 Y-42.6651 Z0.2711 I0.0594 J0.0052
N2260 X-2.6839 Y-42.6599 Z0.2584 I0.0596 J0.
N2265 X-2.6832 Y-42.6548 Z0.2457 I0.0594 J-0.0052
N2270 X-2.6821 Y-42.6497 Z0.233 I0.0587 J-0.0104
N2275 X-2.6805 Y-42.6447 Z0.2203 I0.0576 J-0.0154
N2280 X-2.6785 Y-42.6399 Z0.2075 I0.056 J-0.0204
N2285 X-2.6761 Y-42.6353 Z0.1948 I0.054 J-0.0252
N2290 X-2.6733 Y-42.6309 Z0.1821 I0.0516 J-0.0298
N2295 X-2.6702 Y-42.6268 Z0.1694 I0.0488 J-0.0342
N2300 X-2.6667 Y-42.623 Z0.1567 I0.0457 J-0.0383
N2305 X-2.6628 Y-42.6195 Z0.144 I0.0422 J-0.0422
N2310 X-2.6587 Y-42.6163 Z0.1313 I0.0383 J-0.0457
N2315 X-2.6543 Y-42.6135 Z0.1185 I0.0342 J-0.0488
N2320 X-2.6365 Y-42.6067 Z0.1063 I0.0298 J-0.0516
N2325 X-2.6125 Y-42.7235 I0.012 J-0.0584
N2330 X-2.6365 Y-42.6067 I-0.012 J0.0584
N2335 X-2.656 Y-42.6363 I0.005 J-0.0245
N2340 G1 X-2.6534 Y-42.6485
N2345 X-2.6527 Y-42.6523 Z0.1066
N2350 X-2.6519 Y-42.6561 Z0.1075
N2355 X-2.6512 Y-42.6596 Z0.109
N2360 X-2.6505 Y-42.6629 Z0.1111
N2365 X-2.6499 Y-42.6658 Z0.1136
N2370 X-2.6494 Y-42.6683 Z0.1166
N2375 X-2.649 Y-42.6703 Z0.1199
N2380 X-2.6487 Y-42.6718 Z0.1236
N2385 X-2.6485 Y-42.6727 Z0.1274
N2390 X-2.6484 Y-42.673 Z0.1313
N2395 G0 Z0.6969
N2400 G1 X-6.1973 Y-40.2785 F500.
N2405 G0 Z0.5787
N2410 G1 Z0.525 F108.
N2415 G18 G2 X-6.1723 Z0.5 I0.025 K0.
N2420 G1 X-6.1598
N2425 G17 G3 X-6.1348 Y-40.2535 I0. J0.025
N2430 X-6.1351 Y-40.2587 Z0.4873 I-0.0596 J0.
N2435 X-6.1357 Y-40.2639 Z0.4746 I-0.0594 J0.0052
N2440 X-6.1369 Y-40.269 Z0.4619 I-0.0587 J0.0104
N2445 X-6.1384 Y-40.2739 Z0.4491 I-0.0576 J0.0154
N2450 X-6.1404 Y-40.2787 Z0.4364 I-0.056 J0.0204
N2455 X-6.1428 Y-40.2833 Z0.4237 I-0.054 J0.0252
N2460 X-6.1456 Y-40.2877 Z0.411 I-0.0516 J0.0298
N2465 X-6.1488 Y-40.2919 Z0.3983 I-0.0488 J0.0342
N2470 X-6.1523 Y-40.2957 Z0.3856 I-0.0457 J0.0383
N2475 X-6.1561 Y-40.2992 Z0.3728 I-0.0422 J0.0422
N2480 X-6.1603 Y-40.3024 Z0.3601 I-0.0383 J0.0457
N2485 X-6.1647 Y-40.3052 Z0.3474 I-0.0342 J0.0488
N2490 X-6.1693 Y-40.3076 Z0.3347 I-0.0298 J0.0516
N2495 X-6.1741 Y-40.3096 Z0.322 I-0.0252 J0.054
N2500 X-6.179 Y-40.3111 Z0.3093 I-0.0204 J0.056
N2505 X-6.1841 Y-40.3123 Z0.2966 I-0.0154 J0.0576
N2510 X-6.1893 Y-40.3129 Z0.2838 I-0.0104 J0.0587
N2515 X-6.1945 Y-40.3132 Z0.2711 I-0.0052 J0.0594
N2520 X-6.1997 Y-40.3129 Z0.2584 I0. J0.0596
N2525 X-6.2048 Y-40.3123 Z0.2457 I0.0052 J0.0594
N2530 X-6.2099 Y-40.3111 Z0.233 I0.0104 J0.0587
N2535 X-6.2149 Y-40.3096 Z0.2203 I0.0154 J0.0576
N2540 X-6.2197 Y-40.3076 Z0.2075 I0.0204 J0.056
N2545 X-6.2243 Y-40.3052 Z0.1948 I0.0252 J0.054
N2550 X-6.2287 Y-40.3024 Z0.1821 I0.0298 J0.0516
N2555 X-6.2328 Y-40.2992 Z0.1694 I0.0342 J0.0488
N2560 X-6.2366 Y-40.2957 Z0.1567 I0.0383 J0.0457
N2565 X-6.2401 Y-40.2919 Z0.144 I0.0422 J0.0422
N2570 X-6.2433 Y-40.2877 Z0.1313 I0.0457 J0.0383
N2575 X-6.2461 Y-40.2833 Z0.1185 I0.0488 J0.0342
N2580 X-6.2529 Y-40.2656 Z0.1063 I0.0516 J0.0298
N2585 X-6.1361 Y-40.2415 I0.0584 J0.012
N2590 X-6.2529 Y-40.2656 I-0.0584 J-0.012
N2595 X-6.2233 Y-40.285 I0.0245 J0.005
N2600 G1 X-6.2111 Y-40.2825
N2605 X-6.2073 Y-40.2817 Z0.1066
N2610 X-6.2035 Y-40.2809 Z0.1075
N2615 X-6.2 Y-40.2802 Z0.109
N2620 X-6.1967 Y-40.2795 Z0.1111
N2625 X-6.1938 Y-40.2789 Z0.1136
N2630 X-6.1913 Y-40.2784 Z0.1166
N2635 X-6.1893 Y-40.278 Z0.1199
N2640 X-6.1878 Y-40.2777 Z0.1236
N2645 X-6.1869 Y-40.2775 Z0.1274
N2650 X-6.1866 Y-40.2774 Z0.1313
N2655 G0 Z0.6969
N2660 G1 X-6.8999 Y-35.0405 F500.
N2665 G0 Z0.5787
N2670 G1 Z0.525 F108.
N2675 G19 G2 Y-35.0655 Z0.5 J-0.025 K0.
N2680 G1 Y-35.078
N2685 G17 G3 X-6.8749 Y-35.103 I0.025 J0.
N2690 X-6.8801 Y-35.1028 Z0.4873 I0. J0.0596
N2695 X-6.8853 Y-35.1021 Z0.4746 I0.0052 J0.0594
N2700 X-6.8904 Y-35.101 Z0.4619 I0.0104 J0.0587
N2705 X-6.8953 Y-35.0994 Z0.4491 I0.0154 J0.0576
N2710 X-6.9001 Y-35.0974 Z0.4364 I0.0204 J0.056
N2715 X-6.9047 Y-35.095 Z0.4237 I0.0252 J0.054
N2720 X-6.9091 Y-35.0922 Z0.411 I0.0298 J0.0516
N2725 X-6.9133 Y-35.0891 Z0.3983 I0.0342 J0.0488
N2730 X-6.9171 Y-35.0855 Z0.3856 I0.0383 J0.0457
N2735 X-6.9206 Y-35.0817 Z0.3728 I0.0422 J0.0422
N2740 X-6.9238 Y-35.0776 Z0.3601 I0.0457 J0.0383
N2745 X-6.9266 Y-35.0732 Z0.3474 I0.0488 J0.0342
N2750 X-6.929 Y-35.0686 Z0.3347 I0.0516 J0.0298
N2755 X-6.931 Y-35.0638 Z0.322 I0.054 J0.0252
N2760 X-6.9325 Y-35.0588 Z0.3093 I0.056 J0.0204
N2765 X-6.9336 Y-35.0537 Z0.2966 I0.0576 J0.0154
N2770 X-6.9343 Y-35.0486 Z0.2838 I0.0587 J0.0104
N2775 X-6.9346 Y-35.0434 Z0.2711 I0.0594 J0.0052
N2780 X-6.9343 Y-35.0382 Z0.2584 I0.0596 J0.
N2785 X-6.9336 Y-35.033 Z0.2457 I0.0594 J-0.0052
N2790 X-6.9325 Y-35.028 Z0.233 I0.0587 J-0.0104
N2795 X-6.931 Y-35.023 Z0.2203 I0.0576 J-0.0154
N2800 X-6.929 Y-35.0182 Z0.2075 I0.056 J-0.0204
N2805 X-6.9266 Y-35.0136 Z0.1948 I0.054 J-0.0252
N2810 X-6.9238 Y-35.0092 Z0.1821 I0.0516 J-0.0298
N2815 X-6.9206 Y-35.0051 Z0.1694 I0.0488 J-0.0342
N2820 X-6.9171 Y-35.0012 Z0.1567 I0.0457 J-0.0383
N2825 X-6.9133 Y-34.9977 Z0.144 I0.0422 J-0.0422
N2830 X-6.9091 Y-34.9945 Z0.1313 I0.0383 J-0.0457
N2835 X-6.9047 Y-34.9917 Z0.1185 I0.0342 J-0.0488
N2840 X-6.8869 Y-34.985 Z0.1063 I0.0298 J-0.0516
N2845 X-6.8629 Y-35.1018 I0.012 J-0.0584
N2850 X-6.8869 Y-34.985 I-0.012 J0.0584
N2855 X-6.9064 Y-35.0145 I0.005 J-0.0245
N2860 G1 X-6.9039 Y-35.0268
N2865 X-6.9031 Y-35.0306 Z0.1066
N2870 X-6.9023 Y-35.0343 Z0.1075
N2875 X-6.9016 Y-35.0379 Z0.109
N2880 X-6.9009 Y-35.0411 Z0.1111
N2885 X-6.9003 Y-35.0441 Z0.1136
N2890 X-6.8998 Y-35.0466 Z0.1166
N2895 X-6.8994 Y-35.0486 Z0.1199
N2900 X-6.8991 Y-35.05 Z0.1236
N2905 X-6.8989 Y-35.0509 Z0.1274
N2910 X-6.8988 Y-35.0512 Z0.1313
N2915 G0 Z0.6969
N2920 G1 X-5.3734 Y-30.7164 F500.
N2925 G0 Z0.5787
N2930 G1 Z0.525 F108.
N2935 G18 G2 X-5.3484 Z0.5 I0.025 K0.
N2940 G1 X-5.3359
N2945 G17 G3 X-5.3109 Y-30.6914 I0. J0.025
N2950 X-5.3111 Y-30.6966 Z0.4873 I-0.0596 J0.
N2955 X-5.3118 Y-30.7018 Z0.4746 I-0.0594 J0.0052
N2960 X-5.3129 Y-30.7069 Z0.4619 I-0.0587 J0.0104
N2965 X-5.3145 Y-30.7118 Z0.4491 I-0.0576 J0.0154
N2970 X-5.3165 Y-30.7166 Z0.4364 I-0.056 J0.0204
N2975 X-5.3189 Y-30.7212 Z0.4237 I-0.054 J0.0252
N2980 X-5.3217 Y-30.7256 Z0.411 I-0.0516 J0.0298
N2985 X-5.3248 Y-30.7298 Z0.3983 I-0.0488 J0.0342
N2990 X-5.3283 Y-30.7336 Z0.3856 I-0.0457 J0.0383
N2995 X-5.3322 Y-30.7371 Z0.3728 I-0.0422 J0.0422
N3000 X-5.3363 Y-30.7403 Z0.3601 I-0.0383 J0.0457
N3005 X-5.3407 Y-30.7431 Z0.3474 I-0.0342 J0.0488
N3010 X-5.3453 Y-30.7455 Z0.3347 I-0.0298 J0.0516
N3015 X-5.3501 Y-30.7475 Z0.322 I-0.0252 J0.054
N3020 X-5.3551 Y-30.749 Z0.3093 I-0.0204 J0.056
N3025 X-5.3601 Y-30.7502 Z0.2966 I-0.0154 J0.0576
N3030 X-5.3653 Y-30.7508 Z0.2838 I-0.0104 J0.0587
N3035 X-5.3705 Y-30.7511 Z0.2711 I-0.0052 J0.0594
N3040 X-5.3757 Y-30.7508 Z0.2584 I0. J0.0596
N3045 X-5.3808 Y-30.7502 Z0.2457 I0.0052 J0.0594
N3050 X-5.3859 Y-30.749 Z0.233 I0.0104 J0.0587
N3055 X-5.3909 Y-30.7475 Z0.2203 I0.0154 J0.0576
N3060 X-5.3957 Y-30.7455 Z0.2075 I0.0204 J0.056
N3065 X-5.4003 Y-30.7431 Z0.1948 I0.0252 J0.054
N3070 X-5.4047 Y-30.7403 Z0.1821 I0.0298 J0.0516
N3075 X-5.4088 Y-30.7371 Z0.1694 I0.0342 J0.0488
N3080 X-5.4127 Y-30.7336 Z0.1567 I0.0383 J0.0457
N3085 X-5.4162 Y-30.7298 Z0.144 I0.0422 J0.0422
N3090 X-5.4193 Y-30.7256 Z0.1313 I0.0457 J0.0383
N3095 X-5.4221 Y-30.7212 Z0.1185 I0.0488 J0.0342
N3100 X-5.4289 Y-30.7035 Z0.1063 I0.0516 J0.0298
N3105 X-5.3121 Y-30.6794 I0.0584 J0.012
N3110 X-5.4289 Y-30.7035 I-0.0584 J-0.012
N3115 X-5.3994 Y-30.7229 I0.0245 J0.005
N3120 G1 X-5.3871 Y-30.7204
N3125 X-5.3833 Y-30.7196 Z0.1066
N3130 X-5.3796 Y-30.7188 Z0.1075
N3135 X-5.376 Y-30.7181 Z0.109
N3140 X-5.3727 Y-30.7174 Z0.1111
N3145 X-5.3698 Y-30.7168 Z0.1136
N3150 X-5.3673 Y-30.7163 Z0.1166
N3155 X-5.3653 Y-30.7159 Z0.1199
N3160 X-5.3638 Y-30.7156 Z0.1236
N3165 X-5.3629 Y-30.7154 Z0.1274
N3170 X-5.3626 Y-30.7153 Z0.1313
N3175 G0 Z0.6969
N3180 G1 X-3.4083 Y-30.7164 F500.
N3185 G0 Z0.5787
N3190 G1 Z0.525 F108.
N3195 G18 G2 X-3.3833 Z0.5 I0.025 K0.
N3200 G1 X-3.3708
N3205 G17 G3 X-3.3458 Y-30.6914 I0. J0.025
N3210 X-3.346 Y-30.6966 Z0.4873 I-0.0596 J0.
N3215 X-3.3467 Y-30.7018 Z0.4746 I-0.0594 J0.0052
N3220 X-3.3478 Y-30.7069 Z0.4619 I-0.0587 J0.0104
N3225 X-3.3494 Y-30.7118 Z0.4491 I-0.0576 J0.0154
N3230 X-3.3514 Y-30.7166 Z0.4364 I-0.056 J0.0204
N3235 X-3.3538 Y-30.7212 Z0.4237 I-0.054 J0.0252
N3240 X-3.3566 Y-30.7256 Z0.411 I-0.0516 J0.0298
N3245 X-3.3597 Y-30.7298 Z0.3983 I-0.0488 J0.0342
N3250 X-3.3632 Y-30.7336 Z0.3856 I-0.0457 J0.0383
N3255 X-3.3671 Y-30.7371 Z0.3728 I-0.0422 J0.0422
N3260 X-3.3712 Y-30.7403 Z0.3601 I-0.0383 J0.0457
N3265 X-3.3756 Y-30.7431 Z0.3474 I-0.0342 J0.0488
N3270 X-3.3802 Y-30.7455 Z0.3347 I-0.0298 J0.0516
N3275 X-3.385 Y-30.7475 Z0.322 I-0.0252 J0.054
N3280 X-3.39 Y-30.749 Z0.3093 I-0.0204 J0.056
N3285 X-3.395 Y-30.7502 Z0.2966 I-0.0154 J0.0576
N3290 X-3.4002 Y-30.7508 Z0.2838 I-0.0104 J0.0587
N3295 X-3.4054 Y-30.7511 Z0.2711 I-0.0052 J0.0594
N3300 X-3.4106 Y-30.7508 Z0.2584 I0. J0.0596
N3305 X-3.4157 Y-30.7502 Z0.2457 I0.0052 J0.0594
N3310 X-3.4208 Y-30.749 Z0.233 I0.0104 J0.0587
N3315 X-3.4258 Y-30.7475 Z0.2203 I0.0154 J0.0576
N3320 X-3.4306 Y-30.7455 Z0.2075 I0.0204 J0.056
N3325 X-3.4352 Y-30.7431 Z0.1948 I0.0252 J0.054
N3330 X-3.4396 Y-30.7403 Z0.1821 I0.0298 J0.0516
N3335 X-3.4437 Y-30.7371 Z0.1694 I0.0342 J0.0488
N3340 X-3.4476 Y-30.7336 Z0.1567 I0.0383 J0.0457
N3345 X-3.4511 Y-30.7298 Z0.144 I0.0422 J0.0422
N3350 X-3.4542 Y-30.7256 Z0.1313 I0.0457 J0.0383
N3355 X-3.457 Y-30.7212 Z0.1185 I0.0488 J0.0342
N3360 X-3.4638 Y-30.7035 Z0.1063 I0.0516 J0.0298
N3365 X-3.347 Y-30.6794 I0.0584 J0.012
N3370 X-3.4638 Y-30.7035 I-0.0584 J-0.012
N3375 X-3.4343 Y-30.7229 I0.0245 J0.005
N3380 G1 X-3.422 Y-30.7204
N3385 X-3.4182 Y-30.7196 Z0.1066
N3390 X-3.4145 Y-30.7188 Z0.1075
N3395 X-3.4109 Y-30.7181 Z0.109
N3400 X-3.4076 Y-30.7174 Z0.1111
N3405 X-3.4047 Y-30.7168 Z0.1136
N3410 X-3.4022 Y-30.7163 Z0.1166
N3415 X-3.4002 Y-30.7159 Z0.1199
N3420 X-3.3987 Y-30.7156 Z0.1236
N3425 X-3.3978 Y-30.7154 Z0.1274
N3430 X-3.3975 Y-30.7153 Z0.1313
N3435 G0 Z0.6969
N3440 G1 X-3.9301 Y-27.6146 F500.
N3445 G0 Z0.5787
N3450 G1 Z0.525 F108.
N3455 G18 G2 X-3.9051 Z0.5 I0.025 K0.
N3460 G1 X-3.8926
N3465 G17 G3 X-3.8676 Y-27.5896 I0. J0.025
N3470 X-3.8678 Y-27.5948 Z0.4873 I-0.0596 J0.
N3475 X-3.8685 Y-27.5999 Z0.4746 I-0.0594 J0.0052
N3480 X-3.8696 Y-27.605 Z0.4619 I-0.0587 J0.0104
N3485 X-3.8712 Y-27.61 Z0.4491 I-0.0576 J0.0154
N3490 X-3.8732 Y-27.6148 Z0.4364 I-0.056 J0.0204
N3495 X-3.8756 Y-27.6194 Z0.4237 I-0.054 J0.0252
N3500 X-3.8784 Y-27.6238 Z0.411 I-0.0516 J0.0298
N3505 X-3.8815 Y-27.6279 Z0.3983 I-0.0488 J0.0342
N3510 X-3.885 Y-27.6317 Z0.3856 I-0.0457 J0.0383
N3515 X-3.8889 Y-27.6353 Z0.3728 I-0.0422 J0.0422
N3520 X-3.893 Y-27.6384 Z0.3601 I-0.0383 J0.0457
N3525 X-3.8974 Y-27.6412 Z0.3474 I-0.0342 J0.0488
N3530 X-3.902 Y-27.6436 Z0.3347 I-0.0298 J0.0516
N3535 X-3.9068 Y-27.6456 Z0.322 I-0.0252 J0.054
N3540 X-3.9118 Y-27.6472 Z0.3093 I-0.0204 J0.056
N3545 X-3.9168 Y-27.6483 Z0.2966 I-0.0154 J0.0576
N3550 X-3.922 Y-27.649 Z0.2838 I-0.0104 J0.0587
N3555 X-3.9272 Y-27.6492 Z0.2711 I-0.0052 J0.0594
N3560 X-3.9324 Y-27.649 Z0.2584 I0. J0.0596
N3565 X-3.9376 Y-27.6483 Z0.2457 I0.0052 J0.0594
N3570 X-3.9426 Y-27.6472 Z0.233 I0.0104 J0.0587
N3575 X-3.9476 Y-27.6456 Z0.2203 I0.0154 J0.0576
N3580 X-3.9524 Y-27.6436 Z0.2075 I0.0204 J0.056
N3585 X-3.957 Y-27.6412 Z0.1948 I0.0252 J0.054
N3590 X-3.9614 Y-27.6384 Z0.1821 I0.0298 J0.0516
N3595 X-3.9655 Y-27.6353 Z0.1694 I0.0342 J0.0488
N3600 X-3.9694 Y-27.6317 Z0.1567 I0.0383 J0.0457
N3605 X-3.9729 Y-27.6279 Z0.144 I0.0422 J0.0422
N3610 X-3.976 Y-27.6238 Z0.1313 I0.0457 J0.0383
N3615 X-3.9788 Y-27.6194 Z0.1185 I0.0488 J0.0342
N3620 X-3.9856 Y-27.6016 Z0.1063 I0.0516 J0.0298
N3625 X-3.8688 Y-27.5776 I0.0584 J0.012
N3630 X-3.9856 Y-27.6016 I-0.0584 J-0.012
N3635 X-3.9561 Y-27.6211 I0.0245 J0.005
N3640 G1 X-3.9438 Y-27.6185
N3645 X-3.94 Y-27.6177 Z0.1066
N3650 X-3.9363 Y-27.617 Z0.1075
N3655 X-3.9327 Y-27.6162 Z0.109
N3660 X-3.9294 Y-27.6156 Z0.1111
N3665 X-3.9265 Y-27.615 Z0.1136
N3670 X-3.924 Y-27.6145 Z0.1166
N3675 X-3.922 Y-27.614 Z0.1199
N3680 X-3.9205 Y-27.6137 Z0.1236
N3685 X-3.9196 Y-27.6136 Z0.1274
N3690 X-3.9193 Y-27.6135 Z0.1313
N3695 G0 Z0.6969
N3700 G1 X-3.4113 Y-24.5111 F500.
N3705 G0 Z0.5787
N3710 G1 Z0.525 F108.
N3715 G18 G2 X-3.3863 Z0.5 I0.025 K0.
N3720 G1 X-3.3738
N3725 G17 G3 X-3.3488 Y-24.4861 I0. J0.025
N3730 X-3.3491 Y-24.4913 Z0.4873 I-0.0596 J0.
N3735 X-3.3497 Y-24.4965 Z0.4746 I-0.0594 J0.0052
N3740 X-3.3509 Y-24.5015 Z0.4619 I-0.0587 J0.0104
N3745 X-3.3524 Y-24.5065 Z0.4491 I-0.0576 J0.0154
N3750 X-3.3544 Y-24.5113 Z0.4364 I-0.056 J0.0204
N3755 X-3.3568 Y-24.5159 Z0.4237 I-0.054 J0.0252
N3760 X-3.3596 Y-24.5203 Z0.411 I-0.0516 J0.0298
N3765 X-3.3628 Y-24.5244 Z0.3983 I-0.0488 J0.0342
N3770 X-3.3663 Y-24.5283 Z0.3856 I-0.0457 J0.0383
N3775 X-3.3701 Y-24.5318 Z0.3728 I-0.0422 J0.0422
N3780 X-3.3742 Y-24.535 Z0.3601 I-0.0383 J0.0457
N3785 X-3.3786 Y-24.5378 Z0.3474 I-0.0342 J0.0488
N3790 X-3.3833 Y-24.5402 Z0.3347 I-0.0298 J0.0516
N3795 X-3.3881 Y-24.5421 Z0.322 I-0.0252 J0.054
N3800 X-3.393 Y-24.5437 Z0.3093 I-0.0204 J0.056
N3805 X-3.3981 Y-24.5448 Z0.2966 I-0.0154 J0.0576
N3810 X-3.4033 Y-24.5455 Z0.2838 I-0.0104 J0.0587
N3815 X-3.4084 Y-24.5457 Z0.2711 I-0.0052 J0.0594
N3820 X-3.4136 Y-24.5455 Z0.2584 I0. J0.0596
N3825 X-3.4188 Y-24.5448 Z0.2457 I0.0052 J0.0594
N3830 X-3.4239 Y-24.5437 Z0.233 I0.0104 J0.0587
N3835 X-3.4288 Y-24.5421 Z0.2203 I0.0154 J0.0576
N3840 X-3.4336 Y-24.5402 Z0.2075 I0.0204 J0.056
N3845 X-3.4383 Y-24.5378 Z0.1948 I0.0252 J0.054
N3850 X-3.4426 Y-24.535 Z0.1821 I0.0298 J0.0516
N3855 X-3.4468 Y-24.5318 Z0.1694 I0.0342 J0.0488
N3860 X-3.4506 Y-24.5283 Z0.1567 I0.0383 J0.0457
N3865 X-3.4541 Y-24.5244 Z0.144 I0.0422 J0.0422
N3870 X-3.4573 Y-24.5203 Z0.1313 I0.0457 J0.0383
N3875 X-3.4601 Y-24.5159 Z0.1185 I0.0488 J0.0342
N3880 X-3.4669 Y-24.4981 Z0.1063 I0.0516 J0.0298
N3885 X-3.35 Y-24.4741 I0.0584 J0.012
N3890 X-3.4669 Y-24.4981 I-0.0584 J-0.012
N3895 X-3.4373 Y-24.5176 I0.0245 J0.005
N3900 G1 X-3.4251 Y-24.5151
N3905 X-3.4213 Y-24.5143 Z0.1066
N3910 X-3.4175 Y-24.5135 Z0.1075
N3915 X-3.414 Y-24.5128 Z0.109
N3920 X-3.4107 Y-24.5121 Z0.1111
N3925 X-3.4078 Y-24.5115 Z0.1136
N3930 X-3.4053 Y-24.511 Z0.1166
N3935 X-3.4033 Y-24.5106 Z0.1199
N3940 X-3.4018 Y-24.5103 Z0.1236
N3945 X-3.4009 Y-24.5101 Z0.1274
N3950 X-3.4006 Y-24.51 Z0.1313
N3955 G0 Z0.6969
N3960 G1 X-5.3797 Y-24.5116 F500.
N3965 G0 Z0.5787
N3970 G1 Z0.525 F108.
N3975 G18 G2 X-5.3547 Z0.5 I0.025 K0.
N3980 G1 X-5.3422
N3985 G17 G3 X-5.3172 Y-24.4866 I0. J0.025
N3990 X-5.3175 Y-24.4918 Z0.4873 I-0.0596 J0.
N3995 X-5.3181 Y-24.4969 Z0.4746 I-0.0594 J0.0052
N4000 X-5.3193 Y-24.502 Z0.4619 I-0.0587 J0.0104
N4005 X-5.3208 Y-24.507 Z0.4491 I-0.0576 J0.0154
N4010 X-5.3228 Y-24.5118 Z0.4364 I-0.056 J0.0204
N4015 X-5.3252 Y-24.5164 Z0.4237 I-0.054 J0.0252
N4020 X-5.328 Y-24.5208 Z0.411 I-0.0516 J0.0298
N4025 X-5.3312 Y-24.5249 Z0.3983 I-0.0488 J0.0342
N4030 X-5.3347 Y-24.5287 Z0.3856 I-0.0457 J0.0383
N4035 X-5.3385 Y-24.5322 Z0.3728 I-0.0422 J0.0422
N4040 X-5.3427 Y-24.5354 Z0.3601 I-0.0383 J0.0457
N4045 X-5.347 Y-24.5382 Z0.3474 I-0.0342 J0.0488
N4050 X-5.3517 Y-24.5406 Z0.3347 I-0.0298 J0.0516
N4055 X-5.3565 Y-24.5426 Z0.322 I-0.0252 J0.054
N4060 X-5.3614 Y-24.5442 Z0.3093 I-0.0204 J0.056
N4065 X-5.3665 Y-24.5453 Z0.2966 I-0.0154 J0.0576
N4070 X-5.3717 Y-24.546 Z0.2838 I-0.0104 J0.0587
N4075 X-5.3769 Y-24.5462 Z0.2711 I-0.0052 J0.0594
N4080 X-5.3821 Y-24.546 Z0.2584 I0. J0.0596
N4085 X-5.3872 Y-24.5453 Z0.2457 I0.0052 J0.0594
N4090 X-5.3923 Y-24.5442 Z0.233 I0.0104 J0.0587
N4095 X-5.3973 Y-24.5426 Z0.2203 I0.0154 J0.0576
N4100 X-5.4021 Y-24.5406 Z0.2075 I0.0204 J0.056
N4105 X-5.4067 Y-24.5382 Z0.1948 I0.0252 J0.054
N4110 X-5.4111 Y-24.5354 Z0.1821 I0.0298 J0.0516
N4115 X-5.4152 Y-24.5322 Z0.1694 I0.0342 J0.0488
N4120 X-5.419 Y-24.5287 Z0.1567 I0.0383 J0.0457
N4125 X-5.4225 Y-24.5249 Z0.144 I0.0422 J0.0422
N4130 X-5.4257 Y-24.5208 Z0.1313 I0.0457 J0.0383
N4135 X-5.4285 Y-24.5164 Z0.1185 I0.0488 J0.0342
N4140 X-5.4353 Y-24.4986 Z0.1063 I0.0516 J0.0298
N4145 X-5.3185 Y-24.4745 I0.0584 J0.012
N4150 X-5.4353 Y-24.4986 I-0.0584 J-0.012
N4155 X-5.4057 Y-24.518 I0.0245 J0.005
N4160 G1 X-5.3935 Y-24.5155
N4165 X-5.3897 Y-24.5147 Z0.1066
N4170 X-5.3859 Y-24.514 Z0.1075
N4175 X-5.3824 Y-24.5132 Z0.109
N4180 X-5.3791 Y-24.5125 Z0.1111
N4185 X-5.3762 Y-24.5119 Z0.1136
N4190 X-5.3737 Y-24.5114 Z0.1166
N4195 X-5.3717 Y-24.511 Z0.1199
N4200 X-5.3702 Y-24.5107 Z0.1236
N4205 X-5.3693 Y-24.5105 Z0.1274
N4210 X-5.369 Z0.1313
N4215 G0 Z0.6969
N4220 G1 X-10.9551 Y-22.0476 F500.
N4225 G0 Z0.5787
N4230 G1 Z0.525 F108.
N4235 G19 G2 Y-22.0726 Z0.5 J-0.025 K0.
N4240 G1 Y-22.0851
N4245 G17 G3 X-10.9301 Y-22.1101 I0.025 J0.
N4250 X-10.9353 Y-22.1099 Z0.4873 I0. J0.0596
N4255 X-10.9405 Y-22.1092 Z0.4746 I0.0052 J0.0594
N4260 X-10.9456 Y-22.1081 Z0.4619 I0.0104 J0.0587
N4265 X-10.9505 Y-22.1065 Z0.4491 I0.0154 J0.0576
N4270 X-10.9553 Y-22.1045 Z0.4364 I0.0204 J0.056
N4275 X-10.9599 Y-22.1021 Z0.4237 I0.0252 J0.054
N4280 X-10.9643 Y-22.0993 Z0.411 I0.0298 J0.0516
N4285 X-10.9684 Y-22.0962 Z0.3983 I0.0342 J0.0488
N4290 X-10.9723 Y-22.0927 Z0.3856 I0.0383 J0.0457
N4295 X-10.9758 Y-22.0888 Z0.3728 I0.0422 J0.0422
N4300 X-10.979 Y-22.0847 Z0.3601 I0.0457 J0.0383
N4305 X-10.9818 Y-22.0803 Z0.3474 I0.0488 J0.0342
N4310 X-10.9842 Y-22.0757 Z0.3347 I0.0516 J0.0298
N4315 X-10.9862 Y-22.0709 Z0.322 I0.054 J0.0252
N4320 X-10.9877 Y-22.0659 Z0.3093 I0.056 J0.0204
N4325 X-10.9888 Y-22.0609 Z0.2966 I0.0576 J0.0154
N4330 X-10.9895 Y-22.0557 Z0.2838 I0.0587 J0.0104
N4335 X-10.9897 Y-22.0505 Z0.2711 I0.0594 J0.0052
N4340 X-10.9895 Y-22.0453 Z0.2584 I0.0596 J0.
N4345 X-10.9888 Y-22.0401 Z0.2457 I0.0594 J-0.0052
N4350 X-10.9877 Y-22.0351 Z0.233 I0.0587 J-0.0104
N4355 X-10.9862 Y-22.0301 Z0.2203 I0.0576 J-0.0154
N4360 X-10.9842 Y-22.0253 Z0.2075 I0.056 J-0.0204
N4365 X-10.9818 Y-22.0207 Z0.1948 I0.054 J-0.0252
N4370 X-10.979 Y-22.0163 Z0.1821 I0.0516 J-0.0298
N4375 X-10.9758 Y-22.0122 Z0.1694 I0.0488 J-0.0342
N4380 X-10.9723 Y-22.0083 Z0.1567 I0.0457 J-0.0383
N4385 X-10.9684 Y-22.0048 Z0.144 I0.0422 J-0.0422
N4390 X-10.9643 Y-22.0017 Z0.1313 I0.0383 J-0.0457
N4395 X-10.9599 Y-21.9989 Z0.1185 I0.0342 J-0.0488
N4400 X-10.9421 Y-21.9921 Z0.1063 I0.0298 J-0.0516
N4405 X-10.9181 Y-22.1089 I0.012 J-0.0584
N4410 X-10.9421 Y-21.9921 I-0.012 J0.0584
N4415 X-10.9616 Y-22.0216 I0.005 J-0.0245
N4420 G1 X-10.9591 Y-22.0339
N4425 X-10.9583 Y-22.0377 Z0.1066
N4430 X-10.9575 Y-22.0414 Z0.1075
N4435 X-10.9568 Y-22.045 Z0.109
N4440 X-10.9561 Y-22.0483 Z0.1111
N4445 X-10.9555 Y-22.0512 Z0.1136
N4450 X-10.955 Y-22.0537 Z0.1166
N4455 X-10.9546 Y-22.0557 Z0.1199
N4460 X-10.9543 Y-22.0572 Z0.1236
N4465 X-10.9541 Y-22.0581 Z0.1274
N4470 X-10.954 Y-22.0584 Z0.1313
N4475 G0 Z0.6969
N4480 G1 X-11.3167 Y-16.0322 F500.
N4485 G0 Z0.5787
N4490 G1 Z0.525 F108.
N4495 G19 G2 Y-16.0572 Z0.5 J-0.025 K0.
N4500 G1 Y-16.0697
N4505 G17 G3 X-11.2917 Y-16.0947 I0.025 J0.
N4510 X-11.2969 Y-16.0945 Z0.4873 I0. J0.0596
N4515 X-11.302 Y-16.0938 Z0.4746 I0.0052 J0.0594
N4520 X-11.3071 Y-16.0926 Z0.4619 I0.0104 J0.0587
N4525 X-11.3121 Y-16.0911 Z0.4491 I0.0154 J0.0576
N4530 X-11.3169 Y-16.0891 Z0.4364 I0.0204 J0.056
N4535 X-11.3215 Y-16.0867 Z0.4237 I0.0252 J0.054
N4540 X-11.3259 Y-16.0839 Z0.411 I0.0298 J0.0516
N4545 X-11.33 Y-16.0807 Z0.3983 I0.0342 J0.0488
N4550 X-11.3338 Y-16.0772 Z0.3856 I0.0383 J0.0457
N4555 X-11.3373 Y-16.0734 Z0.3728 I0.0422 J0.0422
N4560 X-11.3405 Y-16.0693 Z0.3601 I0.0457 J0.0383
N4565 X-11.3433 Y-16.0649 Z0.3474 I0.0488 J0.0342
N4570 X-11.3457 Y-16.0603 Z0.3347 I0.0516 J0.0298
N4575 X-11.3477 Y-16.0554 Z0.322 I0.054 J0.0252
N4580 X-11.3493 Y-16.0505 Z0.3093 I0.056 J0.0204
N4585 X-11.3504 Y-16.0454 Z0.2966 I0.0576 J0.0154
N4590 X-11.3511 Y-16.0402 Z0.2838 I0.0587 J0.0104
N4595 X-11.3513 Y-16.0351 Z0.2711 I0.0594 J0.0052
N4600 X-11.3511 Y-16.0299 Z0.2584 I0.0596 J0.
N4605 X-11.3504 Y-16.0247 Z0.2457 I0.0594 J-0.0052
N4610 X-11.3493 Y-16.0196 Z0.233 I0.0587 J-0.0104
N4615 X-11.3477 Y-16.0147 Z0.2203 I0.0576 J-0.0154
N4620 X-11.3457 Y-16.0099 Z0.2075 I0.056 J-0.0204
N4625 X-11.3433 Y-16.0052 Z0.1948 I0.054 J-0.0252
N4630 X-11.3405 Y-16.0009 Z0.1821 I0.0516 J-0.0298
N4635 X-11.3373 Y-15.9967 Z0.1694 I0.0488 J-0.0342
N4640 X-11.3338 Y-15.9929 Z0.1567 I0.0457 J-0.0383
N4645 X-11.33 Y-15.9894 Z0.144 I0.0422 J-0.0422
N4650 X-11.3259 Y-15.9862 Z0.1313 I0.0383 J-0.0457
N4655 X-11.3215 Y-15.9834 Z0.1185 I0.0342 J-0.0488
N4660 X-11.3037 Y-15.9767 Z0.1063 I0.0298 J-0.0516
N4665 X-11.2796 Y-16.0935 I0.012 J-0.0584
N4670 X-11.3037 Y-15.9767 I-0.012 J0.0584
N4675 X-11.3231 Y-16.0062 I0.005 J-0.0245
N4680 G1 X-11.3206 Y-16.0184
N4685 X-11.3198 Y-16.0223 Z0.1066
N4690 X-11.3191 Y-16.026 Z0.1075
N4695 X-11.3183 Y-16.0295 Z0.109
N4700 X-11.3176 Y-16.0328 Z0.1111
N4705 X-11.317 Y-16.0357 Z0.1136
N4710 X-11.3165 Y-16.0382 Z0.1166
N4715 X-11.3161 Y-16.0402 Z0.1199
N4720 X-11.3158 Y-16.0417 Z0.1236
N4725 X-11.3156 Y-16.0426 Z0.1274
N4730 Y-16.0429 Z0.1313
N4735 G0 Z0.6969
N4740 G1 X-11.3167 Y-11.021 F500.
N4745 G0 Z0.5787
N4750 G1 Z0.525 F108.
N4755 G19 G2 Y-11.046 Z0.5 J-0.025 K0.
N4760 G1 Y-11.0585
N4765 G17 G3 X-11.2917 Y-11.0835 I0.025 J0.
N4770 X-11.2969 Y-11.0832 Z0.4873 I0. J0.0596
N4775 X-11.302 Y-11.0826 Z0.4746 I0.0052 J0.0594
N4780 X-11.3071 Y-11.0814 Z0.4619 I0.0104 J0.0587
N4785 X-11.3121 Y-11.0799 Z0.4491 I0.0154 J0.0576
N4790 X-11.3169 Y-11.0779 Z0.4364 I0.0204 J0.056
N4795 X-11.3215 Y-11.0755 Z0.4237 I0.0252 J0.054
N4800 X-11.3259 Y-11.0727 Z0.411 I0.0298 J0.0516
N4805 X-11.33 Y-11.0695 Z0.3983 I0.0342 J0.0488
N4810 X-11.3338 Y-11.066 Z0.3856 I0.0383 J0.0457
N4815 X-11.3373 Y-11.0622 Z0.3728 I0.0422 J0.0422
N4820 X-11.3405 Y-11.058 Z0.3601 I0.0457 J0.0383
N4825 X-11.3433 Y-11.0537 Z0.3474 I0.0488 J0.0342
N4830 X-11.3457 Y-11.049 Z0.3347 I0.0516 J0.0298
N4835 X-11.3477 Y-11.0442 Z0.322 I0.054 J0.0252
N4840 X-11.3493 Y-11.0393 Z0.3093 I0.056 J0.0204
N4845 X-11.3504 Y-11.0342 Z0.2966 I0.0576 J0.0154
N4850 X-11.3511 Y-11.029 Z0.2838 I0.0587 J0.0104
N4855 X-11.3513 Y-11.0238 Z0.2711 I0.0594 J0.0052
N4860 X-11.3511 Y-11.0186 Z0.2584 I0.0596 J0.
N4865 X-11.3504 Y-11.0135 Z0.2457 I0.0594 J-0.0052
N4870 X-11.3493 Y-11.0084 Z0.233 I0.0587 J-0.0104
N4875 X-11.3477 Y-11.0034 Z0.2203 I0.0576 J-0.0154
N4880 X-11.3457 Y-10.9986 Z0.2075 I0.056 J-0.0204
N4885 X-11.3433 Y-10.994 Z0.1948 I0.054 J-0.0252
N4890 X-11.3405 Y-10.9896 Z0.1821 I0.0516 J-0.0298
N4895 X-11.3373 Y-10.9855 Z0.1694 I0.0488 J-0.0342
N4900 X-11.3338 Y-10.9817 Z0.1567 I0.0457 J-0.0383
N4905 X-11.33 Y-10.9782 Z0.144 I0.0422 J-0.0422
N4910 X-11.3259 Y-10.975 Z0.1313 I0.0383 J-0.0457
N4915 X-11.3215 Y-10.9722 Z0.1185 I0.0342 J-0.0488
N4920 X-11.3037 Y-10.9654 Z0.1063 I0.0298 J-0.0516
N4925 X-11.2796 Y-11.0822 I0.012 J-0.0584
N4930 X-11.3037 Y-10.9654 I-0.012 J0.0584
N4935 X-11.3231 Y-10.995 I0.005 J-0.0245
N4940 G1 X-11.3206 Y-11.0072
N4945 X-11.3198 Y-11.011 Z0.1066
N4950 X-11.3191 Y-11.0148 Z0.1075
N4955 X-11.3183 Y-11.0183 Z0.109
N4960 X-11.3176 Y-11.0216 Z0.1111
N4965 X-11.317 Y-11.0245 Z0.1136
N4970 X-11.3165 Y-11.027 Z0.1166
N4975 X-11.3161 Y-11.029 Z0.1199
N4980 X-11.3158 Y-11.0305 Z0.1236
N4985 X-11.3156 Y-11.0314 Z0.1274
N4990 Y-11.0317 Z0.1313
N4995 G0 Z0.6969
N5000 G1 X-8.6999 Y-3.0906 F500.
N5005 G0 Z0.5787
N5010 G1 Z0.525 F108.
N5015 G19 G2 Y-3.1156 Z0.5 J-0.025 K0.
N5020 G1 Y-3.1281
N5025 G17 G3 X-8.6749 Y-3.1531 I0.025 J0.
N5030 X-8.6801 Y-3.1529 Z0.4873 I0. J0.0596
N5035 X-8.6852 Y-3.1522 Z0.4746 I0.0052 J0.0594
N5040 X-8.6903 Y-3.1511 Z0.4619 I0.0104 J0.0587
N5045 X-8.6953 Y-3.1495 Z0.4491 I0.0154 J0.0576
N5050 X-8.7001 Y-3.1475 Z0.4364 I0.0204 J0.056
N5055 X-8.7047 Y-3.1451 Z0.4237 I0.0252 J0.054
N5060 X-8.7091 Y-3.1423 Z0.411 I0.0298 J0.0516
N5065 X-8.7132 Y-3.1392 Z0.3983 I0.0342 J0.0488
N5070 X-8.717 Y-3.1357 Z0.3856 I0.0383 J0.0457
N5075 X-8.7205 Y-3.1318 Z0.3728 I0.0422 J0.0422
N5080 X-8.7237 Y-3.1277 Z0.3601 I0.0457 J0.0383
N5085 X-8.7265 Y-3.1233 Z0.3474 I0.0488 J0.0342
N5090 X-8.7289 Y-3.1187 Z0.3347 I0.0516 J0.0298
N5095 X-8.7309 Y-3.1139 Z0.322 I0.054 J0.0252
N5100 X-8.7325 Y-3.1089 Z0.3093 I0.056 J0.0204
N5105 X-8.7336 Y-3.1038 Z0.2966 I0.0576 J0.0154
N5110 X-8.7343 Y-3.0987 Z0.2838 I0.0587 J0.0104
N5115 X-8.7345 Y-3.0935 Z0.2711 I0.0594 J0.0052
N5120 X-8.7343 Y-3.0883 Z0.2584 I0.0596 J0.
N5125 X-8.7336 Y-3.0831 Z0.2457 I0.0594 J-0.0052
N5130 X-8.7325 Y-3.0781 Z0.233 I0.0587 J-0.0104
N5135 X-8.7309 Y-3.0731 Z0.2203 I0.0576 J-0.0154
N5140 X-8.7289 Y-3.0683 Z0.2075 I0.056 J-0.0204
N5145 X-8.7265 Y-3.0637 Z0.1948 I0.054 J-0.0252
N5150 X-8.7237 Y-3.0593 Z0.1821 I0.0516 J-0.0298
N5155 X-8.7205 Y-3.0552 Z0.1694 I0.0488 J-0.0342
N5160 X-8.717 Y-3.0513 Z0.1567 I0.0457 J-0.0383
N5165 X-8.7132 Y-3.0478 Z0.144 I0.0422 J-0.0422
N5170 X-8.7091 Y-3.0446 Z0.1313 I0.0383 J-0.0457
N5175 X-8.7047 Y-3.0419 Z0.1185 I0.0342 J-0.0488
N5180 X-8.6869 Y-3.0351 Z0.1063 I0.0298 J-0.0516
N5185 X-8.6628 Y-3.1519 I0.012 J-0.0584
N5190 X-8.6869 Y-3.0351 I-0.012 J0.0584
N5195 X-8.7063 Y-3.0646 I0.005 J-0.0245
N5200 G1 X-8.7038 Y-3.0769
N5205 X-8.703 Y-3.0807 Z0.1066
N5210 X-8.7023 Y-3.0844 Z0.1075
N5215 X-8.7015 Y-3.088 Z0.109
N5220 X-8.7008 Y-3.0913 Z0.1111
N5225 X-8.7002 Y-3.0942 Z0.1136
N5230 X-8.6997 Y-3.0967 Z0.1166
N5235 X-8.6993 Y-3.0987 Z0.1199
N5240 X-8.699 Y-3.1001 Z0.1236
N5245 X-8.6988 Y-3.101 Z0.1274
N5250 Y-3.1013 Z0.1313
N5255 G0 Z1.0906

(Pocket - Screen)
N5265 G1 X-11.067 Y-36.555 F500.
N5270 G0 Z1.0906
N5275 Z0.6969
N5280 G1 Z0.2947 F108.
N5285 G18 G3 X-11.092 Z0.2697 I-0.025 K0.
N5290 G1 X-11.1065
N5295 X-11.1497
N5300 G17 G3 X-11.1623 Y-36.5675 I0. J-0.0126
N5305 G1 Y-49.4441
N5310 G3 X-11.1497 Y-49.4567 I0.0126 J0.
N5315 G1 X-11.1065
N5320 X-11.1055
N5325 G18 G2 X-11.0805 Z0.2947 I0. K0.025
N5330 G0 Z0.6969
N5335 G1 X-11.0788 Y-36.4089 F500.
N5340 Z0.5394 F108.
N5345 Z0.2947
N5350 G3 X-11.1038 Z0.2697 I-0.025 K0.
N5355 G1 X-11.1063
N5360 X-11.2958
N5365 G17 G3 X-11.3084 Y-36.4215 I0. J-0.0126
N5370 G1 Y-49.5902
N5375 G3 X-11.2958 Y-49.6028 I0.0126 J0.
N5380 G1 X-11.1066
N5385 X-11.1057
N5390 G18 G2 X-11.0807 Z0.2947 I0. K0.025
N5395 G0 Z0.6969
N5400 G1 X-3.9135 Y-36.4143 F500.
N5405 Z0.2947 F108.
N5410 G19 G3 Y-36.3893 Z0.2697 J0.025 K0.
N5415 G1 Y-36.3745
N5420 Y-36.2754
N5425 G17 G3 X-3.9261 Y-36.2628 I-0.0126 J0.
N5430 G1 X-11.4419
N5435 G3 X-11.4544 Y-36.2754 I0. J-0.0126
N5440 G1 Y-49.7362
N5445 G3 X-11.4419 Y-49.7488 I0.0126 J0.
N5450 G1 X-3.9261
N5455 G3 X-3.9135 Y-49.7362 I0. J0.0126
N5460 G1 Y-49.637
N5465 G2 X-3.8405 Y-49.5275 I0.1187 J0.
N5470 G3 X-3.7674 Y-49.4179 I-0.0456 J0.1095
N5475 G1 Y-36.1293
N5480 G3 X-3.78 Y-36.1168 I-0.0126 J0.
N5485 G1 X-11.5879
N5490 G3 X-11.6005 Y-36.1293 I0. J-0.0126
N5495 G1 Y-49.8823
N5500 G3 X-11.5879 Y-49.8949 I0.0126 J0.
N5505 G1 X-3.78
N5510 G3 X-3.7674 Y-49.8823 I0. J0.0126
N5515 G1 Y-49.4179
N5520 G2 X-3.6944 Y-49.3084 I0.1187 J0.
N5525 G3 X-3.6214 Y-49.1988 I-0.0456 J0.1095
N5530 G1 Y-35.9833
N5535 G3 X-3.634 Y-35.9707 I-0.0126 J0.
N5540 G1 X-11.734
N5545 G3 X-11.7466 Y-35.9833 I0. J-0.0126
N5550 G1 Y-50.0284
N5555 G3 X-11.734 Y-50.0409 I0.0126 J0.
N5560 G1 X-3.634
N5565 G3 X-3.6214 Y-50.0284 I0. J0.0126
N5570 G1 Y-49.1988
N5575 G2 X-3.5483 Y-49.0893 I0.1187 J0.
N5580 G3 X-3.4753 Y-48.9798 I-0.0456 J0.1095
N5585 G1 Y-35.8372
N5590 G3 X-3.4879 Y-35.8246 I-0.0126 J0.
N5595 G1 X-11.8801
N5600 G3 X-11.8926 Y-35.8372 I0. J-0.0126
N5605 G1 Y-50.1744
N5610 G3 X-11.8801 Y-50.187 I0.0126 J0.
N5615 G1 X-3.4879
N5620 G3 X-3.4753 Y-50.1744 I0. J0.0126
N5625 G1 Y-48.9798
N5630 G2 X-3.4023 Y-48.8702 I0.1187 J0.
N5635 G3 X-3.3293 Y-48.7607 I-0.0456 J0.1095
N5640 G1 Y-35.6912
N5645 G3 X-3.3418 Y-35.6786 I-0.0126 J0.
N5650 G1 X-12.0261
N5655 G3 X-12.0387 Y-35.6912 I0. J-0.0126
N5660 G1 Y-50.3205
N5665 G3 X-12.0261 Y-50.3331 I0.0126 J0.
N5670 G1 X-3.3418
N5675 G3 X-3.3293 Y-50.3205 I0. J0.0126
N5680 G1 Y-48.7607
N5685 G2 X-3.2561 Y-48.651 I0.1188 J0.
N5690 G3 X-3.183 Y-48.5413 I-0.0457 J0.1097
N5695 G1 Y-35.5323
N5700 X-12.185
N5705 Y-50.4793
N5710 X-3.183
N5715 Y-48.5413
N5720 G3 X-3.1844 Y-48.5337 Z0.2709 I-0.0244 J-0.0006
N5725 X-3.1876 Y-48.5276 Z0.2745 I-0.023 J-0.0082
N5730 X-3.1914 Y-48.5235 Z0.28 I-0.0197 J-0.0143
N5735 X-3.1942 Y-48.5214 Z0.287 I-0.016 J-0.0184
N5740 X-3.1953 Y-48.5207 Z0.2947 I-0.0132 J-0.0205
N5745 G0 Z1.0906

(Contour - Inner Screen)
N5755 G1 X-11.1023 Y-44.405 F500.
N5760 G0 Z1.0906
N5765 Z0.6969
N5770 G1 Z0.5984 F108.
N5775 Y-49.6329 Z0.5666
N5780 X-3.7932 Z0.5222
N5785 Y-36.3788 Z0.4416
N5790 X-11.1023 Z0.3972
N5795 Y-49.6329 Z0.3166
N5800 X-3.7932 Z0.2722
N5805 Y-45.9783 Z0.25
N5810 Y-36.3788
N5815 X-11.1023
N5820 Y-49.6329
N5825 X-3.7932
N5830 Y-45.9783
N5835 Y-36.3788 Z0.1916
N5840 X-6.9461 Z0.1725
N5845 X-11.1023
N5850 Y-49.6329
N5855 X-3.7932
N5860 Y-36.3788
N5865 X-6.9461
N5870 G0 Z1.0906

(Contour - Panels)
N5880 G1 X-4.8013 Y-40.2585 F500.
N5885 G0 Z1.0906
N5890 Z0.6969
N5895 G1 Z0.5984 F108.
N5900 Y-46.9059 Z0.5395
N5905 G2 X-4.9111 Y-47.03 Z0.5379 I-0.125 J0.
N5910 G1 X-10.2979 Y-47.689 Z0.4898
N5915 G2 X-10.4381 Y-47.565 Z0.4879 I-0.0152 J0.1241
N5920 G1 Y-38.6054 Z0.4085
N5925 G2 X-10.3131 Y-38.4804 Z0.4068 I0.125 J0.
N5930 G1 X-10.171 Z0.4055
N5935 G2 X-10.1545 Y-38.4815 Z0.4054 I0. J-0.125
N5940 G1 X-4.9098 Y-39.1777 Z0.3585
N5945 G2 X-4.8013 Y-39.3016 Z0.3569 I-0.0164 J-0.1239
N5950 G1 Y-46.9059 Z0.2895
N5955 G2 X-4.9111 Y-47.03 Z0.2879 I-0.125 J0.
N5960 G1 X-9.1569 Y-47.5494 Z0.25
N5965 X-10.2979 Y-47.689
N5970 G2 X-10.4381 Y-47.565 I-0.0152 J0.1241
N5975 G1 Y-38.6054
N5980 G2 X-10.3131 Y-38.4804 I0.125 J0.
N5985 G1 X-10.171
N5990 G2 X-10.1545 Y-38.4815 I0. J-0.125
N5995 G1 X-4.9098 Y-39.1777
N6000 G2 X-4.8013 Y-39.3016 I-0.0164 J-0.1239
N6005 G1 Y-46.9059
N6010 G2 X-4.9111 Y-47.03 I-0.125 J0.
N6015 G1 X-9.1569 Y-47.5494
N6020 X-10.2979 Y-47.689 Z0.2398
N6025 G2 X-10.4381 Y-47.565 Z0.2379 I-0.0152 J0.1241
N6030 G1 Y-38.6054 Z0.1585
N6035 G2 X-10.3131 Y-38.4804 Z0.1568 I0.125 J0.
N6040 G1 X-10.171 Z0.1555
N6045 G2 X-10.1545 Y-38.4815 Z0.1554 I0. J-0.125
N6050 G1 X-4.9098 Y-39.1777 Z0.1085
N6055 G2 X-4.8013 Y-39.3016 Z0.1069 I-0.0164 J-0.1239
N6060 G1 Y-46.9059 Z0.0395
N6065 G2 X-4.9111 Y-47.03 Z0.0379 I-0.125 J0.
N6070 G1 X-7.4769 Y-47.3439 Z0.015
N6075 X-9.1569 Y-47.5494
N6080 X-10.2979 Y-47.689
N6085 G2 X-10.4381 Y-47.565 I-0.0152 J0.1241
N6090 G1 Y-38.6054
N6095 G2 X-10.3131 Y-38.4804 I0.125 J0.
N6100 G1 X-10.171
N6105 G2 X-10.1545 Y-38.4815 I0. J-0.125
N6110 G1 X-4.9098 Y-39.1777
N6115 G2 X-4.8013 Y-39.3016 I-0.0164 J-0.1239
N6120 G1 Y-46.9059
N6125 G2 X-4.9111 Y-47.03 I-0.125 J0.
N6130 G1 X-7.4769 Y-47.3439
N6135 G0 Z0.6969
N6140 G1 X-1.6547 Y-51.1423 F500.
N6145 Z0.5984 F108.
N6150 Y-52.3748 Z0.5936
N6155 G2 X-1.7385 Y-52.4928 Z0.593 I-0.125 J0.
N6160 G1 X-9.1002 Y-55.0641 Z0.5624
N6165 G2 X-9.2058 Y-55.0532 Z0.5619 I-0.0412 J0.118
N6170 G1 X-13.8441 Y-52.2674 Z0.5407
N6175 G2 X-13.9047 Y-52.1602 Z0.5402 I0.0644 J0.1072
N6180 G1 Y-32.6552 Z0.4636
N6185 G2 X-13.7625 Y-32.5314 Z0.4627 I0.125 J0.
N6190 G1 X-1.7625 Y-34.2014 Z0.4152
N6195 G2 X-1.6547 Y-34.3252 Z0.4145 I-0.0172 J-0.1238
N6200 G1 Y-52.3748 Z0.3436
N6205 G2 X-1.7385 Y-52.4928 Z0.343 I-0.125 J0.
N6210 G1 X-9.1002 Y-55.0641 Z0.3124
N6215 G2 X-9.2058 Y-55.0532 Z0.3119 I-0.0412 J0.118
N6220 G1 X-13.8441 Y-52.2674 Z0.2907
N6225 G2 X-13.9047 Y-52.1602 Z0.2902 I0.0644 J0.1072
N6230 G1 Y-41.9293 Z0.25
N6235 Y-32.6552
N6240 G2 X-13.7625 Y-32.5314 I0.125 J0.
N6245 G1 X-1.8415 Y-34.1904
N6250 X-1.7625 Y-34.2014
N6255 G2 X-1.6547 Y-34.3252 I-0.0172 J-0.1238
N6260 G1 Y-52.3748
N6265 G2 X-1.7385 Y-52.4928 I-0.125 J0.
N6270 G1 X-9.1002 Y-55.0641
N6275 G2 X-9.2058 Y-55.0532 I-0.0412 J0.118
N6280 G1 X-13.8441 Y-52.2674
N6285 G2 X-13.9047 Y-52.1602 I0.0644 J0.1072
N6290 G1 Y-41.9293
N6295 Y-32.6552 Z0.2136
N6300 G2 X-13.7625 Y-32.5314 Z0.2127 I0.125 J0.
N6305 G1 X-1.7625 Y-34.2014 Z0.1652
N6310 G2 X-1.6547 Y-34.3252 Z0.1645 I-0.0172 J-0.1238
N6315 G1 Y-52.3748 Z0.0936
N6320 G2 X-1.7385 Y-52.4928 Z0.093 I-0.125 J0.
N6325 G1 X-9.1002 Y-55.0641 Z0.0624
N6330 G2 X-9.2058 Y-55.0532 Z0.0619 I-0.0412 J0.118
N6335 G1 X-13.8441 Y-52.2674 Z0.0407
N6340 G2 X-13.9047 Y-52.1602 Z0.0402 I0.0644 J0.1072
N6345 G1 Y-45.7491 Z0.015
N6350 Y-32.6552
N6355 G2 X-13.7625 Y-32.5314 I0.125 J0.
N6360 G1 X-1.8415 Y-34.1904
N6365 X-1.7625 Y-34.2014
N6370 G2 X-1.6547 Y-34.3252 I-0.0172 J-0.1238
N6375 G1 Y-52.3748
N6380 G2 X-1.7385 Y-52.4928 I-0.125 J0.
N6385 G1 X-9.1002 Y-55.0641
N6390 G2 X-9.2058 Y-55.0532 I-0.0412 J0.118
N6395 G1 X-13.8441 Y-52.2674
N6400 G2 X-13.9047 Y-52.1602 I0.0644 J0.1072
N6405 G1 Y-45.7491
N6410 G0 Z0.6969
N6415 G1 X-8.4097 Y-59.4906 F500.
N6420 Z0.5984 F108.
N6425 Y-55.8413 Z0.567
N6430 G2 X-8.3011 Y-55.7174 Z0.5654 I0.125 J0.
N6435 G1 X-0.9752 Y-54.7466 Z0.5018
N6440 G2 X-0.8338 Y-54.8705 Z0.4999 I0.0164 J-0.1239
N6445 G1 Y-62.5681 Z0.4336
N6450 G2 X-0.9753 Y-62.692 Z0.4318 I-0.125 J0.
N6455 G1 X-8.3011 Y-61.7188 Z0.3681
N6460 G2 X-8.4097 Y-61.5949 Z0.3666 I0.0165 J0.1239
N6465 G1 Y-55.8413 Z0.317
N6470 G2 X-8.3011 Y-55.7174 Z0.3154 I0.125 J0.
N6475 G1 X-0.9752 Y-54.7466 Z0.2518
N6480 G2 X-0.8341 Y-54.8625 Z0.25 I0.0164 J-0.1239
N6485 X-0.8338 Y-54.8705 I-0.1247 J-0.008
N6490 G1 Y-62.5681
N6495 G2 X-0.9753 Y-62.692 I-0.125 J0.
N6500 G1 X-8.3011 Y-61.7188
N6505 G2 X-8.4097 Y-61.5949 I0.0165 J0.1239
N6510 G1 Y-55.8413
N6515 G2 X-8.3011 Y-55.7174 I0.125 J0.
N6520 G1 X-0.9752 Y-54.7466
N6525 G2 X-0.8341 Y-54.8625 I0.0164 J-0.1239
N6530 X-0.8338 Y-54.8705 Z0.2499 I-0.1247 J-0.008
N6535 G1 Y-62.5681 Z0.1836
N6540 G2 X-0.9753 Y-62.692 Z0.1818 I-0.125 J0.
N6545 G1 X-8.3011 Y-61.7188 Z0.1181
N6550 G2 X-8.4097 Y-61.5949 Z0.1166 I0.0165 J0.1239
N6555 G1 Y-55.8413 Z0.067
N6560 G2 X-8.3011 Y-55.7174 Z0.0654 I0.125 J0.
N6565 G1 X-2.4981 Y-54.9484 Z0.015
N6570 X-0.9752 Y-54.7466
N6575 G2 X-0.8338 Y-54.8705 I0.0164 J-0.1239
N6580 G1 Y-62.5681
N6585 G2 X-0.9753 Y-62.692 I-0.125 J0.
N6590 G1 X-8.3011 Y-61.7188
N6595 G2 X-8.4097 Y-61.5949 I0.0165 J0.1239
N6600 G1 Y-55.8413
N6605 G2 X-8.3011 Y-55.7174 I0.125 J0.
N6610 G1 X-2.4981 Y-54.9484
N6615 G0 Z0.6969
N6620 G1 X-6.9759 Y-74.0485 F500.
N6625 Z0.5984 F108.
N6630 Y-64.2354 Z0.5484
N6635 G2 X-6.8509 Y-64.1104 Z0.5474 I0.125 J0.
N6640 G1 X-1.0505 Z0.5179
N6645 G2 X-0.9255 Y-64.2354 Z0.5169 I0. J-0.125
N6650 G1 Y-82.5748 Z0.4234
N6655 G2 X-1.0505 Y-82.6998 Z0.4224 I-0.125 J0.
N6660 G1 X-6.8509 Z0.3929
N6665 G2 X-6.9759 Y-82.5748 Z0.3919 I0. J0.125
N6670 G1 Y-64.2354 Z0.2984
N6675 G2 X-6.8509 Y-64.1104 Z0.2974 I0.125 J0.
N6680 G1 X-1.0505 Z0.2679
N6685 G2 X-0.9255 Y-64.2354 Z0.2669 I0. J-0.125
N6690 G1 Y-67.5462 Z0.25
N6695 Y-82.5748
N6700 G2 X-1.0505 Y-82.6998 I-0.125 J0.
N6705 G1 X-6.8509
N6710 G2 X-6.9759 Y-82.5748 I0. J0.125
N6715 G1 Y-64.2354
N6720 G2 X-6.8509 Y-64.1104 I0.125 J0.
N6725 G1 X-1.0505
N6730 G2 X-0.9255 Y-64.2354 I0. J-0.125
N6735 G1 Y-67.5462
N6740 Y-82.5748 Z0.1734
N6745 G2 X-1.0505 Y-82.6998 Z0.1724 I-0.125 J0.
N6750 G1 X-6.8509 Z0.1429
N6755 G2 X-6.9759 Y-82.5748 Z0.1419 I0. J0.125
N6760 G1 Y-64.2354 Z0.0484
N6765 G2 X-6.8509 Y-64.1104 Z0.0474 I0.125 J0.
N6770 G1 X-1.0505 Z0.0179
N6775 G2 X-0.9255 Y-64.2354 Z0.0169 I0. J-0.125
N6780 G1 Y-64.6023 Z0.015
N6785 Y-82.5748
N6790 G2 X-1.0505 Y-82.6998 I-0.125 J0.
N6795 G1 X-6.8509
N6800 G2 X-6.9759 Y-82.5748 I0. J0.125
N6805 G1 Y-64.2354
N6810 G2 X-6.8509 Y-64.1104 I0.125 J0.
N6815 G1 X-1.0505
N6820 G2 X-0.9255 Y-64.2354 I0. J-0.125
N6825 G1 Y-64.6023
N6830 G0 Z0.6969
N6835 G1 X-7.5227 Y-23.7928 F500.
N6840 Z0.5984 F108.
N6845 X-1.5679 Y-22.9559 Z0.5596
N6850 G2 X-1.4255 Y-23.0797 Z0.5582 I0.0174 J-0.1238
N6855 G1 Y-32.0994 Z0.5
N6860 G2 X-1.5679 Y-32.2232 Z0.4986 I-0.125 J0.
N6865 G1 X-13.0214 Y-30.6135 Z0.424
N6870 G2 X-13.129 Y-30.4898 Z0.4228 I0.0174 J0.1238
N6875 G1 Y-24.6894 Z0.3854
N6880 G2 X-13.0214 Y-24.5656 Z0.3843 I0.125 J0.
N6885 G1 X-1.5679 Y-22.9559 Z0.3096
N6890 G2 X-1.4255 Y-23.0797 Z0.3082 I0.0174 J-0.1238
N6895 G1 Y-32.0994 Z0.25
N6900 G2 X-1.4256 Y-32.1036 I-0.125 J0.
N6905 X-1.5679 Y-32.2232 I-0.1249 J0.0042
N6910 G1 X-13.0214 Y-30.6135
N6915 G2 X-13.129 Y-30.4898 I0.0174 J0.1238
N6920 G1 Y-24.6894
N6925 G2 X-13.0214 Y-24.5656 I0.125 J0.
N6930 G1 X-1.5679 Y-22.9559
N6935 G2 X-1.4255 Y-23.0797 I0.0174 J-0.1238
N6940 G1 Y-32.0994
N6945 G2 X-1.4256 Y-32.1036 I-0.125 J0.
N6950 X-1.5679 Y-32.2232 Z0.2486 I-0.1249 J0.0042
N6955 G1 X-13.0214 Y-30.6135 Z0.174
N6960 G2 X-13.129 Y-30.4898 Z0.1728 I0.0174 J0.1238
N6965 G1 Y-24.6894 Z0.1354
N6970 G2 X-13.0214 Y-24.5656 Z0.1343 I0.125 J0.
N6975 G1 X-1.5679 Y-22.9559 Z0.0596
N6980 G2 X-1.4255 Y-23.0797 Z0.0582 I0.0174 J-0.1238
N6985 G1 Y-29.7794 Z0.015
N6990 Y-32.0994
N6995 G2 X-1.5679 Y-32.2232 I-0.125 J0.
N7000 G1 X-13.0214 Y-30.6135
N7005 G2 X-13.129 Y-30.4898 I0.0174 J0.1238
N7010 G1 Y-24.6894
N7015 G2 X-13.0214 Y-24.5656 I0.125 J0.
N7020 G1 X-1.5679 Y-22.9559
N7025 G2 X-1.4255 Y-23.0797 I0.0174 J-0.1238
N7030 G1 Y-29.7794
N7035 G0 Z0.6969
N7040 G1 X-7.9105 Y-1.4724 F500.
N7045 Z0.5984 F108.
N7050 X-1.4517 Y-3.7204 Z0.5716
N7055 G2 X-1.3677 Y-3.8384 Z0.571 I-0.0411 J-0.1181
N7060 G1 Y-21.9177 Z0.5
N7065 G2 X-1.4755 Y-22.0415 Z0.4993 I-0.125 J0.
N7070 G1 X-1.6909 Y-22.0715 Z0.4985
N7075 X-13.4755 Y-23.7116 Z0.4518
N7080 G2 X-13.6178 Y-23.5878 Z0.4509 I-0.0172 J0.1238
N7085 G1 Y-4.0829 Z0.3744
N7090 G2 X-13.5571 Y-3.9757 Z0.3739 I0.125 J0.
N7095 G1 X-8.8971 Y-1.1766 Z0.3525
N7100 G2 X-8.7917 Y-1.1657 Z0.3521 I0.0644 J-0.1072
N7105 G1 X-1.4517 Y-3.7204 Z0.3216
N7110 G2 X-1.3677 Y-3.8384 Z0.321 I-0.0411 J-0.1181
N7115 G1 Y-21.9177 Z0.25
N7120 G2 X-1.3678 Y-21.9211 I-0.125 J0.
N7125 X-1.4755 Y-22.0415 I-0.125 J0.0034
N7130 G1 X-1.6909 Y-22.0715
N7135 X-13.4755 Y-23.7116
N7140 G2 X-13.6178 Y-23.5878 I-0.0172 J0.1238
N7145 G1 Y-4.0829
N7150 G2 X-13.5571 Y-3.9757 I0.125 J0.
N7155 G1 X-8.8971 Y-1.1766
N7160 G2 X-8.7917 Y-1.1657 I0.0644 J-0.1072
N7165 G1 X-1.4517 Y-3.7204
N7170 G2 X-1.3677 Y-3.8384 I-0.0411 J-0.1181
N7175 G1 Y-21.9177
N7180 G2 X-1.3678 Y-21.9211 I-0.125 J0.
N7185 X-1.4755 Y-22.0415 Z0.2493 I-0.125 J0.0034
N7190 G1 X-1.6909 Y-22.0715 Z0.2485
N7195 X-13.4755 Y-23.7116 Z0.2018
N7200 G2 X-13.6178 Y-23.5878 Z0.2009 I-0.0172 J0.1238
N7205 G1 Y-4.0829 Z0.1244
N7210 G2 X-13.5571 Y-3.9757 Z0.1239 I0.125 J0.
N7215 G1 X-8.8971 Y-1.1766 Z0.1025
N7220 G2 X-8.7917 Y-1.1657 Z0.1021 I0.0644 J-0.1072
N7225 G1 X-1.4517 Y-3.7204 Z0.0716
N7230 G2 X-1.3677 Y-3.8384 Z0.071 I-0.0411 J-0.1181
N7235 G1 Y-18.0995 Z0.015
N7240 Y-21.9177
N7245 G2 X-1.4755 Y-22.0415 I-0.125 J0.
N7250 G1 X-1.6909 Y-22.0715
N7255 X-13.4755 Y-23.7116
N7260 G2 X-13.6178 Y-23.5878 I-0.0172 J0.1238
N7265 G1 Y-4.0829
N7270 G2 X-13.5571 Y-3.9757 I0.125 J0.
N7275 G1 X-8.8971 Y-1.1766
N7280 G2 X-8.7917 Y-1.1657 I0.0644 J-0.1072
N7285 G1 X-1.4517 Y-3.7204
N7290 G2 X-1.3677 Y-3.8384 I-0.0411 J-0.1181
N7295 G1 Y-18.0995
N7300 G0 Z1.0906

N7305 M5
N7310 G53 G0 Z3.4
N7315 G53 X0. Y0.
N7320 M30

%
