%
O12345
(Machine)
(  vendor: Autodesk)
(  model: Generic 3-axis)
(  description: This machine has X axis on the Table and YZ axis on the Head)
(T101 D=0.25 CR=0. - ZMIN=0.015 - flat end mill)
N10 G90 G94 G17
N15 G20
N20 G53 G0 Z3.4

(Holes)
N30 T101 M6
N35 S18000 M3
N40 G54
N55 G0 X-61.2917 Y2.1642
N60 G43 Z1.0906 H101
N65 G0 Z0.5787
N70 G1 Z0.525 F108.
N75 G19 G3 Y2.1892 Z0.5 J0.025 K0.
N80 G1 Y2.2017
N85 G17 G3 X-61.3167 Y2.2267 I-0.025 J0.
N90 X-61.3115 Y2.2265 Z0.4873 I0. J-0.0596
N95 X-61.3063 Y2.2258 Z0.4746 I-0.0052 J-0.0594
N100 X-61.3013 Y2.2247 Z0.4619 I-0.0104 J-0.0587
N105 X-61.2963 Y2.2231 Z0.4491 I-0.0154 J-0.0576
N110 X-61.2915 Y2.2211 Z0.4364 I-0.0204 J-0.056
N115 X-61.2869 Y2.2187 Z0.4237 I-0.0252 J-0.054
N120 X-61.2825 Y2.2159 Z0.411 I-0.0298 J-0.0516
N125 X-61.2784 Y2.2128 Z0.3983 I-0.0342 J-0.0488
N130 X-61.2745 Y2.2092 Z0.3856 I-0.0383 J-0.0457
N135 X-61.271 Y2.2054 Z0.3728 I-0.0422 J-0.0422
N140 X-61.2678 Y2.2013 Z0.3601 I-0.0457 J-0.0383
N145 X-61.265 Y2.1969 Z0.3474 I-0.0488 J-0.0342
N150 X-61.2626 Y2.1923 Z0.3347 I-0.0516 J-0.0298
N155 X-61.2607 Y2.1875 Z0.322 I-0.054 J-0.0252
N160 X-61.2591 Y2.1825 Z0.3093 I-0.056 J-0.0204
N165 X-61.258 Y2.1774 Z0.2966 I-0.0576 J-0.0154
N170 X-61.2573 Y2.1723 Z0.2838 I-0.0587 J-0.0104
N175 X-61.2571 Y2.1671 Z0.2711 I-0.0594 J-0.0052
N180 X-61.2573 Y2.1619 Z0.2584 I-0.0596 J0.
N185 X-61.258 Y2.1567 Z0.2457 I-0.0594 J0.0052
N190 X-61.2591 Y2.1517 Z0.233 I-0.0587 J0.0104
N195 X-61.2607 Y2.1467 Z0.2203 I-0.0576 J0.0154
N200 X-61.2626 Y2.1419 Z0.2075 I-0.056 J0.0204
N205 X-61.265 Y2.1373 Z0.1948 I-0.054 J0.0252
N210 X-61.2678 Y2.1329 Z0.1821 I-0.0516 J0.0298
N215 X-61.271 Y2.1288 Z0.1694 I-0.0488 J0.0342
N220 X-61.2745 Y2.1249 Z0.1567 I-0.0457 J0.0383
N225 X-61.2784 Y2.1214 Z0.144 I-0.0422 J0.0422
N230 X-61.2825 Y2.1182 Z0.1313 I-0.0383 J0.0457
N235 X-61.2869 Y2.1155 Z0.1185 I-0.0342 J0.0488
N240 X-61.3047 Y2.1087 Z0.1063 I-0.0298 J0.0516
N245 X-61.3287 Y2.2255 I-0.012 J0.0584
N250 X-61.3047 Y2.1087 I0.012 J-0.0584
N255 X-61.2852 Y2.1382 I-0.005 J0.0245
N260 G1 X-61.2877 Y2.1505
N265 X-61.2885 Y2.1543 Z0.1066
N270 X-61.2893 Y2.158 Z0.1075
N275 X-61.29 Y2.1616 Z0.109
N280 X-61.2907 Y2.1648 Z0.1111
N285 X-61.2913 Y2.1678 Z0.1136
N290 X-61.2918 Y2.1703 Z0.1166
N295 X-61.2922 Y2.1723 Z0.1199
N300 X-61.2925 Y2.1737 Z0.1236
N305 X-61.2927 Y2.1746 Z0.1274
N310 X-61.2928 Y2.1749 Z0.1313
N315 G0 Z0.6969
N320 G1 X-56.0948 Y2.1642 F500.
N325 G0 Z0.5787
N330 G1 Z0.525 F108.
N335 G19 G3 Y2.1892 Z0.5 J0.025 K0.
N340 G1 Y2.2017
N345 G17 G3 X-56.1198 Y2.2267 I-0.025 J0.
N350 X-56.1146 Y2.2265 Z0.4873 I0. J-0.0596
N355 X-56.1095 Y2.2258 Z0.4746 I-0.0052 J-0.0594
N360 X-56.1044 Y2.2247 Z0.4619 I-0.0104 J-0.0587
N365 X-56.0994 Y2.2231 Z0.4491 I-0.0154 J-0.0576
N370 X-56.0946 Y2.2211 Z0.4364 I-0.0204 J-0.056
N375 X-56.09 Y2.2187 Z0.4237 I-0.0252 J-0.054
N380 X-56.0856 Y2.2159 Z0.411 I-0.0298 J-0.0516
N385 X-56.0815 Y2.2128 Z0.3983 I-0.0342 J-0.0488
N390 X-56.0777 Y2.2092 Z0.3856 I-0.0383 J-0.0457
N395 X-56.0742 Y2.2054 Z0.3728 I-0.0422 J-0.0422
N400 X-56.071 Y2.2013 Z0.3601 I-0.0457 J-0.0383
N405 X-56.0682 Y2.1969 Z0.3474 I-0.0488 J-0.0342
N410 X-56.0658 Y2.1923 Z0.3347 I-0.0516 J-0.0298
N415 X-56.0638 Y2.1875 Z0.322 I-0.054 J-0.0252
N420 X-56.0622 Y2.1825 Z0.3093 I-0.056 J-0.0204
N425 X-56.0611 Y2.1774 Z0.2966 I-0.0576 J-0.0154
N430 X-56.0604 Y2.1723 Z0.2838 I-0.0587 J-0.0104
N435 X-56.0602 Y2.1671 Z0.2711 I-0.0594 J-0.0052
N440 X-56.0604 Y2.1619 Z0.2584 I-0.0596 J0.
N445 X-56.0611 Y2.1567 Z0.2457 I-0.0594 J0.0052
N450 X-56.0622 Y2.1517 Z0.233 I-0.0587 J0.0104
N455 X-56.0638 Y2.1467 Z0.2203 I-0.0576 J0.0154
N460 X-56.0658 Y2.1419 Z0.2075 I-0.056 J0.0204
N465 X-56.0682 Y2.1373 Z0.1948 I-0.054 J0.0252
N470 X-56.071 Y2.1329 Z0.1821 I-0.0516 J0.0298
N475 X-56.0742 Y2.1288 Z0.1694 I-0.0488 J0.0342
N480 X-56.0777 Y2.1249 Z0.1567 I-0.0457 J0.0383
N485 X-56.0815 Y2.1214 Z0.144 I-0.0422 J0.0422
N490 X-56.0856 Y2.1182 Z0.1313 I-0.0383 J0.0457
N495 X-56.09 Y2.1155 Z0.1185 I-0.0342 J0.0488
N500 X-56.1078 Y2.1087 Z0.1063 I-0.0298 J0.0516
N505 X-56.1319 Y2.2255 I-0.012 J0.0584
N510 X-56.1078 Y2.1087 I0.012 J-0.0584
N515 X-56.0884 Y2.1382 I-0.005 J0.0245
N520 G1 X-56.0909 Y2.1505
N525 X-56.0917 Y2.1543 Z0.1066
N530 X-56.0924 Y2.158 Z0.1075
N535 X-56.0932 Y2.1616 Z0.109
N540 X-56.0939 Y2.1648 Z0.1111
N545 X-56.0945 Y2.1678 Z0.1136
N550 X-56.095 Y2.1703 Z0.1166
N555 X-56.0954 Y2.1723 Z0.1199
N560 X-56.0957 Y2.1737 Z0.1236
N565 X-56.0959 Y2.1746 Z0.1274
N570 Y2.1749 Z0.1313
N575 G0 Z0.6969
N580 G1 X-37.2405 Y12.7198 F500.
N585 G0 Z0.5787
N590 G1 Z0.525 F108.
N595 G18 G3 X-37.2655 Z0.5 I-0.025 K0.
N600 G1 X-37.278
N605 G17 G3 X-37.303 Y12.6948 I0. J-0.025
N610 X-37.3028 Y12.7 Z0.4873 I0.0596 J0.
N615 X-37.3021 Y12.7052 Z0.4746 I0.0594 J-0.0052
N620 X-37.301 Y12.7103 Z0.4619 I0.0587 J-0.0104
N625 X-37.2994 Y12.7152 Z0.4491 I0.0576 J-0.0154
N630 X-37.2974 Y12.72 Z0.4364 I0.056 J-0.0204
N635 X-37.295 Y12.7246 Z0.4237 I0.054 J-0.0252
N640 X-37.2922 Y12.729 Z0.411 I0.0516 J-0.0298
N645 X-37.2891 Y12.7332 Z0.3983 I0.0488 J-0.0342
N650 X-37.2856 Y12.737 Z0.3856 I0.0457 J-0.0383
N655 X-37.2817 Y12.7405 Z0.3728 I0.0422 J-0.0422
N660 X-37.2776 Y12.7437 Z0.3601 I0.0383 J-0.0457
N665 X-37.2732 Y12.7465 Z0.3474 I0.0342 J-0.0488
N670 X-37.2686 Y12.7489 Z0.3347 I0.0298 J-0.0516
N675 X-37.2638 Y12.7509 Z0.322 I0.0252 J-0.054
N680 X-37.2588 Y12.7524 Z0.3093 I0.0204 J-0.056
N685 X-37.2538 Y12.7535 Z0.2966 I0.0154 J-0.0576
N690 X-37.2486 Y12.7542 Z0.2838 I0.0104 J-0.0587
N695 X-37.2434 Y12.7544 Z0.2711 I0.0052 J-0.0594
N700 X-37.2382 Y12.7542 Z0.2584 I0. J-0.0596
N705 X-37.233 Y12.7535 Z0.2457 I-0.0052 J-0.0594
N710 X-37.228 Y12.7524 Z0.233 I-0.0104 J-0.0587
N715 X-37.223 Y12.7509 Z0.2203 I-0.0154 J-0.0576
N720 X-37.2182 Y12.7489 Z0.2075 I-0.0204 J-0.056
N725 X-37.2136 Y12.7465 Z0.1948 I-0.0252 J-0.054
N730 X-37.2092 Y12.7437 Z0.1821 I-0.0298 J-0.0516
N735 X-37.2051 Y12.7405 Z0.1694 I-0.0342 J-0.0488
N740 X-37.2012 Y12.737 Z0.1567 I-0.0383 J-0.0457
N745 X-37.1977 Y12.7332 Z0.144 I-0.0422 J-0.0422
N750 X-37.1946 Y12.729 Z0.1313 I-0.0457 J-0.0383
N755 X-37.1918 Y12.7246 Z0.1185 I-0.0488 J-0.0342
N760 X-37.185 Y12.7068 Z0.1063 I-0.0516 J-0.0298
N765 X-37.3018 Y12.6828 I-0.0584 J-0.012
N770 X-37.185 Y12.7068 I0.0584 J0.012
N775 X-37.2145 Y12.7263 I-0.0245 J-0.005
N780 G1 X-37.2268 Y12.7238
N785 X-37.2306 Y12.723 Z0.1066
N790 X-37.2343 Y12.7222 Z0.1075
N795 X-37.2379 Y12.7215 Z0.109
N800 X-37.2412 Y12.7208 Z0.1111
N805 X-37.2441 Y12.7202 Z0.1136
N810 X-37.2466 Y12.7197 Z0.1166
N815 X-37.2486 Y12.7193 Z0.1199
N820 X-37.2501 Y12.719 Z0.1236
N825 X-37.251 Y12.7188 Z0.1274
N830 X-37.2513 Y12.7187 Z0.1313
N835 G0 Z0.6969
N840 G1 X-42.6623 Y12.7762 F500.
N845 G0 Z0.5787
N850 G1 Z0.525 F108.
N855 G18 G3 X-42.6873 Z0.5 I-0.025 K0.
N860 G1 X-42.6998
N865 G17 G3 X-42.7248 Y12.7512 I0. J-0.025
N870 X-42.7245 Y12.7564 Z0.4873 I0.0596 J0.
N875 X-42.7239 Y12.7616 Z0.4746 I0.0594 J-0.0052
N880 X-42.7227 Y12.7667 Z0.4619 I0.0587 J-0.0104
N885 X-42.7212 Y12.7716 Z0.4491 I0.0576 J-0.0154
N890 X-42.7192 Y12.7764 Z0.4364 I0.056 J-0.0204
N895 X-42.7168 Y12.7811 Z0.4237 I0.054 J-0.0252
N900 X-42.714 Y12.7854 Z0.411 I0.0516 J-0.0298
N905 X-42.7108 Y12.7896 Z0.3983 I0.0488 J-0.0342
N910 X-42.7073 Y12.7934 Z0.3856 I0.0457 J-0.0383
N915 X-42.7035 Y12.7969 Z0.3728 I0.0422 J-0.0422
N920 X-42.6993 Y12.8001 Z0.3601 I0.0383 J-0.0457
N925 X-42.6949 Y12.8029 Z0.3474 I0.0342 J-0.0488
N930 X-42.6903 Y12.8053 Z0.3347 I0.0298 J-0.0516
N935 X-42.6855 Y12.8073 Z0.322 I0.0252 J-0.054
N940 X-42.6806 Y12.8088 Z0.3093 I0.0204 J-0.056
N945 X-42.6755 Y12.81 Z0.2966 I0.0154 J-0.0576
N950 X-42.6703 Y12.8106 Z0.2838 I0.0104 J-0.0587
N955 X-42.6651 Y12.8109 Z0.2711 I0.0052 J-0.0594
N960 X-42.6599 Y12.8106 Z0.2584 I0. J-0.0596
N965 X-42.6548 Y12.81 Z0.2457 I-0.0052 J-0.0594
N970 X-42.6497 Y12.8088 Z0.233 I-0.0104 J-0.0587
N975 X-42.6447 Y12.8073 Z0.2203 I-0.0154 J-0.0576
N980 X-42.6399 Y12.8053 Z0.2075 I-0.0204 J-0.056
N985 X-42.6353 Y12.8029 Z0.1948 I-0.0252 J-0.054
N990 X-42.6309 Y12.8001 Z0.1821 I-0.0298 J-0.0516
N995 X-42.6268 Y12.7969 Z0.1694 I-0.0342 J-0.0488
N1000 X-42.623 Y12.7934 Z0.1567 I-0.0383 J-0.0457
N1005 X-42.6195 Y12.7896 Z0.144 I-0.0422 J-0.0422
N1010 X-42.6163 Y12.7854 Z0.1313 I-0.0457 J-0.0383
N1015 X-42.6135 Y12.7811 Z0.1185 I-0.0488 J-0.0342
N1020 X-42.6067 Y12.7633 Z0.1063 I-0.0516 J-0.0298
N1025 X-42.7235 Y12.7392 I-0.0584 J-0.012
N1030 X-42.6067 Y12.7633 I0.0584 J0.012
N1035 X-42.6363 Y12.7827 I-0.0245 J-0.005
N1040 G1 X-42.6485 Y12.7802
N1045 X-42.6523 Y12.7794 Z0.1066
N1050 X-42.6561 Y12.7786 Z0.1075
N1055 X-42.6596 Y12.7779 Z0.109
N1060 X-42.6629 Y12.7772 Z0.1111
N1065 X-42.6658 Y12.7766 Z0.1136
N1070 X-42.6683 Y12.7761 Z0.1166
N1075 X-42.6703 Y12.7757 Z0.1199
N1080 X-42.6718 Y12.7754 Z0.1236
N1085 X-42.6727 Y12.7752 Z0.1274
N1090 X-42.673 Z0.1313
N1095 G0 Z0.6969
N1100 G1 X-48.0739 Y12.7198 F500.
N1105 G0 Z0.5787
N1110 G1 Z0.525 F108.
N1115 G18 G3 X-48.0989 Z0.5 I-0.025 K0.
N1120 G1 X-48.1114
N1125 G17 G3 X-48.1364 Y12.6948 I0. J-0.025
N1130 X-48.1361 Y12.7 Z0.4873 I0.0596 J0.
N1135 X-48.1355 Y12.7052 Z0.4746 I0.0594 J-0.0052
N1140 X-48.1343 Y12.7103 Z0.4619 I0.0587 J-0.0104
N1145 X-48.1328 Y12.7152 Z0.4491 I0.0576 J-0.0154
N1150 X-48.1308 Y12.72 Z0.4364 I0.056 J-0.0204
N1155 X-48.1284 Y12.7246 Z0.4237 I0.054 J-0.0252
N1160 X-48.1256 Y12.729 Z0.411 I0.0516 J-0.0298
N1165 X-48.1224 Y12.7332 Z0.3983 I0.0488 J-0.0342
N1170 X-48.1189 Y12.737 Z0.3856 I0.0457 J-0.0383
N1175 X-48.1151 Y12.7405 Z0.3728 I0.0422 J-0.0422
N1180 X-48.1109 Y12.7437 Z0.3601 I0.0383 J-0.0457
N1185 X-48.1065 Y12.7465 Z0.3474 I0.0342 J-0.0488
N1190 X-48.1019 Y12.7489 Z0.3347 I0.0298 J-0.0516
N1195 X-48.0971 Y12.7509 Z0.322 I0.0252 J-0.054
N1200 X-48.0922 Y12.7524 Z0.3093 I0.0204 J-0.056
N1205 X-48.0871 Y12.7535 Z0.2966 I0.0154 J-0.0576
N1210 X-48.0819 Y12.7542 Z0.2838 I0.0104 J-0.0587
N1215 X-48.0767 Y12.7544 Z0.2711 I0.0052 J-0.0594
N1220 X-48.0715 Y12.7542 Z0.2584 I0. J-0.0596
N1225 X-48.0664 Y12.7535 Z0.2457 I-0.0052 J-0.0594
N1230 X-48.0613 Y12.7524 Z0.233 I-0.0104 J-0.0587
N1235 X-48.0563 Y12.7509 Z0.2203 I-0.0154 J-0.0576
N1240 X-48.0515 Y12.7489 Z0.2075 I-0.0204 J-0.056
N1245 X-48.0469 Y12.7465 Z0.1948 I-0.0252 J-0.054
N1250 X-48.0425 Y12.7437 Z0.1821 I-0.0298 J-0.0516
N1255 X-48.0384 Y12.7405 Z0.1694 I-0.0342 J-0.0488
N1260 X-48.0346 Y12.737 Z0.1567 I-0.0383 J-0.0457
N1265 X-48.0311 Y12.7332 Z0.144 I-0.0422 J-0.0422
N1270 X-48.0279 Y12.729 Z0.1313 I-0.0457 J-0.0383
N1275 X-48.0251 Y12.7246 Z0.1185 I-0.0488 J-0.0342
N1280 X-48.0183 Y12.7068 Z0.1063 I-0.0516 J-0.0298
N1285 X-48.1351 Y12.6828 I-0.0584 J-0.012
N1290 X-48.0183 Y12.7068 I0.0584 J0.012
N1295 X-48.0479 Y12.7263 I-0.0245 J-0.005
N1300 G1 X-48.0601 Y12.7238
N1305 X-48.0639 Y12.723 Z0.1066
N1310 X-48.0677 Y12.7222 Z0.1075
N1315 X-48.0712 Y12.7215 Z0.109
N1320 X-48.0745 Y12.7208 Z0.1111
N1325 X-48.0774 Y12.7202 Z0.1136
N1330 X-48.0799 Y12.7197 Z0.1166
N1335 X-48.0819 Y12.7193 Z0.1199
N1340 X-48.0834 Y12.719 Z0.1236
N1345 X-48.0843 Y12.7188 Z0.1274
N1350 X-48.0846 Y12.7187 Z0.1313
N1355 G0 Z0.6969
N1360 G1 X-53.1466 Y8.9868 F500.
N1365 G0 Z0.5787
N1370 G1 Z0.525 F108.
N1375 G18 G3 X-53.1716 Z0.5 I-0.025 K0.
N1380 G1 X-53.1841
N1385 G17 G3 X-53.2091 Y8.9618 I0. J-0.025
N1390 X-53.2089 Y8.967 Z0.4873 I0.0596 J0.
N1395 X-53.2082 Y8.9722 Z0.4746 I0.0594 J-0.0052
N1400 X-53.2071 Y8.9773 Z0.4619 I0.0587 J-0.0104
N1405 X-53.2055 Y8.9822 Z0.4491 I0.0576 J-0.0154
N1410 X-53.2035 Y8.987 Z0.4364 I0.056 J-0.0204
N1415 X-53.2011 Y8.9917 Z0.4237 I0.054 J-0.0252
N1420 X-53.1983 Y8.996 Z0.411 I0.0516 J-0.0298
N1425 X-53.1951 Y9.0002 Z0.3983 I0.0488 J-0.0342
N1430 X-53.1916 Y9.004 Z0.3856 I0.0457 J-0.0383
N1435 X-53.1878 Y9.0075 Z0.3728 I0.0422 J-0.0422
N1440 X-53.1837 Y9.0107 Z0.3601 I0.0383 J-0.0457
N1445 X-53.1793 Y9.0135 Z0.3474 I0.0342 J-0.0488
N1450 X-53.1747 Y9.0159 Z0.3347 I0.0298 J-0.0516
N1455 X-53.1699 Y9.0179 Z0.322 I0.0252 J-0.054
N1460 X-53.1649 Y9.0194 Z0.3093 I0.0204 J-0.056
N1465 X-53.1598 Y9.0206 Z0.2966 I0.0154 J-0.0576
N1470 X-53.1547 Y9.0212 Z0.2838 I0.0104 J-0.0587
N1475 X-53.1495 Y9.0215 Z0.2711 I0.0052 J-0.0594
N1480 X-53.1443 Y9.0212 Z0.2584 I0. J-0.0596
N1485 X-53.1391 Y9.0206 Z0.2457 I-0.0052 J-0.0594
N1490 X-53.134 Y9.0194 Z0.233 I-0.0104 J-0.0587
N1495 X-53.1291 Y9.0179 Z0.2203 I-0.0154 J-0.0576
N1500 X-53.1243 Y9.0159 Z0.2075 I-0.0204 J-0.056
N1505 X-53.1197 Y9.0135 Z0.1948 I-0.0252 J-0.054
N1510 X-53.1153 Y9.0107 Z0.1821 I-0.0298 J-0.0516
N1515 X-53.1111 Y9.0075 Z0.1694 I-0.0342 J-0.0488
N1520 X-53.1073 Y9.004 Z0.1567 I-0.0383 J-0.0457
N1525 X-53.1038 Y9.0002 Z0.144 I-0.0422 J-0.0422
N1530 X-53.1006 Y8.996 Z0.1313 I-0.0457 J-0.0383
N1535 X-53.0978 Y8.9917 Z0.1185 I-0.0488 J-0.0342
N1540 X-53.0911 Y8.9739 Z0.1063 I-0.0516 J-0.0298
N1545 X-53.2079 Y8.9498 I-0.0584 J-0.012
N1550 X-53.0911 Y8.9739 I0.0584 J0.012
N1555 X-53.1206 Y8.9933 I-0.0245 J-0.005
N1560 G1 X-53.1328 Y8.9908
N1565 X-53.1367 Y8.99 Z0.1066
N1570 X-53.1404 Y8.9892 Z0.1075
N1575 X-53.144 Y8.9885 Z0.109
N1580 X-53.1472 Y8.9878 Z0.1111
N1585 X-53.1502 Y8.9872 Z0.1136
N1590 X-53.1526 Y8.9867 Z0.1166
N1595 X-53.1547 Y8.9863 Z0.1199
N1600 X-53.1561 Y8.986 Z0.1236
N1605 X-53.157 Y8.9858 Z0.1274
N1610 X-53.1573 Y8.9857 Z0.1313
N1615 G0 Z0.6969
N1620 G1 X-50.9717 Y6.8792 F500.
N1625 G0 Z0.5787
N1630 G1 Z0.525 F108.
N1635 G18 G3 X-50.9967 Z0.5 I-0.025 K0.
N1640 G1 X-51.0092
N1645 G17 G3 X-51.0342 Y6.8542 I0. J-0.025
N1650 X-51.034 Y6.8594 Z0.4873 I0.0596 J0.
N1655 X-51.0333 Y6.8646 Z0.4746 I0.0594 J-0.0052
N1660 X-51.0322 Y6.8697 Z0.4619 I0.0587 J-0.0104
N1665 X-51.0306 Y6.8746 Z0.4491 I0.0576 J-0.0154
N1670 X-51.0286 Y6.8794 Z0.4364 I0.056 J-0.0204
N1675 X-51.0262 Y6.884 Z0.4237 I0.054 J-0.0252
N1680 X-51.0234 Y6.8884 Z0.411 I0.0516 J-0.0298
N1685 X-51.0202 Y6.8926 Z0.3983 I0.0488 J-0.0342
N1690 X-51.0167 Y6.8964 Z0.3856 I0.0457 J-0.0383
N1695 X-51.0129 Y6.8999 Z0.3728 I0.0422 J-0.0422
N1700 X-51.0088 Y6.9031 Z0.3601 I0.0383 J-0.0457
N1705 X-51.0044 Y6.9059 Z0.3474 I0.0342 J-0.0488
N1710 X-50.9998 Y6.9083 Z0.3347 I0.0298 J-0.0516
N1715 X-50.995 Y6.9103 Z0.322 I0.0252 J-0.054
N1720 X-50.99 Y6.9118 Z0.3093 I0.0204 J-0.056
N1725 X-50.9849 Y6.9129 Z0.2966 I0.0154 J-0.0576
N1730 X-50.9798 Y6.9136 Z0.2838 I0.0104 J-0.0587
N1735 X-50.9746 Y6.9139 Z0.2711 I0.0052 J-0.0594
N1740 X-50.9694 Y6.9136 Z0.2584 I0. J-0.0596
N1745 X-50.9642 Y6.9129 Z0.2457 I-0.0052 J-0.0594
N1750 X-50.9591 Y6.9118 Z0.233 I-0.0104 J-0.0587
N1755 X-50.9542 Y6.9103 Z0.2203 I-0.0154 J-0.0576
N1760 X-50.9494 Y6.9083 Z0.2075 I-0.0204 J-0.056
N1765 X-50.9447 Y6.9059 Z0.1948 I-0.0252 J-0.054
N1770 X-50.9404 Y6.9031 Z0.1821 I-0.0298 J-0.0516
N1775 X-50.9362 Y6.8999 Z0.1694 I-0.0342 J-0.0488
N1780 X-50.9324 Y6.8964 Z0.1567 I-0.0383 J-0.0457
N1785 X-50.9289 Y6.8926 Z0.144 I-0.0422 J-0.0422
N1790 X-50.9257 Y6.8884 Z0.1313 I-0.0457 J-0.0383
N1795 X-50.9229 Y6.884 Z0.1185 I-0.0488 J-0.0342
N1800 X-50.9162 Y6.8662 Z0.1063 I-0.0516 J-0.0298
N1805 X-51.033 Y6.8422 I-0.0584 J-0.012
N1810 X-50.9162 Y6.8662 I0.0584 J0.012
N1815 X-50.9457 Y6.8857 I-0.0245 J-0.005
N1820 G1 X-50.9579 Y6.8832
N1825 X-50.9618 Y6.8824 Z0.1066
N1830 X-50.9655 Y6.8816 Z0.1075
N1835 X-50.969 Y6.8809 Z0.109
N1840 X-50.9723 Y6.8802 Z0.1111
N1845 X-50.9752 Y6.8796 Z0.1136
N1850 X-50.9777 Y6.8791 Z0.1166
N1855 X-50.9797 Y6.8787 Z0.1199
N1860 X-50.9812 Y6.8784 Z0.1236
N1865 X-50.9821 Y6.8782 Z0.1274
N1870 X-50.9824 Y6.8781 Z0.1313
N1875 G0 Z0.6969
N1880 G1 X-45.981 Y6.1973 F500.
N1885 G0 Z0.5787
N1890 G1 Z0.525 F108.
N1895 G19 G2 Y6.1723 Z0.5 J-0.025 K0.
N1900 G1 Y6.1598
N1905 G17 G3 X-45.956 Y6.1348 I0.025 J0.
N1910 X-45.9612 Y6.1351 Z0.4873 I0. J0.0596
N1915 X-45.9663 Y6.1357 Z0.4746 I0.0052 J0.0594
N1920 X-45.9714 Y6.1369 Z0.4619 I0.0104 J0.0587
N1925 X-45.9764 Y6.1384 Z0.4491 I0.0154 J0.0576
N1930 X-45.9812 Y6.1404 Z0.4364 I0.0204 J0.056
N1935 X-45.9858 Y6.1428 Z0.4237 I0.0252 J0.054
N1940 X-45.9902 Y6.1456 Z0.411 I0.0298 J0.0516
N1945 X-45.9943 Y6.1488 Z0.3983 I0.0342 J0.0488
N1950 X-45.9981 Y6.1523 Z0.3856 I0.0383 J0.0457
N1955 X-46.0016 Y6.1561 Z0.3728 I0.0422 J0.0422
N1960 X-46.0048 Y6.1603 Z0.3601 I0.0457 J0.0383
N1965 X-46.0076 Y6.1647 Z0.3474 I0.0488 J0.0342
N1970 X-46.01 Y6.1693 Z0.3347 I0.0516 J0.0298
N1975 X-46.012 Y6.1741 Z0.322 I0.054 J0.0252
N1980 X-46.0136 Y6.179 Z0.3093 I0.056 J0.0204
N1985 X-46.0147 Y6.1841 Z0.2966 I0.0576 J0.0154
N1990 X-46.0154 Y6.1893 Z0.2838 I0.0587 J0.0104
N1995 X-46.0156 Y6.1945 Z0.2711 I0.0594 J0.0052
N2000 X-46.0154 Y6.1997 Z0.2584 I0.0596 J0.
N2005 X-46.0147 Y6.2048 Z0.2457 I0.0594 J-0.0052
N2010 X-46.0136 Y6.2099 Z0.233 I0.0587 J-0.0104
N2015 X-46.012 Y6.2149 Z0.2203 I0.0576 J-0.0154
N2020 X-46.01 Y6.2197 Z0.2075 I0.056 J-0.0204
N2025 X-46.0076 Y6.2243 Z0.1948 I0.054 J-0.0252
N2030 X-46.0048 Y6.2287 Z0.1821 I0.0516 J-0.0298
N2035 X-46.0016 Y6.2328 Z0.1694 I0.0488 J-0.0342
N2040 X-45.9981 Y6.2366 Z0.1567 I0.0457 J-0.0383
N2045 X-45.9943 Y6.2401 Z0.144 I0.0422 J-0.0422
N2050 X-45.9902 Y6.2433 Z0.1313 I0.0383 J-0.0457
N2055 X-45.9858 Y6.2461 Z0.1185 I0.0342 J-0.0488
N2060 X-45.968 Y6.2529 Z0.1063 I0.0298 J-0.0516
N2065 X-45.9439 Y6.1361 I0.012 J-0.0584
N2070 X-45.968 Y6.2529 I-0.012 J0.0584
N2075 X-45.9874 Y6.2233 I0.005 J-0.0245
N2080 G1 X-45.9849 Y6.2111
N2085 X-45.9841 Y6.2073 Z0.1066
N2090 X-45.9834 Y6.2035 Z0.1075
N2095 X-45.9826 Y6.2 Z0.109
N2100 X-45.9819 Y6.1967 Z0.1111
N2105 X-45.9813 Y6.1938 Z0.1136
N2110 X-45.9808 Y6.1913 Z0.1166
N2115 X-45.9804 Y6.1893 Z0.1199
N2120 X-45.9801 Y6.1878 Z0.1236
N2125 X-45.9799 Y6.1869 Z0.1274
N2130 Y6.1866 Z0.1313
N2135 G0 Z0.6969
N2140 G1 X-42.6623 Y2.6495 F500.
N2145 G0 Z0.5787
N2150 G1 Z0.525 F108.
N2155 G18 G3 X-42.6873 Z0.5 I-0.025 K0.
N2160 G1 X-42.6998
N2165 G17 G3 X-42.7248 Y2.6245 I0. J-0.025
N2170 X-42.7245 Y2.6297 Z0.4873 I0.0596 J0.
N2175 X-42.7239 Y2.6349 Z0.4746 I0.0594 J-0.0052
N2180 X-42.7227 Y2.6399 Z0.4619 I0.0587 J-0.0104
N2185 X-42.7212 Y2.6449 Z0.4491 I0.0576 J-0.0154
N2190 X-42.7192 Y2.6497 Z0.4364 I0.056 J-0.0204
N2195 X-42.7168 Y2.6543 Z0.4237 I0.054 J-0.0252
N2200 X-42.714 Y2.6587 Z0.411 I0.0516 J-0.0298
N2205 X-42.7108 Y2.6628 Z0.3983 I0.0488 J-0.0342
N2210 X-42.7073 Y2.6667 Z0.3856 I0.0457 J-0.0383
N2215 X-42.7035 Y2.6702 Z0.3728 I0.0422 J-0.0422
N2220 X-42.6993 Y2.6733 Z0.3601 I0.0383 J-0.0457
N2225 X-42.6949 Y2.6761 Z0.3474 I0.0342 J-0.0488
N2230 X-42.6903 Y2.6785 Z0.3347 I0.0298 J-0.0516
N2235 X-42.6855 Y2.6805 Z0.322 I0.0252 J-0.054
N2240 X-42.6806 Y2.6821 Z0.3093 I0.0204 J-0.056
N2245 X-42.6755 Y2.6832 Z0.2966 I0.0154 J-0.0576
N2250 X-42.6703 Y2.6839 Z0.2838 I0.0104 J-0.0587
N2255 X-42.6651 Y2.6841 Z0.2711 I0.0052 J-0.0594
N2260 X-42.6599 Y2.6839 Z0.2584 I0. J-0.0596
N2265 X-42.6548 Y2.6832 Z0.2457 I-0.0052 J-0.0594
N2270 X-42.6497 Y2.6821 Z0.233 I-0.0104 J-0.0587
N2275 X-42.6447 Y2.6805 Z0.2203 I-0.0154 J-0.0576
N2280 X-42.6399 Y2.6785 Z0.2075 I-0.0204 J-0.056
N2285 X-42.6353 Y2.6761 Z0.1948 I-0.0252 J-0.054
N2290 X-42.6309 Y2.6733 Z0.1821 I-0.0298 J-0.0516
N2295 X-42.6268 Y2.6702 Z0.1694 I-0.0342 J-0.0488
N2300 X-42.623 Y2.6667 Z0.1567 I-0.0383 J-0.0457
N2305 X-42.6195 Y2.6628 Z0.144 I-0.0422 J-0.0422
N2310 X-42.6163 Y2.6587 Z0.1313 I-0.0457 J-0.0383
N2315 X-42.6135 Y2.6543 Z0.1185 I-0.0488 J-0.0342
N2320 X-42.6067 Y2.6365 Z0.1063 I-0.0516 J-0.0298
N2325 X-42.7235 Y2.6125 I-0.0584 J-0.012
N2330 X-42.6067 Y2.6365 I0.0584 J0.012
N2335 X-42.6363 Y2.656 I-0.0245 J-0.005
N2340 G1 X-42.6485 Y2.6534
N2345 X-42.6523 Y2.6527 Z0.1066
N2350 X-42.6561 Y2.6519 Z0.1075
N2355 X-42.6596 Y2.6512 Z0.109
N2360 X-42.6629 Y2.6505 Z0.1111
N2365 X-42.6658 Y2.6499 Z0.1136
N2370 X-42.6683 Y2.6494 Z0.1166
N2375 X-42.6703 Y2.649 Z0.1199
N2380 X-42.6718 Y2.6487 Z0.1236
N2385 X-42.6727 Y2.6485 Z0.1274
N2390 X-42.673 Y2.6484 Z0.1313
N2395 G0 Z0.6969
N2400 G1 X-40.2785 Y6.1973 F500.
N2405 G0 Z0.5787
N2410 G1 Z0.525 F108.
N2415 G19 G2 Y6.1723 Z0.5 J-0.025 K0.
N2420 G1 Y6.1598
N2425 G17 G3 X-40.2535 Y6.1348 I0.025 J0.
N2430 X-40.2587 Y6.1351 Z0.4873 I0. J0.0596
N2435 X-40.2639 Y6.1357 Z0.4746 I0.0052 J0.0594
N2440 X-40.269 Y6.1369 Z0.4619 I0.0104 J0.0587
N2445 X-40.2739 Y6.1384 Z0.4491 I0.0154 J0.0576
N2450 X-40.2787 Y6.1404 Z0.4364 I0.0204 J0.056
N2455 X-40.2833 Y6.1428 Z0.4237 I0.0252 J0.054
N2460 X-40.2877 Y6.1456 Z0.411 I0.0298 J0.0516
N2465 X-40.2919 Y6.1488 Z0.3983 I0.0342 J0.0488
N2470 X-40.2957 Y6.1523 Z0.3856 I0.0383 J0.0457
N2475 X-40.2992 Y6.1561 Z0.3728 I0.0422 J0.0422
N2480 X-40.3024 Y6.1603 Z0.3601 I0.0457 J0.0383
N2485 X-40.3052 Y6.1647 Z0.3474 I0.0488 J0.0342
N2490 X-40.3076 Y6.1693 Z0.3347 I0.0516 J0.0298
N2495 X-40.3096 Y6.1741 Z0.322 I0.054 J0.0252
N2500 X-40.3111 Y6.179 Z0.3093 I0.056 J0.0204
N2505 X-40.3123 Y6.1841 Z0.2966 I0.0576 J0.0154
N2510 X-40.3129 Y6.1893 Z0.2838 I0.0587 J0.0104
N2515 X-40.3132 Y6.1945 Z0.2711 I0.0594 J0.0052
N2520 X-40.3129 Y6.1997 Z0.2584 I0.0596 J0.
N2525 X-40.3123 Y6.2048 Z0.2457 I0.0594 J-0.0052
N2530 X-40.3111 Y6.2099 Z0.233 I0.0587 J-0.0104
N2535 X-40.3096 Y6.2149 Z0.2203 I0.0576 J-0.0154
N2540 X-40.3076 Y6.2197 Z0.2075 I0.056 J-0.0204
N2545 X-40.3052 Y6.2243 Z0.1948 I0.054 J-0.0252
N2550 X-40.3024 Y6.2287 Z0.1821 I0.0516 J-0.0298
N2555 X-40.2992 Y6.2328 Z0.1694 I0.0488 J-0.0342
N2560 X-40.2957 Y6.2366 Z0.1567 I0.0457 J-0.0383
N2565 X-40.2919 Y6.2401 Z0.144 I0.0422 J-0.0422
N2570 X-40.2877 Y6.2433 Z0.1313 I0.0383 J-0.0457
N2575 X-40.2833 Y6.2461 Z0.1185 I0.0342 J-0.0488
N2580 X-40.2656 Y6.2529 Z0.1063 I0.0298 J-0.0516
N2585 X-40.2415 Y6.1361 I0.012 J-0.0584
N2590 X-40.2656 Y6.2529 I-0.012 J0.0584
N2595 X-40.285 Y6.2233 I0.005 J-0.0245
N2600 G1 X-40.2825 Y6.2111
N2605 X-40.2817 Y6.2073 Z0.1066
N2610 X-40.2809 Y6.2035 Z0.1075
N2615 X-40.2802 Y6.2 Z0.109
N2620 X-40.2795 Y6.1967 Z0.1111
N2625 X-40.2789 Y6.1938 Z0.1136
N2630 X-40.2784 Y6.1913 Z0.1166
N2635 X-40.278 Y6.1893 Z0.1199
N2640 X-40.2777 Y6.1878 Z0.1236
N2645 X-40.2775 Y6.1869 Z0.1274
N2650 X-40.2774 Y6.1866 Z0.1313
N2655 G0 Z0.6969
N2660 G1 X-35.0405 Y6.8999 F500.
N2665 G0 Z0.5787
N2670 G1 Z0.525 F108.
N2675 G18 G3 X-35.0655 Z0.5 I-0.025 K0.
N2680 G1 X-35.078
N2685 G17 G3 X-35.103 Y6.8749 I0. J-0.025
N2690 X-35.1028 Y6.8801 Z0.4873 I0.0596 J0.
N2695 X-35.1021 Y6.8853 Z0.4746 I0.0594 J-0.0052
N2700 X-35.101 Y6.8904 Z0.4619 I0.0587 J-0.0104
N2705 X-35.0994 Y6.8953 Z0.4491 I0.0576 J-0.0154
N2710 X-35.0974 Y6.9001 Z0.4364 I0.056 J-0.0204
N2715 X-35.095 Y6.9047 Z0.4237 I0.054 J-0.0252
N2720 X-35.0922 Y6.9091 Z0.411 I0.0516 J-0.0298
N2725 X-35.0891 Y6.9133 Z0.3983 I0.0488 J-0.0342
N2730 X-35.0855 Y6.9171 Z0.3856 I0.0457 J-0.0383
N2735 X-35.0817 Y6.9206 Z0.3728 I0.0422 J-0.0422
N2740 X-35.0776 Y6.9238 Z0.3601 I0.0383 J-0.0457
N2745 X-35.0732 Y6.9266 Z0.3474 I0.0342 J-0.0488
N2750 X-35.0686 Y6.929 Z0.3347 I0.0298 J-0.0516
N2755 X-35.0638 Y6.931 Z0.322 I0.0252 J-0.054
N2760 X-35.0588 Y6.9325 Z0.3093 I0.0204 J-0.056
N2765 X-35.0537 Y6.9336 Z0.2966 I0.0154 J-0.0576
N2770 X-35.0486 Y6.9343 Z0.2838 I0.0104 J-0.0587
N2775 X-35.0434 Y6.9346 Z0.2711 I0.0052 J-0.0594
N2780 X-35.0382 Y6.9343 Z0.2584 I0. J-0.0596
N2785 X-35.033 Y6.9336 Z0.2457 I-0.0052 J-0.0594
N2790 X-35.028 Y6.9325 Z0.233 I-0.0104 J-0.0587
N2795 X-35.023 Y6.931 Z0.2203 I-0.0154 J-0.0576
N2800 X-35.0182 Y6.929 Z0.2075 I-0.0204 J-0.056
N2805 X-35.0136 Y6.9266 Z0.1948 I-0.0252 J-0.054
N2810 X-35.0092 Y6.9238 Z0.1821 I-0.0298 J-0.0516
N2815 X-35.0051 Y6.9206 Z0.1694 I-0.0342 J-0.0488
N2820 X-35.0012 Y6.9171 Z0.1567 I-0.0383 J-0.0457
N2825 X-34.9977 Y6.9133 Z0.144 I-0.0422 J-0.0422
N2830 X-34.9945 Y6.9091 Z0.1313 I-0.0457 J-0.0383
N2835 X-34.9917 Y6.9047 Z0.1185 I-0.0488 J-0.0342
N2840 X-34.985 Y6.8869 Z0.1063 I-0.0516 J-0.0298
N2845 X-35.1018 Y6.8629 I-0.0584 J-0.012
N2850 X-34.985 Y6.8869 I0.0584 J0.012
N2855 X-35.0145 Y6.9064 I-0.0245 J-0.005
N2860 G1 X-35.0268 Y6.9039
N2865 X-35.0306 Y6.9031 Z0.1066
N2870 X-35.0343 Y6.9023 Z0.1075
N2875 X-35.0379 Y6.9016 Z0.109
N2880 X-35.0411 Y6.9009 Z0.1111
N2885 X-35.0441 Y6.9003 Z0.1136
N2890 X-35.0466 Y6.8998 Z0.1166
N2895 X-35.0486 Y6.8994 Z0.1199
N2900 X-35.05 Y6.8991 Z0.1236
N2905 X-35.0509 Y6.8989 Z0.1274
N2910 X-35.0512 Y6.8988 Z0.1313
N2915 G0 Z0.6969
N2920 G1 X-30.7164 Y5.3734 F500.
N2925 G0 Z0.5787
N2930 G1 Z0.525 F108.
N2935 G19 G2 Y5.3484 Z0.5 J-0.025 K0.
N2940 G1 Y5.3359
N2945 G17 G3 X-30.6914 Y5.3109 I0.025 J0.
N2950 X-30.6966 Y5.3111 Z0.4873 I0. J0.0596
N2955 X-30.7018 Y5.3118 Z0.4746 I0.0052 J0.0594
N2960 X-30.7069 Y5.3129 Z0.4619 I0.0104 J0.0587
N2965 X-30.7118 Y5.3145 Z0.4491 I0.0154 J0.0576
N2970 X-30.7166 Y5.3165 Z0.4364 I0.0204 J0.056
N2975 X-30.7212 Y5.3189 Z0.4237 I0.0252 J0.054
N2980 X-30.7256 Y5.3217 Z0.411 I0.0298 J0.0516
N2985 X-30.7298 Y5.3248 Z0.3983 I0.0342 J0.0488
N2990 X-30.7336 Y5.3283 Z0.3856 I0.0383 J0.0457
N2995 X-30.7371 Y5.3322 Z0.3728 I0.0422 J0.0422
N3000 X-30.7403 Y5.3363 Z0.3601 I0.0457 J0.0383
N3005 X-30.7431 Y5.3407 Z0.3474 I0.0488 J0.0342
N3010 X-30.7455 Y5.3453 Z0.3347 I0.0516 J0.0298
N3015 X-30.7475 Y5.3501 Z0.322 I0.054 J0.0252
N3020 X-30.749 Y5.3551 Z0.3093 I0.056 J0.0204
N3025 X-30.7502 Y5.3601 Z0.2966 I0.0576 J0.0154
N3030 X-30.7508 Y5.3653 Z0.2838 I0.0587 J0.0104
N3035 X-30.7511 Y5.3705 Z0.2711 I0.0594 J0.0052
N3040 X-30.7508 Y5.3757 Z0.2584 I0.0596 J0.
N3045 X-30.7502 Y5.3808 Z0.2457 I0.0594 J-0.0052
N3050 X-30.749 Y5.3859 Z0.233 I0.0587 J-0.0104
N3055 X-30.7475 Y5.3909 Z0.2203 I0.0576 J-0.0154
N3060 X-30.7455 Y5.3957 Z0.2075 I0.056 J-0.0204
N3065 X-30.7431 Y5.4003 Z0.1948 I0.054 J-0.0252
N3070 X-30.7403 Y5.4047 Z0.1821 I0.0516 J-0.0298
N3075 X-30.7371 Y5.4088 Z0.1694 I0.0488 J-0.0342
N3080 X-30.7336 Y5.4127 Z0.1567 I0.0457 J-0.0383
N3085 X-30.7298 Y5.4162 Z0.144 I0.0422 J-0.0422
N3090 X-30.7256 Y5.4193 Z0.1313 I0.0383 J-0.0457
N3095 X-30.7212 Y5.4221 Z0.1185 I0.0342 J-0.0488
N3100 X-30.7035 Y5.4289 Z0.1063 I0.0298 J-0.0516
N3105 X-30.6794 Y5.3121 I0.012 J-0.0584
N3110 X-30.7035 Y5.4289 I-0.012 J0.0584
N3115 X-30.7229 Y5.3994 I0.005 J-0.0245
N3120 G1 X-30.7204 Y5.3871
N3125 X-30.7196 Y5.3833 Z0.1066
N3130 X-30.7188 Y5.3796 Z0.1075
N3135 X-30.7181 Y5.376 Z0.109
N3140 X-30.7174 Y5.3727 Z0.1111
N3145 X-30.7168 Y5.3698 Z0.1136
N3150 X-30.7163 Y5.3673 Z0.1166
N3155 X-30.7159 Y5.3653 Z0.1199
N3160 X-30.7156 Y5.3638 Z0.1236
N3165 X-30.7154 Y5.3629 Z0.1274
N3170 X-30.7153 Y5.3626 Z0.1313
N3175 G0 Z0.6969
N3180 G1 X-30.7164 Y3.4083 F500.
N3185 G0 Z0.5787
N3190 G1 Z0.525 F108.
N3195 G19 G2 Y3.3833 Z0.5 J-0.025 K0.
N3200 G1 Y3.3708
N3205 G17 G3 X-30.6914 Y3.3458 I0.025 J0.
N3210 X-30.6966 Y3.346 Z0.4873 I0. J0.0596
N3215 X-30.7018 Y3.3467 Z0.4746 I0.0052 J0.0594
N3220 X-30.7069 Y3.3478 Z0.4619 I0.0104 J0.0587
N3225 X-30.7118 Y3.3494 Z0.4491 I0.0154 J0.0576
N3230 X-30.7166 Y3.3514 Z0.4364 I0.0204 J0.056
N3235 X-30.7212 Y3.3538 Z0.4237 I0.0252 J0.054
N3240 X-30.7256 Y3.3566 Z0.411 I0.0298 J0.0516
N3245 X-30.7298 Y3.3597 Z0.3983 I0.0342 J0.0488
N3250 X-30.7336 Y3.3632 Z0.3856 I0.0383 J0.0457
N3255 X-30.7371 Y3.3671 Z0.3728 I0.0422 J0.0422
N3260 X-30.7403 Y3.3712 Z0.3601 I0.0457 J0.0383
N3265 X-30.7431 Y3.3756 Z0.3474 I0.0488 J0.0342
N3270 X-30.7455 Y3.3802 Z0.3347 I0.0516 J0.0298
N3275 X-30.7475 Y3.385 Z0.322 I0.054 J0.0252
N3280 X-30.749 Y3.39 Z0.3093 I0.056 J0.0204
N3285 X-30.7502 Y3.395 Z0.2966 I0.0576 J0.0154
N3290 X-30.7508 Y3.4002 Z0.2838 I0.0587 J0.0104
N3295 X-30.7511 Y3.4054 Z0.2711 I0.0594 J0.0052
N3300 X-30.7508 Y3.4106 Z0.2584 I0.0596 J0.
N3305 X-30.7502 Y3.4157 Z0.2457 I0.0594 J-0.0052
N3310 X-30.749 Y3.4208 Z0.233 I0.0587 J-0.0104
N3315 X-30.7475 Y3.4258 Z0.2203 I0.0576 J-0.0154
N3320 X-30.7455 Y3.4306 Z0.2075 I0.056 J-0.0204
N3325 X-30.7431 Y3.4352 Z0.1948 I0.054 J-0.0252
N3330 X-30.7403 Y3.4396 Z0.1821 I0.0516 J-0.0298
N3335 X-30.7371 Y3.4437 Z0.1694 I0.0488 J-0.0342
N3340 X-30.7336 Y3.4476 Z0.1567 I0.0457 J-0.0383
N3345 X-30.7298 Y3.4511 Z0.144 I0.0422 J-0.0422
N3350 X-30.7256 Y3.4542 Z0.1313 I0.0383 J-0.0457
N3355 X-30.7212 Y3.457 Z0.1185 I0.0342 J-0.0488
N3360 X-30.7035 Y3.4638 Z0.1063 I0.0298 J-0.0516
N3365 X-30.6794 Y3.347 I0.012 J-0.0584
N3370 X-30.7035 Y3.4638 I-0.012 J0.0584
N3375 X-30.7229 Y3.4343 I0.005 J-0.0245
N3380 G1 X-30.7204 Y3.422
N3385 X-30.7196 Y3.4182 Z0.1066
N3390 X-30.7188 Y3.4145 Z0.1075
N3395 X-30.7181 Y3.4109 Z0.109
N3400 X-30.7174 Y3.4076 Z0.1111
N3405 X-30.7168 Y3.4047 Z0.1136
N3410 X-30.7163 Y3.4022 Z0.1166
N3415 X-30.7159 Y3.4002 Z0.1199
N3420 X-30.7156 Y3.3987 Z0.1236
N3425 X-30.7154 Y3.3978 Z0.1274
N3430 X-30.7153 Y3.3975 Z0.1313
N3435 G0 Z0.6969
N3440 G1 X-27.6146 Y3.9301 F500.
N3445 G0 Z0.5787
N3450 G1 Z0.525 F108.
N3455 G19 G2 Y3.9051 Z0.5 J-0.025 K0.
N3460 G1 Y3.8926
N3465 G17 G3 X-27.5896 Y3.8676 I0.025 J0.
N3470 X-27.5948 Y3.8678 Z0.4873 I0. J0.0596
N3475 X-27.5999 Y3.8685 Z0.4746 I0.0052 J0.0594
N3480 X-27.605 Y3.8696 Z0.4619 I0.0104 J0.0587
N3485 X-27.61 Y3.8712 Z0.4491 I0.0154 J0.0576
N3490 X-27.6148 Y3.8732 Z0.4364 I0.0204 J0.056
N3495 X-27.6194 Y3.8756 Z0.4237 I0.0252 J0.054
N3500 X-27.6238 Y3.8784 Z0.411 I0.0298 J0.0516
N3505 X-27.6279 Y3.8815 Z0.3983 I0.0342 J0.0488
N3510 X-27.6317 Y3.885 Z0.3856 I0.0383 J0.0457
N3515 X-27.6353 Y3.8889 Z0.3728 I0.0422 J0.0422
N3520 X-27.6384 Y3.893 Z0.3601 I0.0457 J0.0383
N3525 X-27.6412 Y3.8974 Z0.3474 I0.0488 J0.0342
N3530 X-27.6436 Y3.902 Z0.3347 I0.0516 J0.0298
N3535 X-27.6456 Y3.9068 Z0.322 I0.054 J0.0252
N3540 X-27.6472 Y3.9118 Z0.3093 I0.056 J0.0204
N3545 X-27.6483 Y3.9168 Z0.2966 I0.0576 J0.0154
N3550 X-27.649 Y3.922 Z0.2838 I0.0587 J0.0104
N3555 X-27.6492 Y3.9272 Z0.2711 I0.0594 J0.0052
N3560 X-27.649 Y3.9324 Z0.2584 I0.0596 J0.
N3565 X-27.6483 Y3.9376 Z0.2457 I0.0594 J-0.0052
N3570 X-27.6472 Y3.9426 Z0.233 I0.0587 J-0.0104
N3575 X-27.6456 Y3.9476 Z0.2203 I0.0576 J-0.0154
N3580 X-27.6436 Y3.9524 Z0.2075 I0.056 J-0.0204
N3585 X-27.6412 Y3.957 Z0.1948 I0.054 J-0.0252
N3590 X-27.6384 Y3.9614 Z0.1821 I0.0516 J-0.0298
N3595 X-27.6353 Y3.9655 Z0.1694 I0.0488 J-0.0342
N3600 X-27.6317 Y3.9694 Z0.1567 I0.0457 J-0.0383
N3605 X-27.6279 Y3.9729 Z0.144 I0.0422 J-0.0422
N3610 X-27.6238 Y3.976 Z0.1313 I0.0383 J-0.0457
N3615 X-27.6194 Y3.9788 Z0.1185 I0.0342 J-0.0488
N3620 X-27.6016 Y3.9856 Z0.1063 I0.0298 J-0.0516
N3625 X-27.5776 Y3.8688 I0.012 J-0.0584
N3630 X-27.6016 Y3.9856 I-0.012 J0.0584
N3635 X-27.6211 Y3.9561 I0.005 J-0.0245
N3640 G1 X-27.6185 Y3.9438
N3645 X-27.6177 Y3.94 Z0.1066
N3650 X-27.617 Y3.9363 Z0.1075
N3655 X-27.6162 Y3.9327 Z0.109
N3660 X-27.6156 Y3.9294 Z0.1111
N3665 X-27.615 Y3.9265 Z0.1136
N3670 X-27.6145 Y3.924 Z0.1166
N3675 X-27.614 Y3.922 Z0.1199
N3680 X-27.6137 Y3.9205 Z0.1236
N3685 X-27.6136 Y3.9196 Z0.1274
N3690 X-27.6135 Y3.9193 Z0.1313
N3695 G0 Z0.6969
N3700 G1 X-24.5111 Y3.4113 F500.
N3705 G0 Z0.5787
N3710 G1 Z0.525 F108.
N3715 G19 G2 Y3.3863 Z0.5 J-0.025 K0.
N3720 G1 Y3.3738
N3725 G17 G3 X-24.4861 Y3.3488 I0.025 J0.
N3730 X-24.4913 Y3.3491 Z0.4873 I0. J0.0596
N3735 X-24.4965 Y3.3497 Z0.4746 I0.0052 J0.0594
N3740 X-24.5015 Y3.3509 Z0.4619 I0.0104 J0.0587
N3745 X-24.5065 Y3.3524 Z0.4491 I0.0154 J0.0576
N3750 X-24.5113 Y3.3544 Z0.4364 I0.0204 J0.056
N3755 X-24.5159 Y3.3568 Z0.4237 I0.0252 J0.054
N3760 X-24.5203 Y3.3596 Z0.411 I0.0298 J0.0516
N3765 X-24.5244 Y3.3628 Z0.3983 I0.0342 J0.0488
N3770 X-24.5283 Y3.3663 Z0.3856 I0.0383 J0.0457
N3775 X-24.5318 Y3.3701 Z0.3728 I0.0422 J0.0422
N3780 X-24.535 Y3.3742 Z0.3601 I0.0457 J0.0383
N3785 X-24.5378 Y3.3786 Z0.3474 I0.0488 J0.0342
N3790 X-24.5402 Y3.3833 Z0.3347 I0.0516 J0.0298
N3795 X-24.5421 Y3.3881 Z0.322 I0.054 J0.0252
N3800 X-24.5437 Y3.393 Z0.3093 I0.056 J0.0204
N3805 X-24.5448 Y3.3981 Z0.2966 I0.0576 J0.0154
N3810 X-24.5455 Y3.4033 Z0.2838 I0.0587 J0.0104
N3815 X-24.5457 Y3.4084 Z0.2711 I0.0594 J0.0052
N3820 X-24.5455 Y3.4136 Z0.2584 I0.0596 J0.
N3825 X-24.5448 Y3.4188 Z0.2457 I0.0594 J-0.0052
N3830 X-24.5437 Y3.4239 Z0.233 I0.0587 J-0.0104
N3835 X-24.5421 Y3.4288 Z0.2203 I0.0576 J-0.0154
N3840 X-24.5402 Y3.4336 Z0.2075 I0.056 J-0.0204
N3845 X-24.5378 Y3.4383 Z0.1948 I0.054 J-0.0252
N3850 X-24.535 Y3.4426 Z0.1821 I0.0516 J-0.0298
N3855 X-24.5318 Y3.4468 Z0.1694 I0.0488 J-0.0342
N3860 X-24.5283 Y3.4506 Z0.1567 I0.0457 J-0.0383
N3865 X-24.5244 Y3.4541 Z0.144 I0.0422 J-0.0422
N3870 X-24.5203 Y3.4573 Z0.1313 I0.0383 J-0.0457
N3875 X-24.5159 Y3.4601 Z0.1185 I0.0342 J-0.0488
N3880 X-24.4981 Y3.4669 Z0.1063 I0.0298 J-0.0516
N3885 X-24.4741 Y3.35 I0.012 J-0.0584
N3890 X-24.4981 Y3.4669 I-0.012 J0.0584
N3895 X-24.5176 Y3.4373 I0.005 J-0.0245
N3900 G1 X-24.5151 Y3.4251
N3905 X-24.5143 Y3.4213 Z0.1066
N3910 X-24.5135 Y3.4175 Z0.1075
N3915 X-24.5128 Y3.414 Z0.109
N3920 X-24.5121 Y3.4107 Z0.1111
N3925 X-24.5115 Y3.4078 Z0.1136
N3930 X-24.511 Y3.4053 Z0.1166
N3935 X-24.5106 Y3.4033 Z0.1199
N3940 X-24.5103 Y3.4018 Z0.1236
N3945 X-24.5101 Y3.4009 Z0.1274
N3950 X-24.51 Y3.4006 Z0.1313
N3955 G0 Z0.6969
N3960 G1 X-24.5116 Y5.3797 F500.
N3965 G0 Z0.5787
N3970 G1 Z0.525 F108.
N3975 G19 G2 Y5.3547 Z0.5 J-0.025 K0.
N3980 G1 Y5.3422
N3985 G17 G3 X-24.4866 Y5.3172 I0.025 J0.
N3990 X-24.4918 Y5.3175 Z0.4873 I0. J0.0596
N3995 X-24.4969 Y5.3181 Z0.4746 I0.0052 J0.0594
N4000 X-24.502 Y5.3193 Z0.4619 I0.0104 J0.0587
N4005 X-24.507 Y5.3208 Z0.4491 I0.0154 J0.0576
N4010 X-24.5118 Y5.3228 Z0.4364 I0.0204 J0.056
N4015 X-24.5164 Y5.3252 Z0.4237 I0.0252 J0.054
N4020 X-24.5208 Y5.328 Z0.411 I0.0298 J0.0516
N4025 X-24.5249 Y5.3312 Z0.3983 I0.0342 J0.0488
N4030 X-24.5287 Y5.3347 Z0.3856 I0.0383 J0.0457
N4035 X-24.5322 Y5.3385 Z0.3728 I0.0422 J0.0422
N4040 X-24.5354 Y5.3427 Z0.3601 I0.0457 J0.0383
N4045 X-24.5382 Y5.347 Z0.3474 I0.0488 J0.0342
N4050 X-24.5406 Y5.3517 Z0.3347 I0.0516 J0.0298
N4055 X-24.5426 Y5.3565 Z0.322 I0.054 J0.0252
N4060 X-24.5442 Y5.3614 Z0.3093 I0.056 J0.0204
N4065 X-24.5453 Y5.3665 Z0.2966 I0.0576 J0.0154
N4070 X-24.546 Y5.3717 Z0.2838 I0.0587 J0.0104
N4075 X-24.5462 Y5.3769 Z0.2711 I0.0594 J0.0052
N4080 X-24.546 Y5.3821 Z0.2584 I0.0596 J0.
N4085 X-24.5453 Y5.3872 Z0.2457 I0.0594 J-0.0052
N4090 X-24.5442 Y5.3923 Z0.233 I0.0587 J-0.0104
N4095 X-24.5426 Y5.3973 Z0.2203 I0.0576 J-0.0154
N4100 X-24.5406 Y5.4021 Z0.2075 I0.056 J-0.0204
N4105 X-24.5382 Y5.4067 Z0.1948 I0.054 J-0.0252
N4110 X-24.5354 Y5.4111 Z0.1821 I0.0516 J-0.0298
N4115 X-24.5322 Y5.4152 Z0.1694 I0.0488 J-0.0342
N4120 X-24.5287 Y5.419 Z0.1567 I0.0457 J-0.0383
N4125 X-24.5249 Y5.4225 Z0.144 I0.0422 J-0.0422
N4130 X-24.5208 Y5.4257 Z0.1313 I0.0383 J-0.0457
N4135 X-24.5164 Y5.4285 Z0.1185 I0.0342 J-0.0488
N4140 X-24.4986 Y5.4353 Z0.1063 I0.0298 J-0.0516
N4145 X-24.4745 Y5.3185 I0.012 J-0.0584
N4150 X-24.4986 Y5.4353 I-0.012 J0.0584
N4155 X-24.518 Y5.4057 I0.005 J-0.0245
N4160 G1 X-24.5155 Y5.3935
N4165 X-24.5147 Y5.3897 Z0.1066
N4170 X-24.514 Y5.3859 Z0.1075
N4175 X-24.5132 Y5.3824 Z0.109
N4180 X-24.5125 Y5.3791 Z0.1111
N4185 X-24.5119 Y5.3762 Z0.1136
N4190 X-24.5114 Y5.3737 Z0.1166
N4195 X-24.511 Y5.3717 Z0.1199
N4200 X-24.5107 Y5.3702 Z0.1236
N4205 X-24.5105 Y5.3693 Z0.1274
N4210 Y5.369 Z0.1313
N4215 G0 Z0.6969
N4220 G1 X-22.0476 Y10.9551 F500.
N4225 G0 Z0.5787
N4230 G1 Z0.525 F108.
N4235 G18 G3 X-22.0726 Z0.5 I-0.025 K0.
N4240 G1 X-22.0851
N4245 G17 G3 X-22.1101 Y10.9301 I0. J-0.025
N4250 X-22.1099 Y10.9353 Z0.4873 I0.0596 J0.
N4255 X-22.1092 Y10.9405 Z0.4746 I0.0594 J-0.0052
N4260 X-22.1081 Y10.9456 Z0.4619 I0.0587 J-0.0104
N4265 X-22.1065 Y10.9505 Z0.4491 I0.0576 J-0.0154
N4270 X-22.1045 Y10.9553 Z0.4364 I0.056 J-0.0204
N4275 X-22.1021 Y10.9599 Z0.4237 I0.054 J-0.0252
N4280 X-22.0993 Y10.9643 Z0.411 I0.0516 J-0.0298
N4285 X-22.0962 Y10.9684 Z0.3983 I0.0488 J-0.0342
N4290 X-22.0927 Y10.9723 Z0.3856 I0.0457 J-0.0383
N4295 X-22.0888 Y10.9758 Z0.3728 I0.0422 J-0.0422
N4300 X-22.0847 Y10.979 Z0.3601 I0.0383 J-0.0457
N4305 X-22.0803 Y10.9818 Z0.3474 I0.0342 J-0.0488
N4310 X-22.0757 Y10.9842 Z0.3347 I0.0298 J-0.0516
N4315 X-22.0709 Y10.9862 Z0.322 I0.0252 J-0.054
N4320 X-22.0659 Y10.9877 Z0.3093 I0.0204 J-0.056
N4325 X-22.0609 Y10.9888 Z0.2966 I0.0154 J-0.0576
N4330 X-22.0557 Y10.9895 Z0.2838 I0.0104 J-0.0587
N4335 X-22.0505 Y10.9897 Z0.2711 I0.0052 J-0.0594
N4340 X-22.0453 Y10.9895 Z0.2584 I0. J-0.0596
N4345 X-22.0401 Y10.9888 Z0.2457 I-0.0052 J-0.0594
N4350 X-22.0351 Y10.9877 Z0.233 I-0.0104 J-0.0587
N4355 X-22.0301 Y10.9862 Z0.2203 I-0.0154 J-0.0576
N4360 X-22.0253 Y10.9842 Z0.2075 I-0.0204 J-0.056
N4365 X-22.0207 Y10.9818 Z0.1948 I-0.0252 J-0.054
N4370 X-22.0163 Y10.979 Z0.1821 I-0.0298 J-0.0516
N4375 X-22.0122 Y10.9758 Z0.1694 I-0.0342 J-0.0488
N4380 X-22.0083 Y10.9723 Z0.1567 I-0.0383 J-0.0457
N4385 X-22.0048 Y10.9684 Z0.144 I-0.0422 J-0.0422
N4390 X-22.0017 Y10.9643 Z0.1313 I-0.0457 J-0.0383
N4395 X-21.9989 Y10.9599 Z0.1185 I-0.0488 J-0.0342
N4400 X-21.9921 Y10.9421 Z0.1063 I-0.0516 J-0.0298
N4405 X-22.1089 Y10.9181 I-0.0584 J-0.012
N4410 X-21.9921 Y10.9421 I0.0584 J0.012
N4415 X-22.0216 Y10.9616 I-0.0245 J-0.005
N4420 G1 X-22.0339 Y10.9591
N4425 X-22.0377 Y10.9583 Z0.1066
N4430 X-22.0414 Y10.9575 Z0.1075
N4435 X-22.045 Y10.9568 Z0.109
N4440 X-22.0483 Y10.9561 Z0.1111
N4445 X-22.0512 Y10.9555 Z0.1136
N4450 X-22.0537 Y10.955 Z0.1166
N4455 X-22.0557 Y10.9546 Z0.1199
N4460 X-22.0572 Y10.9543 Z0.1236
N4465 X-22.0581 Y10.9541 Z0.1274
N4470 X-22.0584 Y10.954 Z0.1313
N4475 G0 Z0.6969
N4480 G1 X-16.0322 Y11.3167 F500.
N4485 G0 Z0.5787
N4490 G1 Z0.525 F108.
N4495 G18 G3 X-16.0572 Z0.5 I-0.025 K0.
N4500 G1 X-16.0697
N4505 G17 G3 X-16.0947 Y11.2917 I0. J-0.025
N4510 X-16.0945 Y11.2969 Z0.4873 I0.0596 J0.
N4515 X-16.0938 Y11.302 Z0.4746 I0.0594 J-0.0052
N4520 X-16.0926 Y11.3071 Z0.4619 I0.0587 J-0.0104
N4525 X-16.0911 Y11.3121 Z0.4491 I0.0576 J-0.0154
N4530 X-16.0891 Y11.3169 Z0.4364 I0.056 J-0.0204
N4535 X-16.0867 Y11.3215 Z0.4237 I0.054 J-0.0252
N4540 X-16.0839 Y11.3259 Z0.411 I0.0516 J-0.0298
N4545 X-16.0807 Y11.33 Z0.3983 I0.0488 J-0.0342
N4550 X-16.0772 Y11.3338 Z0.3856 I0.0457 J-0.0383
N4555 X-16.0734 Y11.3373 Z0.3728 I0.0422 J-0.0422
N4560 X-16.0693 Y11.3405 Z0.3601 I0.0383 J-0.0457
N4565 X-16.0649 Y11.3433 Z0.3474 I0.0342 J-0.0488
N4570 X-16.0603 Y11.3457 Z0.3347 I0.0298 J-0.0516
N4575 X-16.0554 Y11.3477 Z0.322 I0.0252 J-0.054
N4580 X-16.0505 Y11.3493 Z0.3093 I0.0204 J-0.056
N4585 X-16.0454 Y11.3504 Z0.2966 I0.0154 J-0.0576
N4590 X-16.0402 Y11.3511 Z0.2838 I0.0104 J-0.0587
N4595 X-16.0351 Y11.3513 Z0.2711 I0.0052 J-0.0594
N4600 X-16.0299 Y11.3511 Z0.2584 I0. J-0.0596
N4605 X-16.0247 Y11.3504 Z0.2457 I-0.0052 J-0.0594
N4610 X-16.0196 Y11.3493 Z0.233 I-0.0104 J-0.0587
N4615 X-16.0147 Y11.3477 Z0.2203 I-0.0154 J-0.0576
N4620 X-16.0099 Y11.3457 Z0.2075 I-0.0204 J-0.056
N4625 X-16.0052 Y11.3433 Z0.1948 I-0.0252 J-0.054
N4630 X-16.0009 Y11.3405 Z0.1821 I-0.0298 J-0.0516
N4635 X-15.9967 Y11.3373 Z0.1694 I-0.0342 J-0.0488
N4640 X-15.9929 Y11.3338 Z0.1567 I-0.0383 J-0.0457
N4645 X-15.9894 Y11.33 Z0.144 I-0.0422 J-0.0422
N4650 X-15.9862 Y11.3259 Z0.1313 I-0.0457 J-0.0383
N4655 X-15.9834 Y11.3215 Z0.1185 I-0.0488 J-0.0342
N4660 X-15.9767 Y11.3037 Z0.1063 I-0.0516 J-0.0298
N4665 X-16.0935 Y11.2796 I-0.0584 J-0.012
N4670 X-15.9767 Y11.3037 I0.0584 J0.012
N4675 X-16.0062 Y11.3231 I-0.0245 J-0.005
N4680 G1 X-16.0184 Y11.3206
N4685 X-16.0223 Y11.3198 Z0.1066
N4690 X-16.026 Y11.3191 Z0.1075
N4695 X-16.0295 Y11.3183 Z0.109
N4700 X-16.0328 Y11.3176 Z0.1111
N4705 X-16.0357 Y11.317 Z0.1136
N4710 X-16.0382 Y11.3165 Z0.1166
N4715 X-16.0402 Y11.3161 Z0.1199
N4720 X-16.0417 Y11.3158 Z0.1236
N4725 X-16.0426 Y11.3156 Z0.1274
N4730 X-16.0429 Z0.1313
N4735 G0 Z0.6969
N4740 G1 X-11.021 Y11.3167 F500.
N4745 G0 Z0.5787
N4750 G1 Z0.525 F108.
N4755 G18 G3 X-11.046 Z0.5 I-0.025 K0.
N4760 G1 X-11.0585
N4765 G17 G3 X-11.0835 Y11.2917 I0. J-0.025
N4770 X-11.0832 Y11.2969 Z0.4873 I0.0596 J0.
N4775 X-11.0826 Y11.302 Z0.4746 I0.0594 J-0.0052
N4780 X-11.0814 Y11.3071 Z0.4619 I0.0587 J-0.0104
N4785 X-11.0799 Y11.3121 Z0.4491 I0.0576 J-0.0154
N4790 X-11.0779 Y11.3169 Z0.4364 I0.056 J-0.0204
N4795 X-11.0755 Y11.3215 Z0.4237 I0.054 J-0.0252
N4800 X-11.0727 Y11.3259 Z0.411 I0.0516 J-0.0298
N4805 X-11.0695 Y11.33 Z0.3983 I0.0488 J-0.0342
N4810 X-11.066 Y11.3338 Z0.3856 I0.0457 J-0.0383
N4815 X-11.0622 Y11.3373 Z0.3728 I0.0422 J-0.0422
N4820 X-11.058 Y11.3405 Z0.3601 I0.0383 J-0.0457
N4825 X-11.0537 Y11.3433 Z0.3474 I0.0342 J-0.0488
N4830 X-11.049 Y11.3457 Z0.3347 I0.0298 J-0.0516
N4835 X-11.0442 Y11.3477 Z0.322 I0.0252 J-0.054
N4840 X-11.0393 Y11.3493 Z0.3093 I0.0204 J-0.056
N4845 X-11.0342 Y11.3504 Z0.2966 I0.0154 J-0.0576
N4850 X-11.029 Y11.3511 Z0.2838 I0.0104 J-0.0587
N4855 X-11.0238 Y11.3513 Z0.2711 I0.0052 J-0.0594
N4860 X-11.0186 Y11.3511 Z0.2584 I0. J-0.0596
N4865 X-11.0135 Y11.3504 Z0.2457 I-0.0052 J-0.0594
N4870 X-11.0084 Y11.3493 Z0.233 I-0.0104 J-0.0587
N4875 X-11.0034 Y11.3477 Z0.2203 I-0.0154 J-0.0576
N4880 X-10.9986 Y11.3457 Z0.2075 I-0.0204 J-0.056
N4885 X-10.994 Y11.3433 Z0.1948 I-0.0252 J-0.054
N4890 X-10.9896 Y11.3405 Z0.1821 I-0.0298 J-0.0516
N4895 X-10.9855 Y11.3373 Z0.1694 I-0.0342 J-0.0488
N4900 X-10.9817 Y11.3338 Z0.1567 I-0.0383 J-0.0457
N4905 X-10.9782 Y11.33 Z0.144 I-0.0422 J-0.0422
N4910 X-10.975 Y11.3259 Z0.1313 I-0.0457 J-0.0383
N4915 X-10.9722 Y11.3215 Z0.1185 I-0.0488 J-0.0342
N4920 X-10.9654 Y11.3037 Z0.1063 I-0.0516 J-0.0298
N4925 X-11.0822 Y11.2796 I-0.0584 J-0.012
N4930 X-10.9654 Y11.3037 I0.0584 J0.012
N4935 X-10.995 Y11.3231 I-0.0245 J-0.005
N4940 G1 X-11.0072 Y11.3206
N4945 X-11.011 Y11.3198 Z0.1066
N4950 X-11.0148 Y11.3191 Z0.1075
N4955 X-11.0183 Y11.3183 Z0.109
N4960 X-11.0216 Y11.3176 Z0.1111
N4965 X-11.0245 Y11.317 Z0.1136
N4970 X-11.027 Y11.3165 Z0.1166
N4975 X-11.029 Y11.3161 Z0.1199
N4980 X-11.0305 Y11.3158 Z0.1236
N4985 X-11.0314 Y11.3156 Z0.1274
N4990 X-11.0317 Z0.1313
N4995 G0 Z0.6969
N5000 G1 X-3.0906 Y8.6999 F500.
N5005 G0 Z0.5787
N5010 G1 Z0.525 F108.
N5015 G18 G3 X-3.1156 Z0.5 I-0.025 K0.
N5020 G1 X-3.1281
N5025 G17 G3 X-3.1531 Y8.6749 I0. J-0.025
N5030 X-3.1529 Y8.6801 Z0.4873 I0.0596 J0.
N5035 X-3.1522 Y8.6852 Z0.4746 I0.0594 J-0.0052
N5040 X-3.1511 Y8.6903 Z0.4619 I0.0587 J-0.0104
N5045 X-3.1495 Y8.6953 Z0.4491 I0.0576 J-0.0154
N5050 X-3.1475 Y8.7001 Z0.4364 I0.056 J-0.0204
N5055 X-3.1451 Y8.7047 Z0.4237 I0.054 J-0.0252
N5060 X-3.1423 Y8.7091 Z0.411 I0.0516 J-0.0298
N5065 X-3.1392 Y8.7132 Z0.3983 I0.0488 J-0.0342
N5070 X-3.1357 Y8.717 Z0.3856 I0.0457 J-0.0383
N5075 X-3.1318 Y8.7205 Z0.3728 I0.0422 J-0.0422
N5080 X-3.1277 Y8.7237 Z0.3601 I0.0383 J-0.0457
N5085 X-3.1233 Y8.7265 Z0.3474 I0.0342 J-0.0488
N5090 X-3.1187 Y8.7289 Z0.3347 I0.0298 J-0.0516
N5095 X-3.1139 Y8.7309 Z0.322 I0.0252 J-0.054
N5100 X-3.1089 Y8.7325 Z0.3093 I0.0204 J-0.056
N5105 X-3.1038 Y8.7336 Z0.2966 I0.0154 J-0.0576
N5110 X-3.0987 Y8.7343 Z0.2838 I0.0104 J-0.0587
N5115 X-3.0935 Y8.7345 Z0.2711 I0.0052 J-0.0594
N5120 X-3.0883 Y8.7343 Z0.2584 I0. J-0.0596
N5125 X-3.0831 Y8.7336 Z0.2457 I-0.0052 J-0.0594
N5130 X-3.0781 Y8.7325 Z0.233 I-0.0104 J-0.0587
N5135 X-3.0731 Y8.7309 Z0.2203 I-0.0154 J-0.0576
N5140 X-3.0683 Y8.7289 Z0.2075 I-0.0204 J-0.056
N5145 X-3.0637 Y8.7265 Z0.1948 I-0.0252 J-0.054
N5150 X-3.0593 Y8.7237 Z0.1821 I-0.0298 J-0.0516
N5155 X-3.0552 Y8.7205 Z0.1694 I-0.0342 J-0.0488
N5160 X-3.0513 Y8.717 Z0.1567 I-0.0383 J-0.0457
N5165 X-3.0478 Y8.7132 Z0.144 I-0.0422 J-0.0422
N5170 X-3.0446 Y8.7091 Z0.1313 I-0.0457 J-0.0383
N5175 X-3.0419 Y8.7047 Z0.1185 I-0.0488 J-0.0342
N5180 X-3.0351 Y8.6869 Z0.1063 I-0.0516 J-0.0298
N5185 X-3.1519 Y8.6628 I-0.0584 J-0.012
N5190 X-3.0351 Y8.6869 I0.0584 J0.012
N5195 X-3.0646 Y8.7063 I-0.0245 J-0.005
N5200 G1 X-3.0769 Y8.7038
N5205 X-3.0807 Y8.703 Z0.1066
N5210 X-3.0844 Y8.7023 Z0.1075
N5215 X-3.088 Y8.7015 Z0.109
N5220 X-3.0913 Y8.7008 Z0.1111
N5225 X-3.0942 Y8.7002 Z0.1136
N5230 X-3.0967 Y8.6997 Z0.1166
N5235 X-3.0987 Y8.6993 Z0.1199
N5240 X-3.1001 Y8.699 Z0.1236
N5245 X-3.101 Y8.6988 Z0.1274
N5250 X-3.1013 Z0.1313
N5255 G0 Z1.0906

(Pocket - Screen)
N5265 G1 X-36.555 Y11.0667 F500.
N5270 G0 Z1.0906
N5275 Z0.6969
N5280 G1 Z0.2947 F108.
N5285 G19 G3 Y11.0917 Z0.2697 J0.025 K0.
N5290 G1 Y11.1065
N5295 Y11.1497
N5300 G17 G3 X-36.5675 Y11.1623 I-0.0126 J0.
N5305 G1 X-49.4441
N5310 G3 X-49.4567 Y11.1497 I0. J-0.0126
N5315 G1 Y11.1065
N5320 Y11.1055
N5325 G19 G2 Y11.0805 Z0.2947 J0. K0.025
N5330 G0 Z0.6969
N5335 G1 X-36.4089 Y11.0788 F500.
N5340 Z0.5394 F108.
N5345 Z0.2947
N5350 G3 Y11.1038 Z0.2697 J0.025 K0.
N5355 G1 Y11.1063
N5360 Y11.2958
N5365 G17 G3 X-36.4215 Y11.3084 I-0.0126 J0.
N5370 G1 X-49.5902
N5375 G3 X-49.6028 Y11.2958 I0. J-0.0126
N5380 G1 Y11.1066
N5385 Y11.1057
N5390 G19 G2 Y11.0807 Z0.2947 J0. K0.025
N5395 G0 Z0.6969
N5400 G1 X-36.4143 Y3.9135 F500.
N5405 Z0.2947 F108.
N5410 G18 G2 X-36.3893 Z0.2697 I0.025 K0.
N5415 G1 X-36.3745
N5420 X-36.2754
N5425 G17 G3 X-36.2628 Y3.9261 I0. J0.0126
N5430 G1 Y11.4419
N5435 G3 X-36.2754 Y11.4544 I-0.0126 J0.
N5440 G1 X-49.7362
N5445 G3 X-49.7488 Y11.4419 I0. J-0.0126
N5450 G1 Y3.9261
N5455 G3 X-49.7362 Y3.9135 I0.0126 J0.
N5460 G1 X-49.637
N5465 G2 X-49.5275 Y3.8405 I0. J-0.1187
N5470 G3 X-49.4179 Y3.7674 I0.1095 J0.0456
N5475 G1 X-36.1293
N5480 G3 X-36.1168 Y3.78 I0. J0.0126
N5485 G1 Y11.5879
N5490 G3 X-36.1293 Y11.6005 I-0.0126 J0.
N5495 G1 X-49.8823
N5500 G3 X-49.8949 Y11.5879 I0. J-0.0126
N5505 G1 Y3.78
N5510 G3 X-49.8823 Y3.7674 I0.0126 J0.
N5515 G1 X-49.4179
N5520 G2 X-49.3084 Y3.6944 I0. J-0.1187
N5525 G3 X-49.1988 Y3.6214 I0.1095 J0.0456
N5530 G1 X-35.9833
N5535 G3 X-35.9707 Y3.634 I0. J0.0126
N5540 G1 Y11.734
N5545 G3 X-35.9833 Y11.7466 I-0.0126 J0.
N5550 G1 X-50.0284
N5555 G3 X-50.0409 Y11.734 I0. J-0.0126
N5560 G1 Y3.634
N5565 G3 X-50.0284 Y3.6214 I0.0126 J0.
N5570 G1 X-49.1988
N5575 G2 X-49.0893 Y3.5483 I0. J-0.1187
N5580 G3 X-48.9798 Y3.4753 I0.1095 J0.0456
N5585 G1 X-35.8372
N5590 G3 X-35.8246 Y3.4879 I0. J0.0126
N5595 G1 Y11.8801
N5600 G3 X-35.8372 Y11.8926 I-0.0126 J0.
N5605 G1 X-50.1744
N5610 G3 X-50.187 Y11.8801 I0. J-0.0126
N5615 G1 Y3.4879
N5620 G3 X-50.1744 Y3.4753 I0.0126 J0.
N5625 G1 X-48.9798
N5630 G2 X-48.8702 Y3.4023 I0. J-0.1187
N5635 G3 X-48.7607 Y3.3293 I0.1095 J0.0456
N5640 G1 X-35.6912
N5645 G3 X-35.6786 Y3.3418 I0. J0.0126
N5650 G1 Y12.0261
N5655 G3 X-35.6912 Y12.0387 I-0.0126 J0.
N5660 G1 X-50.3205
N5665 G3 X-50.3331 Y12.0261 I0. J-0.0126
N5670 G1 Y3.3418
N5675 G3 X-50.3205 Y3.3293 I0.0126 J0.
N5680 G1 X-48.7607
N5685 G2 X-48.651 Y3.2561 I0. J-0.1188
N5690 G3 X-48.5413 Y3.183 I0.1097 J0.0457
N5695 G1 X-35.5323
N5700 Y12.185
N5705 X-50.4793
N5710 Y3.183
N5715 X-48.5413
N5720 G3 X-48.5337 Y3.1844 Z0.2709 I-0.0006 J0.0244
N5725 X-48.5276 Y3.1876 Z0.2745 I-0.0082 J0.023
N5730 X-48.5235 Y3.1914 Z0.28 I-0.0143 J0.0197
N5735 X-48.5214 Y3.1942 Z0.287 I-0.0184 J0.016
N5740 X-48.5207 Y3.1953 Z0.2947 I-0.0205 J0.0132
N5745 G0 Z1.0906

(Contour - Inner Screen)
N5755 G1 X-41.6067 Y3.7932 F500.
N5760 G0 Z1.0906
N5765 Z0.6969
N5770 G1 Z0.5984 F108.
N5775 X-36.3788 Z0.5666
N5780 Y11.1023 Z0.5222
N5785 X-49.6329 Z0.4416
N5790 Y3.7932 Z0.3972
N5795 X-36.3788 Z0.3166
N5800 Y11.1023 Z0.2722
N5805 X-40.0333 Z0.25
N5810 X-49.6329
N5815 Y3.7932
N5820 X-36.3788
N5825 Y11.1023
N5830 X-40.0333
N5835 X-49.6329 Z0.1916
N5840 Y7.9495 Z0.1725
N5845 Y3.7932
N5850 X-36.3788
N5855 Y11.1023
N5860 X-49.6329
N5865 Y7.9495
N5870 G0 Z1.0906

(Contour - Panels)
N5880 G1 X-40.2585 Y4.8013 F500.
N5885 G0 Z1.0906
N5890 Z0.6969
N5895 G1 Z0.5984 F108.
N5900 X-46.9059 Z0.5395
N5905 G2 X-47.03 Y4.9111 Z0.5379 I0. J0.125
N5910 G1 X-47.689 Y10.2979 Z0.4898
N5915 G2 X-47.565 Y10.4381 Z0.4879 I0.1241 J0.0152
N5920 G1 X-38.6054 Z0.4085
N5925 G2 X-38.4804 Y10.3131 Z0.4068 I0. J-0.125
N5930 G1 Y10.171 Z0.4055
N5935 G2 X-38.4815 Y10.1545 Z0.4054 I-0.125 J0.
N5940 G1 X-39.1777 Y4.9098 Z0.3585
N5945 G2 X-39.3016 Y4.8013 Z0.3569 I-0.1239 J0.0164
N5950 G1 X-46.9059 Z0.2895
N5955 G2 X-47.03 Y4.9111 Z0.2879 I0. J0.125
N5960 G1 X-47.5494 Y9.1569 Z0.25
N5965 X-47.689 Y10.2979
N5970 G2 X-47.565 Y10.4381 I0.1241 J0.0152
N5975 G1 X-38.6054
N5980 G2 X-38.4804 Y10.3131 I0. J-0.125
N5985 G1 Y10.171
N5990 G2 X-38.4815 Y10.1545 I-0.125 J0.
N5995 G1 X-39.1777 Y4.9098
N6000 G2 X-39.3016 Y4.8013 I-0.1239 J0.0164
N6005 G1 X-46.9059
N6010 G2 X-47.03 Y4.9111 I0. J0.125
N6015 G1 X-47.5494 Y9.1569
N6020 X-47.689 Y10.2979 Z0.2398
N6025 G2 X-47.565 Y10.4381 Z0.2379 I0.1241 J0.0152
N6030 G1 X-38.6054 Z0.1585
N6035 G2 X-38.4804 Y10.3131 Z0.1568 I0. J-0.125
N6040 G1 Y10.171 Z0.1555
N6045 G2 X-38.4815 Y10.1545 Z0.1554 I-0.125 J0.
N6050 G1 X-39.1777 Y4.9098 Z0.1085
N6055 G2 X-39.3016 Y4.8013 Z0.1069 I-0.1239 J0.0164
N6060 G1 X-46.9059 Z0.0395
N6065 G2 X-47.03 Y4.9111 Z0.0379 I0. J0.125
N6070 G1 X-47.3439 Y7.4769 Z0.015
N6075 X-47.5494 Y9.1569
N6080 X-47.689 Y10.2979
N6085 G2 X-47.565 Y10.4381 I0.1241 J0.0152
N6090 G1 X-38.6054
N6095 G2 X-38.4804 Y10.3131 I0. J-0.125
N6100 G1 Y10.171
N6105 G2 X-38.4815 Y10.1545 I-0.125 J0.
N6110 G1 X-39.1777 Y4.9098
N6115 G2 X-39.3016 Y4.8013 I-0.1239 J0.0164
N6120 G1 X-46.9059
N6125 G2 X-47.03 Y4.9111 I0. J0.125
N6130 G1 X-47.3439 Y7.4769
N6135 G0 Z0.6969
N6140 G1 X-51.1423 Y1.6547 F500.
N6145 Z0.5984 F108.
N6150 X-52.3748 Z0.5936
N6155 G2 X-52.4928 Y1.7385 Z0.593 I0. J0.125
N6160 G1 X-55.0641 Y9.1002 Z0.5624
N6165 G2 X-55.0532 Y9.2058 Z0.5619 I0.118 J0.0412
N6170 G1 X-52.2674 Y13.8441 Z0.5407
N6175 G2 X-52.1602 Y13.9047 Z0.5402 I0.1072 J-0.0644
N6180 G1 X-32.6552 Z0.4636
N6185 G2 X-32.5314 Y13.7625 Z0.4627 I0. J-0.125
N6190 G1 X-34.2014 Y1.7625 Z0.4152
N6195 G2 X-34.3252 Y1.6547 Z0.4145 I-0.1238 J0.0172
N6200 G1 X-52.3748 Z0.3436
N6205 G2 X-52.4928 Y1.7385 Z0.343 I0. J0.125
N6210 G1 X-55.0641 Y9.1002 Z0.3124
N6215 G2 X-55.0532 Y9.2058 Z0.3119 I0.118 J0.0412
N6220 G1 X-52.2674 Y13.8441 Z0.2907
N6225 G2 X-52.1602 Y13.9047 Z0.2902 I0.1072 J-0.0644
N6230 G1 X-41.9293 Z0.25
N6235 X-32.6552
N6240 G2 X-32.5314 Y13.7625 I0. J-0.125
N6245 G1 X-34.2014 Y1.7625
N6250 G2 X-34.3252 Y1.6547 I-0.1238 J0.0172
N6255 G1 X-52.3748
N6260 G2 X-52.4928 Y1.7385 I0. J0.125
N6265 G1 X-54.8947 Y8.6153
N6270 X-55.0641 Y9.1002
N6275 G2 X-55.0532 Y9.2058 I0.118 J0.0412
N6280 G1 X-52.2674 Y13.8441
N6285 G2 X-52.1602 Y13.9047 I0.1072 J-0.0644
N6290 G1 X-41.9293
N6295 X-32.6552 Z0.2136
N6300 G2 X-32.5314 Y13.7625 Z0.2127 I0. J-0.125
N6305 G1 X-34.2014 Y1.7625 Z0.1652
N6310 G2 X-34.3252 Y1.6547 Z0.1645 I-0.1238 J0.0172
N6315 G1 X-52.3748 Z0.0936
N6320 G2 X-52.4928 Y1.7385 Z0.093 I0. J0.125
N6325 G1 X-55.0641 Y9.1002 Z0.0624
N6330 G2 X-55.0532 Y9.2058 Z0.0619 I0.118 J0.0412
N6335 G1 X-52.2674 Y13.8441 Z0.0407
N6340 G2 X-52.1602 Y13.9047 Z0.0402 I0.1072 J-0.0644
N6345 G1 X-45.7491 Z0.015
N6350 X-32.6552
N6355 G2 X-32.5314 Y13.7625 I0. J-0.125
N6360 G1 X-34.2014 Y1.7625
N6365 G2 X-34.3252 Y1.6547 I-0.1238 J0.0172
N6370 G1 X-52.3748
N6375 G2 X-52.4928 Y1.7385 I0. J0.125
N6380 G1 X-54.8947 Y8.6153
N6385 X-55.0641 Y9.1002
N6390 G2 X-55.0532 Y9.2058 I0.118 J0.0412
N6395 G1 X-52.2674 Y13.8441
N6400 G2 X-52.1602 Y13.9047 I0.1072 J-0.0644
N6405 G1 X-45.7491
N6410 G0 Z0.6969
N6415 G1 X-59.4906 Y8.4097 F500.
N6420 Z0.5984 F108.
N6425 X-55.8413 Z0.567
N6430 G2 X-55.7174 Y8.3011 Z0.5654 I0. J-0.125
N6435 G1 X-54.7466 Y0.9752 Z0.5018
N6440 G2 X-54.8705 Y0.8338 Z0.4999 I-0.1239 J-0.0164
N6445 G1 X-62.5681 Z0.4336
N6450 G2 X-62.692 Y0.9753 Z0.4318 I0. J0.125
N6455 G1 X-61.7188 Y8.3011 Z0.3681
N6460 G2 X-61.5949 Y8.4097 Z0.3666 I0.1239 J-0.0165
N6465 G1 X-55.8413 Z0.317
N6470 G2 X-55.7174 Y8.3011 Z0.3154 I0. J-0.125
N6475 G1 X-54.7466 Y0.9752 Z0.2518
N6480 G2 X-54.8625 Y0.8341 Z0.25 I-0.1239 J-0.0164
N6485 X-54.8705 Y0.8338 I-0.008 J0.1247
N6490 G1 X-62.5681
N6495 G2 X-62.692 Y0.9753 I0. J0.125
N6500 G1 X-61.7188 Y8.3011
N6505 G2 X-61.5949 Y8.4097 I0.1239 J-0.0165
N6510 G1 X-55.8413
N6515 G2 X-55.7174 Y8.3011 I0. J-0.125
N6520 G1 X-54.7466 Y0.9752
N6525 G2 X-54.8625 Y0.8341 I-0.1239 J-0.0164
N6530 X-54.8705 Y0.8338 Z0.2499 I-0.008 J0.1247
N6535 G1 X-62.5681 Z0.1836
N6540 G2 X-62.692 Y0.9753 Z0.1818 I0. J0.125
N6545 G1 X-61.7188 Y8.3011 Z0.1181
N6550 G2 X-61.5949 Y8.4097 Z0.1166 I0.1239 J-0.0165
N6555 G1 X-55.8413 Z0.067
N6560 G2 X-55.7174 Y8.3011 Z0.0654 I0. J-0.125
N6565 G1 X-54.9484 Y2.4981 Z0.015
N6570 X-54.7466 Y0.9752
N6575 G2 X-54.8705 Y0.8338 I-0.1239 J-0.0164
N6580 G1 X-62.5681
N6585 G2 X-62.692 Y0.9753 I0. J0.125
N6590 G1 X-61.7188 Y8.3011
N6595 G2 X-61.5949 Y8.4097 I0.1239 J-0.0165
N6600 G1 X-55.8413
N6605 G2 X-55.7174 Y8.3011 I0. J-0.125
N6610 G1 X-54.9484 Y2.4981
N6615 G0 Z0.6969
N6620 G1 X-74.0485 Y6.9759 F500.
N6625 Z0.5984 F108.
N6630 X-64.2354 Z0.5484
N6635 G2 X-64.1104 Y6.8509 Z0.5474 I0. J-0.125
N6640 G1 Y1.0505 Z0.5179
N6645 G2 X-64.2354 Y0.9255 Z0.5169 I-0.125 J0.
N6650 G1 X-82.5748 Z0.4234
N6655 G2 X-82.6998 Y1.0505 Z0.4224 I0. J0.125
N6660 G1 Y6.8509 Z0.3929
N6665 G2 X-82.5748 Y6.9759 Z0.3919 I0.125 J0.
N6670 G1 X-64.2354 Z0.2984
N6675 G2 X-64.1104 Y6.8509 Z0.2974 I0. J-0.125
N6680 G1 Y1.0505 Z0.2679
N6685 G2 X-64.2354 Y0.9255 Z0.2669 I-0.125 J0.
N6690 G1 X-67.5462 Z0.25
N6695 X-82.5748
N6700 G2 X-82.6998 Y1.0505 I0. J0.125
N6705 G1 Y6.8509
N6710 G2 X-82.5748 Y6.9759 I0.125 J0.
N6715 G1 X-64.2354
N6720 G2 X-64.1104 Y6.8509 I0. J-0.125
N6725 G1 Y1.0505
N6730 G2 X-64.2354 Y0.9255 I-0.125 J0.
N6735 G1 X-67.5462
N6740 X-82.5748 Z0.1734
N6745 G2 X-82.6998 Y1.0505 Z0.1724 I0. J0.125
N6750 G1 Y6.8509 Z0.1429
N6755 G2 X-82.5748 Y6.9759 Z0.1419 I0.125 J0.
N6760 G1 X-64.2354 Z0.0484
N6765 G2 X-64.1104 Y6.8509 Z0.0474 I0. J-0.125
N6770 G1 Y1.0505 Z0.0179
N6775 G2 X-64.2354 Y0.9255 Z0.0169 I-0.125 J0.
N6780 G1 X-64.6023 Z0.015
N6785 X-82.5748
N6790 G2 X-82.6998 Y1.0505 I0. J0.125
N6795 G1 Y6.8509
N6800 G2 X-82.5748 Y6.9759 I0.125 J0.
N6805 G1 X-64.2354
N6810 G2 X-64.1104 Y6.8509 I0. J-0.125
N6815 G1 Y1.0505
N6820 G2 X-64.2354 Y0.9255 I-0.125 J0.
N6825 G1 X-64.6023
N6830 G0 Z0.6969
N6835 G1 X-23.7928 Y7.5227 F500.
N6840 Z0.5984 F108.
N6845 X-22.9559 Y1.5679 Z0.5596
N6850 G2 X-23.0797 Y1.4255 Z0.5582 I-0.1238 J-0.0174
N6855 G1 X-32.0994 Z0.5
N6860 G2 X-32.2232 Y1.5679 Z0.4986 I0. J0.125
N6865 G1 X-30.6135 Y13.0214 Z0.424
N6870 G2 X-30.4898 Y13.129 Z0.4228 I0.1238 J-0.0174
N6875 G1 X-24.6894 Z0.3854
N6880 G2 X-24.5656 Y13.0214 Z0.3843 I0. J-0.125
N6885 G1 X-22.9559 Y1.5679 Z0.3096
N6890 G2 X-23.0797 Y1.4255 Z0.3082 I-0.1238 J-0.0174
N6895 G1 X-32.0994 Z0.25
N6900 G2 X-32.1036 Y1.4256 I0. J0.125
N6905 X-32.2232 Y1.5679 I0.0042 J0.1249
N6910 G1 X-30.6135 Y13.0214
N6915 G2 X-30.4898 Y13.129 I0.1238 J-0.0174
N6920 G1 X-24.6894
N6925 G2 X-24.5656 Y13.0214 I0. J-0.125
N6930 G1 X-22.9559 Y1.5679
N6935 G2 X-23.0797 Y1.4255 I-0.1238 J-0.0174
N6940 G1 X-32.0994
N6945 G2 X-32.1036 Y1.4256 I0. J0.125
N6950 X-32.2232 Y1.5679 Z0.2486 I0.0042 J0.1249
N6955 G1 X-30.6135 Y13.0214 Z0.174
N6960 G2 X-30.4898 Y13.129 Z0.1728 I0.1238 J-0.0174
N6965 G1 X-24.6894 Z0.1354
N6970 G2 X-24.5656 Y13.0214 Z0.1343 I0. J-0.125
N6975 G1 X-22.9559 Y1.5679 Z0.0596
N6980 G2 X-23.0797 Y1.4255 Z0.0582 I-0.1238 J-0.0174
N6985 G1 X-29.7794 Z0.015
N6990 X-32.0994
N6995 G2 X-32.2232 Y1.5679 I0. J0.125
N7000 G1 X-30.6135 Y13.0214
N7005 G2 X-30.4898 Y13.129 I0.1238 J-0.0174
N7010 G1 X-24.6894
N7015 G2 X-24.5656 Y13.0214 I0. J-0.125
N7020 G1 X-22.9559 Y1.5679
N7025 G2 X-23.0797 Y1.4255 I-0.1238 J-0.0174
N7030 G1 X-29.7794
N7035 G0 Z0.6969
N7040 G1 X-1.4724 Y7.9105 F500.
N7045 Z0.5984 F108.
N7050 X-3.7204 Y1.4517 Z0.5716
N7055 G2 X-3.8384 Y1.3677 Z0.571 I-0.1181 J0.0411
N7060 G1 X-21.9177 Z0.5
N7065 G2 X-22.0415 Y1.4755 Z0.4993 I0. J0.125
N7070 G1 X-23.7116 Y13.4755 Z0.4518
N7075 G2 X-23.5878 Y13.6178 Z0.4509 I0.1238 J0.0172
N7080 G1 X-4.0829 Z0.3744
N7085 G2 X-3.9757 Y13.5571 Z0.3739 I0. J-0.125
N7090 G1 X-1.1766 Y8.8971 Z0.3525
N7095 G2 X-1.1657 Y8.7917 Z0.3521 I-0.1072 J-0.0644
N7100 G1 X-3.7204 Y1.4517 Z0.3216
N7105 G2 X-3.8384 Y1.3677 Z0.321 I-0.1181 J0.0411
N7110 G1 X-21.9177 Z0.25
N7115 G2 X-21.9211 Y1.3678 I0. J0.125
N7120 X-22.0415 Y1.4755 I0.0034 J0.125
N7125 G1 X-23.7116 Y13.4755
N7130 G2 X-23.5878 Y13.6178 I0.1238 J0.0172
N7135 G1 X-4.0829
N7140 G2 X-3.9757 Y13.5571 I0. J-0.125
N7145 G1 X-1.1766 Y8.8971
N7150 G2 X-1.1657 Y8.7917 I-0.1072 J-0.0644
N7155 G1 X-3.7204 Y1.4517
N7160 G2 X-3.8384 Y1.3677 I-0.1181 J0.0411
N7165 G1 X-21.9177
N7170 G2 X-21.9211 Y1.3678 I0. J0.125
N7175 X-22.0415 Y1.4755 Z0.2493 I0.0034 J0.125
N7180 G1 X-23.7116 Y13.4755 Z0.2018
N7185 G2 X-23.5878 Y13.6178 Z0.2009 I0.1238 J0.0172
N7190 G1 X-4.0829 Z0.1244
N7195 G2 X-3.9757 Y13.5571 Z0.1239 I0. J-0.125
N7200 G1 X-1.1766 Y8.8971 Z0.1025
N7205 G2 X-1.1657 Y8.7917 Z0.1021 I-0.1072 J-0.0644
N7210 G1 X-3.7204 Y1.4517 Z0.0716
N7215 G2 X-3.8384 Y1.3677 Z0.071 I-0.1181 J0.0411
N7220 G1 X-18.0995 Z0.015
N7225 X-21.9177
N7230 G2 X-22.0415 Y1.4755 I0. J0.125
N7235 G1 X-23.7116 Y13.4755
N7240 G2 X-23.5878 Y13.6178 I0.1238 J0.0172
N7245 G1 X-4.0829
N7250 G2 X-3.9757 Y13.5571 I0. J-0.125
N7255 G1 X-1.1766 Y8.8971
N7260 G2 X-1.1657 Y8.7917 I-0.1072 J-0.0644
N7265 G1 X-3.7204 Y1.4517
N7270 G2 X-3.8384 Y1.3677 I-0.1181 J0.0411
N7275 G1 X-18.0995
N7280 G0 Z1.0906

N7285 M5
N7290 G53 G0 Z3.4
N7295 G53 X0. Y0.
N7300 M30

%
